/* XPM */
static char *enemy_move_2[] = {
/* columns rows colors chars-per-pixel */
"64 60 256 2 ",
"   c #040007",
".  c #160512",
"X  c #371819",
"o  c #2E0E0E",
"O  c #2F1B29",
"+  c #372831",
"@  c #1E1623",
"#  c #4E1510",
"$  c #6D140D",
"%  c #57250A",
"&  c #48271A",
"*  c #562819",
"=  c #54310E",
"-  c #6D3110",
";  c #472928",
":  c #563529",
">  c #493336",
",  c #583B38",
"<  c #4D2F2B",
"1  c #6D372A",
"2  c #551C21",
"3  c #764A17",
"4  c #7A571B",
"5  c #6D4615",
"6  c #554637",
"7  c #6D4B32",
"8  c #7E6224",
"9  c #7B673D",
"0  c #5A441D",
"q  c #3D3649",
"w  c #3F3B65",
"e  c #483748",
"r  c #523A4B",
"t  c #6B3E45",
"y  c #5A494A",
"u  c #574757",
"i  c #534E54",
"p  c #664A47",
"a  c #695859",
"s  c #71554B",
"d  c #776557",
"f  c #726552",
"g  c #5D556C",
"h  c #6B5968",
"j  c #6C5A6F",
"k  c #78666A",
"l  c #796875",
"z  c #71696E",
"x  c #28447A",
"c  c #91370F",
"v  c #A43904",
"b  c #8D3328",
"n  c #AA3825",
"m  c #925013",
"M  c #AD4D0E",
"N  c #916119",
"B  c #B16810",
"V  c #985A37",
"C  c #8D4F2E",
"Z  c #AE572E",
"A  c #866736",
"S  c #8B692D",
"D  c #B4772F",
"F  c #C97311",
"G  c #E77807",
"H  c #CD5534",
"J  c #C8742D",
"K  c #D6681C",
"L  c #98574B",
"P  c #9A5954",
"I  c #8A504F",
"U  c #A25B54",
"Y  c #A55D48",
"T  c #966448",
"R  c #9A6355",
"E  c #977A5B",
"W  c #8B7050",
"Q  c #A76848",
"!  c #B76B4C",
"~  c #B8764D",
"^  c #AC6453",
"/  c #A76658",
"(  c #B56C53",
")  c #B76C54",
"_  c #A87856",
"`  c #BB7354",
"'  c #B97957",
"]  c #A6784A",
"[  c #877679",
"{  c #8D756D",
"}  c #A47767",
"|  c #C6794C",
" . c #C47B53",
".. c #C47753",
"X. c #D2704A",
"o. c #F4784A",
"O. c #C95643",
"+. c #B08B35",
"@. c #AE842D",
"#. c #D98E14",
"$. c #CD8E30",
"%. c #CFA230",
"&. c #EDAF34",
"*. c #EB9620",
"=. c #998552",
"-. c #BC8756",
";. c #B28C51",
":. c #968767",
">. c #918873",
",. c #B78965",
"<. c #B8966B",
"1. c #AB8F71",
"2. c #B6A571",
"3. c #CC864C",
"4. c #D48B4C",
"5. c #D4874A",
"6. c #DB954C",
"7. c #D9964C",
"8. c #CA8353",
"9. c #CA8858",
"0. c #D28C53",
"q. c #D68C56",
"w. c #C8935A",
"e. c #D49254",
"r. c #DA9453",
"t. c #DD9C53",
"y. c #DB9C5B",
"u. c #D5975A",
"i. c #C69C4B",
"p. c #E29A56",
"a. c #F0924D",
"s. c #DDA35B",
"d. c #DDA556",
"f. c #D3AB54",
"g. c #E3A355",
"h. c #E2A45B",
"j. c #E4AB5C",
"k. c #E9AA59",
"l. c #EAB45B",
"z. c #F5B95C",
"x. c #F0AD49",
"c. c #C89567",
"v. c #D69A64",
"b. c #C9936F",
"n. c #F29766",
"m. c #DCA364",
"M. c #DBA969",
"N. c #D7AA74",
"B. c #DDB779",
"V. c #CCAA73",
"C. c #E3AB63",
"Z. c #E5A966",
"A. c #FCAB69",
"S. c #E5B365",
"D. c #E3B46C",
"F. c #EBBC6C",
"G. c #EAB667",
"H. c #F6BA66",
"J. c #E3B473",
"K. c #E3BA74",
"L. c #EABD73",
"P. c #E4BC7B",
"I. c #E8B979",
"U. c #FCB775",
"Y. c #E6AD73",
"T. c #FDCF4F",
"R. c #EDC26D",
"E. c #ECC373",
"W. c #EBC47D",
"Q. c #E8C57C",
"!. c #F3C978",
"~. c #F8D379",
"^. c #F3C569",
"/. c #EDD875",
"(. c #DDC83F",
"). c #727089",
"_. c #55689A",
"`. c #2F5883",
"'. c #897A89",
"]. c #6A99C7",
"[. c #7C80A5",
"{. c #8B8387",
"}. c #968889",
"|. c #988A97",
" X c #979193",
".X c #A69699",
"XX c #AB908B",
"oX c #B3A895",
"OX c #9797AD",
"+X c #A997A1",
"@X c #A9A7A9",
"#X c #B7A8A9",
"$X c #B8B7B8",
"%X c #B3AAB3",
"&X c #8DA48F",
"*X c #C6B689",
"=X c #DABB84",
"-X c #CFAF91",
";X c #E5BC82",
":X c #F2BF8F",
">X c #C8B9B7",
",X c #C8B4AA",
"<X c #D7C693",
"1X c #E5C483",
"2X c #ECCB84",
"3X c #E5CA8C",
"4X c #EBCC8B",
"5X c #E7C687",
"6X c #F2CB85",
"7X c #EDD38D",
"8X c #EED288",
"9X c #F7D689",
"0X c #E6CC94",
"qX c #E5D194",
"wX c #EBD394",
"eX c #E6D49B",
"rX c #EAD59A",
"tX c #ECD99D",
"yX c #EDD996",
"uX c #F4DA97",
"iX c #FFC99A",
"pX c #F9E39A",
"aX c #D8CBB7",
"sX c #D2C8AE",
"dX c #E6DBA3",
"fX c #EADCA3",
"gX c #E8DBA8",
"hX c #E6D8BB",
"jX c #F2D9AB",
"kX c #EBE2AB",
"lX c #E8E2A9",
"zX c #F6E5A8",
"xX c #E9E6B1",
"cX c #E9E7B3",
"vX c #F6E7B7",
"bX c #F5F2B9",
"nX c #A2A8C3",
"mX c #C6BDC4",
"MX c #D4C7C5",
"NX c #DBD4D7",
"BX c #D5CCCC",
"VX c #E4D8C6",
"CX c #E6DAD5",
"ZX c #F7EAC6",
"AX c #ECE4D9",
"SX c #F3EBD9",
"DX c #F8F4DD",
"FX c #F1EAC8",
"GX c #E6DDE3",
"HX c #FDFBE5",
"JX c #FDFEEC",
"KX c #F7F4E7",
"LX c #FDFDF2",
"PX c #FAFAF5",
"IX c #F0EAE5",
"UX c #D2EDCF",
/* pixels */
"lXdXlXlXB.Q.qXlXxXcXlXqXQ.Q.3XdXlXlXB.3XqXdXlXgXdXdXdXlXcXxXtX2XL.;.-.zXbX1XB.B.Q.3XqXfXfXlXlXcXcXK.C.C.K.rXfXlXcXxXxXxXlXlXlXlX",
"D.D.D.D.M.qXcXqXP.K.S.g.j.Q.xXlX3XB.K.1XqXqX1XqXcXdX3XJ.J.K.F.;.W s d >.V.k.d.Q.gXxXcXcXlXlXfX3XM.7.D.4XgXlXcXdX1XP.K.K.K.B.K.K.",
"D.D.D.1XfX0XB.t.7.S.P.Q.3XqX0X=XD.D.Q.1X1X3X3X3XQ.K.K.K.N.W 6 >.p x.D O 6 : 2.lXlX3XB.B.K.K.C.7.C.K.fXlXxXfX3XD.7.d.D.D.D.D.K.Q.",
"lXdXlX0X1Xd.d.P.3XtXxXlX0XJ.d.J.4XqXfXlXcXqX1XC.C.3XlXsX+ {.@Xf 6.:XJ _ i oXy f V.W.J.J.C.C.C.K.qXtXfXlX0XK.t.7.7.C.qXfXtXtXxXlX",
"lXtXB.t.7.d.S.dXcXlXqX3XP.P.4XrXrXlXfXqX5XK.D.1XlXcXk e MXe $XW %.M G W  X|.l *X+ oXbXkXqX7X7XrXdXlXxX0Xd.7.t.d.D.P.qXlXlXfX3XS.",
"P.C.t.h.K.qXqX3X1XQ.1XwXqXtXlXfXlX0XC.g.S.3XdXcXxX>.3 W j %Xz #Xc G F p $Xg MXe S 6 <.W.wXrXgXgXgXfX5Xy.t.J.1XqXfXcXgX5X=Xy.7.d.",
"d.C.Q.tXtXqXqX1X2X7X7XqXqXtXlXqXM.d.D.Q.3X2XW.J.P.> o 8 d $Xl }.N *.B >.z @Xz +.- o 9 H.4XfXfXtXK.h.7.t.j.qXlXlXfX5Xu.5.7.d.Q.rX",
"qXqX0XQ.j.g.J.0XqX3XK.D.J.D.P.j.H.6XqXB.d.S.1XtXoX7 7 % C p >.;.8 m - =.E >.6 3 & 0 W eXdX3XK.h.7.7.h.Z.I.tXfX1Xy.r.d.Z.1XqX3XK.",
"7.7.3.7.7.7.d.d.M.m.d.p.7.7.g.w.A A 4.g.d.d.B.zXk * ;.= # v 7.6XJ.u.v.;X6XD c # 4 D o ,.k.7.7.t.h.D.qXlXfXqXD.7.7.K.qX4X4XqXfXqX",
"d.M.D.2XD.1XqXfXfXfX1XS.5XqXV.a  XXX7 <XkXdX3XK.W , ).: o v c Z D a.X.Z Z M c # p j = V d.j.F.qXqXfXfX2XS.t.7.d.1XrXQ.L.S.D.qXt.",
"fXfXfXtX0XdX0XJ.C.t.J.tXdXzX7 @.~.D :.E 0XqXuX*X& D oXD o # - & 7 U.9.# * 1 . - <.*XB X B.4XrXrXtXfXQ.F.d.g.p.K.K.P.4XwXgXqXd.7.",
"4XP.d.y.t.7.7.t.C.5XtXdXF.-.p %.!.V.=.W dX5XD.<.+ y g O b o , . L A.n.X < o * 1 q j > 6 0XrXrXfXqXP.h.p.r.7.L.qXqXqXfX0Xm.d.t.d.",
"7.5.5.7.7.t.t.K.tXlX0XZ.~ p V.9X<.:.y =XZ.7.r., m f.*X1 H $ iX> XXA.iXa [ / c b =.Q.$.- f zXfXrXN.7.5.5.r.t.P.rXtXfX1Xt.7.7.7.d.",
"4.u.d.h.d.d.D.5XfXW.u.T d <XT.%.N N :.G.5.7.v.6 ; a g * H H n.A.U.n.U.A.U.X.H C e g y X W uXP.r.3.5.r.C.1XrXfXlXfXB.q.q.q.e.Z.rX",
"r.y.y.C.J.1XrXlX1X-.A +.T.T.@.- M 3 ] p.m.6X:.% F 2.$XV . . Z U._ C C Y.U.; . - -X$X@.M & ;.p.q.v.P.;XqXfXfXlX0Xm.q.q.y.C.2XfXkX",
"d.d.h.L.lXgXdXB.k.9 N *.B 5 - G 1 E p.S.Q.uX:.o 1 p k { 7 % X ) v.W ;.v.: o = k d d : * o _ p.Z.W.2X2X4XqXtXP.7.5.d.S.S.E.2XtXqX",
"t.S.2XfX0Xm.q.5.r.t.C 5 ] c.- % 5 : w.C.1XpX1.1 M D 2.<.:.- o . T O 7 >   % Q oX+.;.N c : -.C.D.F.E.W.4X4Xm.q.3.e.y.y.F.W.rXqXu.",
"7XfXgXB.5.e.y.m.m.h.L.!.=Xf S { :.:.f N.tXdXK.d @ 2 7 E :.A X     + .     f :.E W 1 O @ E C.C.F.I.4XrXfXP.q.| 3.y.y.D.qXlXgXN.3.",
"6XJ.u.e.y.S.E.E.2X4XqXpXs f @X1.oX$XW { bX=X5.y.1.X - =.:.=.& # X VXl # X d :.=.S % . _ k.Z.4XwXgXgX5Xm.q.e.Y.0XrXtXfXgX4XC.7.t.",
"q.3.4.y.v.C.S.4XfXlXqXY.0 6  X}.&X:.y f J.q.q.E 6 < . 4 ;.oXi $ * VXk v # ).oX;.% . : y _ !.rXfXtXN.q.q.u.C.L.W.L.2XrX1Xh.t.y.Z.",
"8.v.D.W.1X4XrXfXrXN.9.| ( < m B B c , 8.r.w.=.N ,.].a : d '.q 9 < VXz 7 0 g '.f = ).].=.3 1.uXqXm.q.9. .9.t.J.2X1XtX4Xd.e.8.3.3.",
"Q.7XqX7X7XqX4Xm.3.| | 0.J.1X& M m ; e.r.d.d.< ;.w.nX`.3 +.2.i C I @ + u.& {.+.B X ].oX%.4 ,.6XK.m.u.8...r.C.L.Q.tXdXv.8.` ..y.h.",
"fXtXqX;XP.v.3.3.e.u.u.S.zXgX: x.f.: q.m.C.k._ > %.i.[.+ 6 a q #.M o - *.N w s * +  X%.S a 9X4X1XM.9...u.C.4X4XrXqXc.| ' v.L.!.R.",
"5Xv.u.8.| 3.8.r.g.g.S.uXqXm.T - - ] C.S.j.L.V.e / i.=.+ B %.0 s &.*.&.&.> m F m + i.+.#X X1.uXv...9.J.L.6XrXvXqX9.| | y.F.F.E.Q.",
"' | 8.u.e.r.r.h.L.4XtX5Xe.5.~ - 5 M.G.D.4XgX6 S N.} D = & : O _._._._._.x X < o N D #XLXSXk _ q.m.C.F.L.qXzX3Xq...9.C.W.W.E.8XqX",
"8.M.M.h.h.D.L.4XtXkX4Xy.e.g.] = = 1.7XfXpX2.X ;.UX-X- * % % * 1.OXnXOX@XW % - * 1 +XJXHXJXAXa m.D.h.C.uXzX5Xe.3.5.j.E.E.1XrX0X9.",
"h.j.j.F.wXqXtXfXfXqXm.q.C.V.C * Q R 1.N.E k @X1.:.f.c a oXC F G G #.#.G F m I #Xj KXHXHXDXJX>Xs F.I.yXzX;X5.5.C.!.7XuXuXlX0X8.| ",
"l.j.E.uXpXpXfX4XW.m.q.D.pXW n H X.o.1 < ] f.ZXIX,XN $ W LXSX,Xb.w.-.;.u.<.,XDXNXh DXAX>XCXSXJX{.;.J.N.J.u.v.;X4XwX3X;X;X=X8.` ! ",
"D.1XwX=XN.B.N.u.q...v.N.P.s Z Z $ n V s =.T.~.SXLXBX+ e PXKXJXJXKXKXKXKXLXJXJXMXg CX%XGXJXHXJXmX, C.L.I.5XV.' 9.0.8.3.3.| | ` ` ",
"m.b.9.` ! | ..8.0.8.| | q.7 $ o.b n M 7 : z.9XZXGXLX.X, mXJXSXKXJXJXJXKXKXSXKX'.'.l -.uXZXJXHX#Xf zXtXqXb.9.v.C.j.G.Q.7XM.| 0.t.",
"t.t.h.D.K.2X2XF.g.t.u.r.k.c.1 Z 2 $ $ o a !.x.ZXGXJX%XW g BXNXGX,XXXXXCXNXGX|.z OX:.T.~.!.DXKXl *XrXb.) ) q.F.L.L.2XqX1Xy.y.l.g.",
"j.G.W.lXgX=Xv.9...v.v.Z.4XzX2.o # E 6 . [ !.H.zXKXKX%XXXy + p , <.N.b.y p , O %Xj a DX^.6XpXLXh ,.` ( ` y.D.1XqXtXqX4XI.1XG.l.j.",
"W.qXkX=X..! ` 8.u.W.Q.uXyXuX=X- 1 zX:.e '.6Xx.ZXHXKXMX[ ; v F 4 %.0XF.N $.F $ > C 2  XuXx.uXLXh V ) ..v.W.qXtXqXuXuXuX=X` ..y.S.",
"8X7XN.) ^ 8.d.h.2XuXqX4XQ.uX*X4 8 ,.7 u XX7XH.zXJXSXMX|.< v M - B -X3.- M M $ X.A.H [ 9XH.~.LXh Y p.h.I.uXuX7XuX7XN.' ^ ( q.S.qX",
"qX9.) ) ..h.k.E.7X7X2X2XtXuX,.8 A R 7 a XX6Xk.vXJXSXNX{.+ p > % m M v % * e 1 o.n.H [ hXx.9XLXh 3.H.Y.4XuX7X7X=X9.! ^ ( 0.C.6X7X",
"0.) ^ ) r.k.E.2X2X2X7XtX3Xv.Q 8 A R 7 a '.4Xz.vXJXSXNXl u MX{ Z s 1 p D Z MX Xb o.b l 9XG.uXLXh i.6XtXuXuX7Xb.( ^ ) ..y.S.F.L.G.",
"^ ) 8.y.F.W.4X2X2X7XyXN...) L 8 A E 7 k XX6Xz.vXJXSXMXe oXAX1.%.,X[ .X!.J VXVXt # o }.9X^.9XKXk V.zXkXzXN.' ^ ^ ` 4.t.k.C.L.F.S.",
"| e.F.uXtXtXrXqXlXqXc.) ^  .~ S W @Xa l .X6Xx.ZXHXAXBXe >XDX2.&.hX XOX9X$.VXKXh ).'.,XvXx.~.LXk *XbX3Xc.) ^ ` 0.t.C.2X4XrXlXW.G.",
"m.4XqXfXfXuXuX;Xv.9.^ ^ 8.j.-.8 W $Xd [ .X;XH.fXLXAX|.z BXJX2.&.,X{.OX9X$.aXKX.Xj .X,X!.L.^.KXk *XM.| ` ) 8.u.h.I.qXfXfXzX5Xu.8.",
"F.W.Q.Q.W.v.w.8.! ! ) 8.h.F.V.A W $Xd [ .X;Xx.ZXKXAXl {.KXJX1.&.BX>.%XpX$.aXJXBXr +X,XvXS.9XKXk ~ | ! ` 8.p.p.P.7X6X7X7XI.q.| ^ ",
"F.E.E.m.9.| ! ) ` 8.m.C.J.pX*XA W $Xa [ .XY.z.uXNXCXl  XHXLX1.x.%X X|.9X$.VXJXAXj '.>X!.^.!.KXk Q ..) ..r.C.I.4X2X2XqX8Xu.) ) ! ",
"S.m.9.` ` ` 8.q.y.k.F.W.qXzX<XN A +Xp [ .XP.*.ZXGXMXl $XJXLX1.&.hXl $XpX$.VXJXJX[ '.MXvX*.6XKXl L ..` v.;XuX7X6X2X7XP.v.) ) ) | ",
"S.L.J.M.m.d.j.F.W.2X2X7XuXpX1.4 A |.p [ .Xu.H.wXGX,Xj DXSXJX<.x.,X.X X9X$.hXHXLX[ |.MXI.6XC.IXl P v.v.uXuXuX2X6X!.D...) ^ ^ ..j.",
"7X=Xb.9.q.r.k.2XyXqXqXuXuXN.I 4 A }.a [ .X9.$.hXNX#Xj SXVXKX<.&.sX;.oXuX$.hXKXJX.Xl >XhX5.Z.GXk w.b.' ,.qXuX8XK.-.) / U ( u.S.l.",
"c./ ^ ^ q.F.E.!.6X!.E.J.b./ I 4 A :.s [ .X~ p.-XNX+Xz DXVXDX<.&.,X.X.X9X$.VXKXJXNXr >Xb.C.v.CXk *X;X( b.zX8Xc./ U U ) 0.g.l.l.G.",
"P / ' u.j.S.D.C.M.u.8.` ^ / Q 4 S V.E h  X~ J ,XBXj }.FXaXFX,.&.hX X@XuX$.hXJXKXIXh {.-XJ u.NXl V.zXtXpX3X,.U P ^ ` 7.j.D.F.2X7X",
"^ 9.C.C.y.e.3.e.t.8.) ..8.5.-.8 A <X*Xk .X~ | 1.%Xu ,X,XaXaX,.x.>X}.@X9X$.hXJXSXLX'.h -XJ 9.MXj =XuX7X~.~ L / ` 3.7.d.K.Z.Z.4X2X",
"d.S.F.1X4X2X2XW.v.3.5.r.y.J.*XS S <XpX:.'.9.M ,Xh e ,X-XaXsX,.&.>X{.@X9X$.VXJXDXJX%X+ XXM u.'.W pX!.!.!.G.D.d.5.0.M.F.!.!.F.E.~.",
"S.F.2X8X2XB.m.' ( ` e.v.qXzX<X8 S *XwX=Xy }..Xu u j >XaXaX*X,.&.MX{.$X9XJ VXLXSXJX>Xu l XX[ a 5X1XB.M.m.m.b./ ) y.F.E.!.E.Q./.m.",
"S.F.Q.D.( U U ) 3.r.Z.qXuXpX*X4 8 / ) / R y e e [ l VXSXaX*X_ &.>X@X@X9XJ >XLXAXLX#X'.}.> d -.` P P P P P P / v.F.R.R.E.E.!.v.L ",
"S.F.c.U U / 9.h.J.4XuXuXuX2XI 3 4 P / / / / ` } h W FXHXsX*X_ &.sX{.$X9XD aXLXAXHXSX[ d s / R R / / / q.5.t.S.G.^.R.E.E.E.w.U P ",
"j.-.P / ` t.D.B.qX8X8X9XN.^ I 3 3 P / ^ ..p.] {.E W ZXLX-X1.} *.b.OXoXx.D ,XJXSXHXFXk  X Xp / ( ..q.q.t.7.g.l.S.F.!.!.N./ U P ! ",
"_ L / 3.g.Q.uX5X2X8XQ.c./ / I 3 3 b.h.7.7.k.E .X{ E ZXLXoX[ E F z.;.x.*.D #XJXAXJXVX}.l #Xs y.Y.L.g.p.g.g.g.F.R.F.9./ P / ,.9.5.",
"L Q y.W.Q.8X6X8X~.J.' U P / P 3 4 N.g.j.6XN.}.sXt _ gXZX=XXXV 5.D &.#.,.-.XXZXhXvXgX1.> VXXXN.6XC.g.l.M./ N.C.y.r.| 8.M.J.m.' ..",
"! | r.m.m.y.y.c.' U L R / ' w.3 3 w.2XB.,.k >XaX6 $.k.j.^.$.C g.1.Q / N.$.V x.z.l.d.J V ,XNXs k.S.K.,.P ) q.7.5.h.^.^.V./ L ! C.",
"7.t.q.3.| | ! U P ^ ~ ! 8.l.w.3 4 <.' U I h LX[ - p.k.C.Z.3.V &.*XoXoXd.$.Y *.z.;X| 5.c s LX.X] m.P I ) 5.5.h.k.z.G._ I Y ..C.^.",
"f.j.j.w.^ U ^ ^ ^ | 5.h.F.^.w.% = I P Y I $XAXu V -.$.$.J -.C &.V.2.2.j.$.Z 7.$.$.D Q L r $XAXk t L ` r.p.S.F.l.u./ I ` r.p.S.l.",
"g.l.s.^ P ^ | 5.p.h.L.yX9X!.7 W l , I a @XLX|.y O ; X C 1 . - &.<XsXsXl.$.. o b 1 @ + + g ).MXKX'.t ~ -.u.~.z.u.Q I ! 5.7.g.k.l.",
"d.w.R I ^ 3.e.m.7XuXuX9XQ.E o #.D X W aXHX#Xp C 1 } E s X.o * l.H.6X^.H.] . $ O.< ] XX1 C e '.VXJXsXW E [ 1.9.P L | 5.7.p.j.G.l.",
"-.U P ! 3.t.K.uX7X8XQ.N.p r a - - T u.=X2.1 H a.a.C V % c # @ 7 %.%.%.] < < $ $ % N C a.a.m > [ ,XJX9XT.d.7 t I | 3.r.F.E.E.S.0."
};
