/* XPM */
static char *enemy_move_1[] = {
/* columns rows colors chars-per-pixel */
"64 60 256 2 ",
"   c #330716",
".  c #310C2B",
"X  c #16001E",
"o  c #501215",
"O  c #6D1511",
"+  c #572415",
"@  c #682718",
"#  c #723213",
"$  c #451828",
"%  c #4A172D",
"&  c #6D1D25",
"*  c #582827",
"=  c #462838",
"-  c #542634",
";  c #5B343B",
":  c #512D2C",
">  c #6E332E",
",  c #7B461A",
"<  c #5C403C",
"1  c #714930",
"2  c #3C294C",
"3  c #261447",
"4  c #5A3648",
"5  c #503453",
"6  c #663A4A",
"7  c #503D72",
"8  c #30477D",
"9  c #564656",
"0  c #694746",
"q  c #6A4958",
"w  c #775659",
"e  c #744F4C",
"r  c #7B6356",
"t  c #584966",
"y  c #674A67",
"u  c #755869",
"i  c #6B5676",
"p  c #765C74",
"a  c #6A566B",
"s  c #7A666A",
"d  c #7B6576",
"f  c #6D686D",
"g  c #8D320F",
"h  c #8A342B",
"j  c #A23C08",
"k  c #924C15",
"l  c #AA560F",
"z  c #B06D18",
"x  c #884A26",
"c  c #875725",
"v  c #8C5936",
"b  c #925031",
"n  c #B14F31",
"m  c #8B6229",
"M  c #8D6437",
"N  c #9B6736",
"B  c #B67627",
"V  c #A86837",
"C  c #AD7433",
"Z  c #C8710C",
"A  c #C67431",
"S  c #E37322",
"D  c #884B49",
"F  c #98574C",
"G  c #8B5656",
"H  c #995954",
"J  c #8E514A",
"K  c #A25C54",
"L  c #A65C4D",
"P  c #966949",
"I  c #9A774A",
"U  c #886758",
"Y  c #9A6556",
"T  c #997859",
"R  c #896A4E",
"E  c #A7684D",
"W  c #B86B4D",
"Q  c #A77648",
"!  c #BB774D",
"~  c #AC6453",
"^  c #A76657",
"/  c #B56C53",
"(  c #B86C53",
")  c #A77956",
"_  c #BB7453",
"`  c #B87957",
"'  c #866A6A",
"]  c #987968",
"[  c #846876",
"{  c #887679",
"}  c #927872",
"|  c #A87A68",
" . c #C7794C",
".. c #C47A53",
"X. c #C57852",
"o. c #CB6B47",
"O. c #E67648",
"+. c #7B8979",
"@. c #B98832",
"#. c #CB9130",
"$. c #DDA832",
"%. c #E2A73B",
"&. c #E5AD29",
"*. c #D09212",
"=. c #9B8556",
"-. c #BA8658",
";. c #B28C50",
":. c #988669",
">. c #978778",
",. c #8B817D",
"<. c #A68768",
"1. c #B58966",
"2. c #B69469",
"3. c #B69976",
"4. c #A88E75",
"5. c #B6A473",
"6. c #9AA847",
"7. c #CC874C",
"8. c #D48B4C",
"9. c #D5874A",
"0. c #DB954C",
"q. c #D9974B",
"w. c #CA8353",
"e. c #C98958",
"r. c #D28C53",
"t. c #D58B56",
"y. c #C9955A",
"u. c #D59254",
"i. c #DA9554",
"p. c #DD9C53",
"a. c #DB9C5B",
"s. c #D59759",
"d. c #C99A48",
"f. c #E39B55",
"g. c #EC9554",
"h. c #DDA35C",
"j. c #DAA658",
"k. c #D2A64E",
"l. c #E3A355",
"z. c #E2A45C",
"x. c #E5AB5C",
"c. c #E8AA59",
"v. c #E9B45B",
"b. c #EFB857",
"n. c #C89567",
"m. c #D69B64",
"M. c #C9926C",
"N. c #DCA363",
"B. c #DBA867",
"V. c #DDB26B",
"C. c #C9A576",
"Z. c #D7AB73",
"A. c #DCB778",
"S. c #CCAB76",
"D. c #E3AB63",
"F. c #E3AA67",
"G. c #E5B365",
"H. c #E3B46C",
"J. c #EBBB6C",
"K. c #EAB667",
"L. c #E3B473",
"P. c #E3BA74",
"I. c #EABD73",
"U. c #E4BC7B",
"Y. c #E7BA79",
"T. c #F5AE6D",
"R. c #F6C846",
"E. c #ECC26D",
"W. c #ECC373",
"Q. c #E5C17D",
"!. c #EBC47D",
"~. c #EBC97B",
"^. c #F1CA79",
"/. c #F3CC71",
"(. c #D7CA73",
"). c #FFC026",
"_. c #776E88",
"`. c #5C6490",
"'. c #887686",
"]. c #8C798B",
"[. c #628BB2",
"{. c #96868A",
"}. c #978893",
"|. c #928C93",
" X c #A89789",
".X c #A7979A",
"XX c #AB938B",
"oX c #B9AA87",
"OX c #B7A799",
"+X c #B3AB97",
"@X c #9994A4",
"#X c #8C8EAE",
"$X c #AA9CA3",
"%X c #AAA5A9",
"&X c #B5AAA8",
"*X c #BBB5B9",
"=X c #B4ADB0",
"-X c #9DA5A7",
";X c #DABA85",
":X c #C7B795",
">X c #CAB28F",
",X c #E4BC83",
"<X c #EBB99C",
"1X c #C4BAB8",
"2X c #C5B9AA",
"3X c #D8C798",
"4X c #DCC48D",
"5X c #E5C483",
"6X c #ECCB84",
"7X c #E5CA8C",
"8X c #EBCC8B",
"9X c #E7C687",
"0X c #F1CD84",
"qX c #EDD38D",
"wX c #EED287",
"eX c #F2D589",
"rX c #E5CC94",
"tX c #E7CB95",
"yX c #E5D194",
"uX c #EBD394",
"iX c #E6D49B",
"pX c #EAD59A",
"aX c #ECDA9C",
"sX c #EED995",
"dX c #F2DC9B",
"fX c #F2D994",
"gX c #FDC092",
"hX c #F6E39B",
"jX c #CCC5B7",
"kX c #D5CBB9",
"lX c #DCD4BA",
"zX c #D3C7A9",
"xX c #E6DCA3",
"cX c #EADCA3",
"vX c #E8DAA8",
"bX c #E9D9B0",
"nX c #EBE2AB",
"mX c #E8E2A9",
"MX c #F5E5A6",
"NX c #E9E6B2",
"BX c #E9E6B6",
"VX c #F3ECB4",
"CX c #B3B5C0",
"ZX c #D2CCC5",
"AX c #DAD6C7",
"SX c #D2D0CF",
"DX c #E2DBCA",
"FX c #E2DED1",
"GX c #E7E2CB",
"HX c #E7E7D9",
"JX c #F3F3DB",
"KX c #F2EED5",
"LX c #F9FAE5",
"PX c #EDEFE1",
"IX c #DDE0DC",
"UX c #B9CCBE",
/* pixels */
"mXxXmXmXA.Q.yXmXBXNXmXyXQ.Q.7XxXmXmXA.7XyXxXmXvXxXxXxXmXNXNXxX6XI.-.y.hXVX5XA.A.Q.7XyXcXmXmXmXBXNXP.D.D.P.iXcXmXNXNXNXNXmXmXmXmX",
"H.H.V.H.V.yXBXyXU.P.G.l.z.Q.NXmX7XA.P.5XyXyX5XyXBXxX7XL.H.P.J.-.T R U 4.C.z.h.5XvXNXBXNXmXmXcX7XV.q.H.8XcXmXBXxX5XU.P.P.P.A.P.P.",
"H.H.H.5XcXrXA.p.q.G.U.Q.7XyXrX;XH.H.Q.5X5X7X7X7XQ.P.P.P.Z.U 9 ,.0 q.V = 0 < 5.BXmX7XA.U.P.P.D.q.D.P.cXmXNXcX7XV.0.h.H.H.H.H.P.Q.",
"mXxXmXrX5Xh.j.U.7XaXNXmXrXL.h.L.8XyXcXmXBXyX5XD.D.7XmXzX9 |.=Xr A ,XA I f +X9 r S.!.L.L.D.D.D.P.yXaXcXmXrXP.p.q.q.D.yXaXaXaXBXmX",
"mXaXA.p.q.j.G.xXBXmXyX7XU.U.7XyXiXmXcXyX9XP.H.5XvXBX{ 9 jXt CX' #.k A U @X#X_.oX2 +XVXmXyXqXqXiXxXmXNXrXh.q.p.h.H.U.yXmXmXcX7XG.",
"U.D.p.z.P.yXyX7X5XQ.5XuXyXaXmXcXmXrXD.l.G.8XxXNXmX>.1 T _.=X_.OXg Z l e *Xi ZXt N < 3.!.uXiXxXvXvXcX9Xh.p.L.5XyXcXBXvX9X;Xa.q.h.",
"z.D.Q.aXaXyXyX5X6XqXqXyXyXaXmXyXV.h.H.Q.7X6X!.L.U.=   x w CX|.}.c *.l >.{ =X_.Q #   r T.9XmXcXaXP.z.q.p.z.yXmXmXcX9Xa.8.q.h.Q.iX",
"sXiXrXQ.z.l.L.rXyX7XP.H.L.H.U.z.K.0XyXA.h.G.5XaX:X< e + x w  X<., k # I :.{.0 x * 1 R iXxX7XP.z.0.q.z.F.U.aXcX5Xa.i.h.H.5XyX9XP.",
"q.q.7.q.0.q.h.h.D.N.h.f.q.0.l.y.P P e.l.z.h.A.MX' * ;.+ o j #.,XZ.y.y.A.,XC g o 1 N . 2.c.q.0.p.z.H.yXmXcXiXH.q.0.P.yX8XqXyXaXyX",
"h.V.V.6XH.5XyXcXcXcX5XG.9XyX;Xw  X Xe 3XmXxX7XP.R 4 _.;   g g b V 9. .b k k g o y _.; Q l.z.K.yXyXcXcX6XG.p.q.j.5XiXQ.J.G.H.yXp.",
"xXaXcXaXrXxX7XL.D.p.L.aXxXMXe C /.C :.] rXyXfX:X* C &XV   o @ % > T.e.$ * #   # 2.>Xb % A.8XiXiXaXcXQ.K.h.l.f.P.P.U.8XuXvXyXh.0.",
"7XU.h.a.p.q.q.p.D.9XaXxXH.e.0 #.P.C.=.P xX9XH.2.= 9 `.= h   4 . D T.t.$ = . @ > 7 _.4 0 rXiXiXaXyXU.z.f.i.0.I.yXyXyXcXrXN.h.p.j.",
"q.9.9.0.0.p.p.P.aXmX3XF.! 0 2.6X2.:.w 4XF.q.i.< k k.:X> n @ <X4 XXT.<Xa { ^ g h =.(.#.@ s MXcXiXZ.q.9.9.i.p.U.iXaXcX5Xp.q.q.q.z.",
"7.s.h.z.l.h.H.7XcX!.s.E r S.R.$.k k <.c.9.q.m.0 = a `.* n n g.T.T.g.T.T.T.W n h t i q $ ] aXU.i.8.9.i.D.5XiXcXmXcXA.t.t.t.u.F.iX",
"i.a.a.D.L.5XiXmX!.e.P @.R.R.B # l x ` f.N.0X>.+ z 5.*Xb   . n T.` h J F.T.- X # OX*XB k : 1.f.t.m.U.,XuXcXcXmXrXN.t.t.a.D.6XcXmX",
"h.j.l.I.mXvXxXA.c.J k *.l , # Z > | f.G.~.fX:.. 6 q ' { 0 + $ / e.P ! t.>   ; d U s 6 ; . -.a.F.!.6X6X8XyXaXA.q.9.h.G.G.W.6XaXyX",
"p.G.8XcXrXN.w.9.i.p.v 1 Q C.# O , > y.z.5XhX X> k Q 5.5.<.# . . F % D 4 X + P +X;.;.b g > e.z.H.J.W.!.8X8XN.t.8.u.a.a.J.!.iXyXy.",
"qXcXvXA.9.u.a.N.N.z.I.^.5XR N ] <.] r A.aXxXP.U 3 % 1 T >.I $ X X 5 . X X s >.] P > = 3 <.z.D.J.U.8XaXxXU.w. .8.i.a.H.sXmXvXZ.7.",
"wXL.s.u.a.G.W.W.6X8XyXhXr e %X4. X=Xr } VX;X9.i.4.$ # =.:.=.: & $ kXs o $ s <.:.I + $ -.z.F.8XuXvXbX9XN.t.u.V.rXiXaXcXvX8XD.0.p.",
"t.7.7.a.m.D.G.8XcXmXyXZ.1 0 |.+.+.] 9 U L.t.i.] 0 ; . 1 =.%Xt O * AXs g o _.%X=.* . ; q ) ^.iXcXcXZ.t.t.s.D.I.!.I.6XiX5Xz.p.p.F.",
"w.m.H.U.5X8XiXcXiXZ.e.X.` 4 g l l g 0 e.u.y.=.k T [.a ; s ].5 R ; jXf x 1 `.].s * `.[.=.c 3.dXyXN.t.e...e.p.L.6X5XiX8Xh.u.w.7.8.",
"Q.qXyXqXqXyX8XN.8. .X.e.H.9X* k k > u.u.h.N.< ;.-.-X8 # @.5.t x D 3 = e.* |.@.z . [.+X#.c 2.0XP.N.s.w.X.i.D.I.Q.aXxXm.w._ ..a.z.",
"cXaXyX,XU.m.8.7.u.s.s.G.MXvX> %.k.> t.N.D.c.) ; *.;._.5 0 u 5 z j o # Z b 7 w : 2 |.*.b w fX8X5XV.e.X.s.D.8X8XiXyXn.X.` m.I.^.W.",
"7Xm.s.w. .7.w.i.l.l.G.dXyXN.P @ > -.D.G.z.I.C.5 G ;.I = z #.1 e &.*.&.&.= , z # = d.@..X}.3.sXm.X.e.L.I.0XyXVXiXe.X. .a.J.J.W.~.",
"`  .w.u.u.i.i.z.I.8XaX9Xu.9.` # , V.K.H.8XvX0 c 1.Y B + - 1 = `.`.`.`.`.8 % 4 o k z OXLXFX' ` t.N.D.J.I.yXMX7Xt.X.e.D.!.!.W.6XyX",
"w.V.V.z.z.H.I.8XaXmX8Xa.u.f.` # # 3.qXvXhX5.o C UX4.@ > @ O @ ] #X#X#X@XR + # * > }.JXJXLXAXs N.H.z.D.sXMX9Xu.7.9.z.W.W.5XiXrXe.",
"z.z.z.K.uXyXaXcXcXyXN.t.D.S.J & E ^ 4.A.<.' }.| =.6.g u {.> l Z Z Z Z Z Z k D $Xi DXLXKXHXJX=Xw K.U.sXMX,X9.9.D.W.qXdXdXMXrXw.o.",
"v.z.W.fXhXhXdX8X!.N.t.H.hX] h n A o.> 0 I d.zXSX:Xb O ] LXAX:X| -.;.;.7.<.:XAXSXi GXAX&X1XFXLX}.-.L.Z.L.s.m.,X9XuX7X,X,X;Xw._ W ",
"H.9XuX;XZ.A.Z.s.t...m.Z.U.G n n O h N r I b.A.DXHX1X- 4 HXHXLXPXHXHXPXHXLXHXLX=Xy 1X.XZXLXLXLX=X0 z.I.U.9XC.` e.e.w.7.7. .X._ _ ",
"N.M.e._ W X.X.w.e.w. .X.w.b O A h g j 1 < v.6XBXZXHX].q %XHXAXHXHXLXHXFXHXAXAX_.'.u ) 5XGXLXHX}.r MXdXiXM.e.m.D.z.K.~.qXV. .e.p.",
"p.p.z.H.I.6X6XJ.z.s.s.i.c.n.h n & O O o f E.k.bXSXHX.X] y *X*XSXOX| ] kX*XSX].i |.} b./.L.KXFXd :XyXM.( ( t.K.I.I.6XyX5Xa.f.z.l.",
"z.K.!.mXxX;Xm.e.X.m.m.F.uXMXoXo * <.e . { V.V.vXHXFX$X Xq = 0 ; 1.C.3.q 0 ; % @Xi p KXb.U.dXHXu 2.( / _ N.H.5XiXsXyX8XU.5XJ.v.z.",
"!.yXmX;XX.W _ w.s.!.Q.dXsXsX4X# > MX>.9 } A.0.GXJXHX1X{.* g z c #.>XB.c @.z O ; b & .XwX0.sXHXu F ( ..m.!.yXaXyXfXdXdX;X_ X.a.G.",
"6XqXZ./ W w.h.z.6XfXyX8X6XfX>Xc v 1.D y ].5Xj.xXLXAX1X|.* g k @ l 4.C # k j O A g.n { 9Xj.^.HXu E i.z.U.dXsXqXfXqXZ.` ~ ` t.G.yX",
"yXe./ / X.z.c.W.qXqX6X6XsXdXn.m M Y e a } A.s.bXLXAX1X_.5 0 ; @ k j g @ & 4 > o.g.n ].vX#.0XIXu 7.b.V.6XdXqXfX,Xe.W ~ ` e.D.wXqX",
"e./ ~ ( i.c.W.6X6X6XqXaX7Xm.~ m M Y G u } ;Xj.vXPXAX1Xi y &X' b e > 6 v k %X{ h O.h [ 5Xj.sXIXu s.^.aXdXdXqXM./ ~ / X.a.G.K.I.J.",
"/ / w.a.K.!.8X6X8XsXsXZ.X.( F m M :.R s {.,Xl.vXHXAX=X5 {.jX4.#.>X[ {.V.B jX&X6 o % }.,XH.wXIXp >XMXmXMXZ.` ~ ~ _ 7.p.c.c.I.J.G.",
" .u.K.dXaXaXiXyXmXyXn./ ~ ` ` m P  X' [ }.U.q.BXHXkX%X5 .XAX3.%.lX}.@XeX@.kXZXy i d $XbXq.^.IXp 3XVX7XM./ ~ _ e.p.D.6X8XpXmX!.J.",
"N.8XyXcXcXdXdX,Xm.e.W ~ w.z.y.m P -Xs [ }.Z.V.iXLXjX'.p &XHX3.%.&X|.@X6X#.2XZX}.i ]..XA.V.J.AXp >XV. ._ / w.i.z.U.yXcXcXMX9Xs.w.",
"J.!.~.~.!.m.e.w.W W ( w.z.K.S.M P -X' [ ].C.k.BXHX1Xi { ZXPX3.%.ZX} %XqX@.2XFX1Xt ]..XxXj.^.SXp w. .W _ w.f.f.U.qX0XqXqXU.t.X.W ",
"J.W.W.N.e.X.W ( _ w.N.D.L.hX:XM I .Xs [ {.n.v.rX*X&Xp {.GXPX2.%.%X@X#XqX#.kXHXAXa '.$XA.G.I.ZX[ _ X./ X.i.D.U.8X6X6XyX6Xs.( / W ",
"G.N.e._ _ _ w.t.a.c.K.!.yXMX3Xm M |.u [ {.C.#.bX1X&Xp $XHXLX2.%.lX_.*XfX@.kXJXHXd [ &XvXZ U.ZX[ E ( _ m.,XsXqX0X6XqXU.m./ / (  .",
"G.I.L.V.N.h.z.K.!.6X6XqXfXhX3.c v '.w [ {.-.N.>X1XXXi AXAXHX2.k.&X.X@X6X#.lXHXLX'.'.%XC.U.y.1X[ ^ m.m.fXdXsX0X0X^.H.X./ ~ ~ X.z.",
"qX;Xn.e.t.i.c.6XsXyXqXfXfXC.G c v {.' [ {.) A zX&X{.i lXjXHX1.$.zXQ OXqX#.lXHXLX.Xp .XzXA e.1X[ n.M.` 1.iXfXeXP.-./ ^ K ` s.G.E.",
"n.^ ~ ~ t.J.W.^.0X^.W.L.M.^ G c m 2.U [ {.) 7.3.=X].i AXjXAX1.$.&X X$X6X@.lXFXJXZX5 .X1.y.-.=Xp >XU./ C.MXeXn.~ K K / e.l.v.v.K.",
"H ^ ` s.z.G.H.D.D.m.e._ ~ ^ E c m C.<.u {.Q l XX%Xp '.zXOXzX=.$.kX{.&X8X@.lXPXHXAXa '.1.n Q &Xd >XMXdXhX7X1.K F ~ _ q.z.H.J.~.qX",
"~ e.D.D.p.u.7.u.p.w.( X.w.7.w.m m 3X>Xu {.E V ] @Xy  XoXOX:X) %.2X{.%X5XB lXPXFXLX'.a 4.V E $Xp 4XdXqX^.` F ^ _ 7.q.j.P.F.V.8X6X",
"h.G.K.5X6X6X6X!.m.7.9.i.f.L.>Xm m 3XhX:.d ) k  Xi t  X X:XoX) %.2X|.=X5XB lXLXFXLX$X5 ] k Q d } hX^.^.^.J.G.h.9.e.V.J.W.W.K.W.^.",
"G.J.6XeX6XA.N.` / _ u.m.yXMX3Xm m >XqX;Xw { ,.y y p OX+X:XoX) %.1X|.*X5XB kXLXAXLX=Xy p ] s u 9X5XA.V.N.N.n.^ ( a.J.W.^.W.~.^.N.",
"G.J.~.V./ K K / 7.i.F.yXdXhX>Xc c ^ / ^ Y q 4 q { f 2XkX:XoXP %.&X%X%X5Xz &XLXZXLX%X_.{.9 ' e._ H H H H H H ^ m.J.E.E.W.W.^.n.F ",
"G.J.n.K K ^ e.z.L.8XsXfXfX6XG , x H ^ ^ ^ ^ _ ] s ' lXHX:XoXP %.1X|.*X5Xz &XLXkXJXAXd } U ^ ^ H ^ ^ ^ w.9.p.G.K.E.E.W.W.W.y.K H ",
"x.-.F ^ _ p.H.A.sXeX6XfXZ.~ G , , H ~ ~ X.f.Q { ] T BXPXoX4.P #.3.-XOXq.B .XLXAXLXlXs {.{.w ^ / _ t.t.p.0.l.v.K.J.^.^.Z.^ K F W ",
") J ^ 7.l.~.fX9X6XeX~.n.^ Y G , x M.l.q.q.c.] {.>.:.GXHX{.{ R l b.=.k.#.B }.LXZXPXkX{ d .XG i.L.I.l.f.l.l.l.K.E.J.e.^ F ^ 1.e.9.",
"J E a.!.~.eX0XeX^.L.` K Y ^ H , x V.l.z.6XA.{.OXq T 3XzX3.4.v ! C ).*.) C ] NXzXbX:X' 6 2X{.Z.0XD.l.v.F.^ Z.D.a.i. .w.V.L.N.` X.",
"W  .i.N.N.a.a.n.` K F Y ^ ` y., x N.!.A.1.' &X&X0 B q.d.j.z x q.] N F 2.@.b #.k.q.;.z b OXSXU c.G.P.1.K ( t.q.9.z.E.E.C.^ F ( D.",
"q.p.t.7. .X.W K F ~ _ W w.v.j.x x C.| K D f JX{ # ! 7.y.e.V x $.3.4.4.y.A b A s.C.V C g w PX}.1.N.H D ( 9.9.z.c.b.K.) D L ..D.E.",
"l.z.z.u.~ K ~ ~ W  .9.z.J.E.y.+ + G J L G *XAXq v N @.B C Q x $.2.2.3.k.B x ;.B C N v v 6 =XAXp e J / u.f.G.J.v.p.~ D _ u.f.G.b.",
"l.v.j.E F ~  .9.f.z.I.aXfX^.1 P { 0 G u .XLX}.a 2 - % h & . @ &.oXoX+Xk.#.X $ h > . - 2 i _.*XGX'.q _ e.N./.b.s.E D W 9.q.l.c.v.",
"j.y.^ J E 7.u.N.qXdXfXfXQ.<.. B N : U &XAXXXq b > | ] e L $ : k.h.P.j.k.Q . O n - ) 3.> b 4 '.kXJX*XU ] ,.3.n.H J  .9.q.f.c.K.v.",
"-.K F W 8.p.P.fXqX6X~.Z.w y w # # P k.A.3.> n O.g.x v @ g O 2 0 #.#.#.I 4 ; O O @ b b O.O.g 5 [ &XHXA.R.d.1 q J  .8.i.J.W.W.G.e."
};
