/* XPM */
static char *exit_open[] = {
/* columns rows colors chars-per-pixel */
"51 64 238 2 ",
"   c None",
".  c #331524",
"X  c #3B1A29",
"o  c #271B34",
"O  c #371C34",
"+  c #38242A",
"@  c #2B2335",
"#  c #2C243B",
"$  c #3B2234",
"%  c #362538",
"&  c #3C3232",
"*  c #51261C",
"=  c #6A261D",
"-  c #431C24",
";  c #4B1E27",
":  c #431C2C",
">  c #541C26",
",  c #431E30",
"<  c #631825",
"1  c #482328",
"2  c #562828",
"3  c #59332C",
"4  c #442C31",
"5  c #483939",
"6  c #583935",
"7  c #682827",
"8  c #762828",
"9  c #63342B",
"0  c #673628",
"q  c #6C3B2C",
"w  c #753826",
"e  c #7B3C26",
"r  c #75352A",
"t  c #733C2C",
"y  c #7A3D2B",
"u  c #633531",
"i  c #6B3D33",
"p  c #793A31",
"a  c #7C4519",
"s  c #5B422A",
"d  c #554336",
"f  c #594739",
"g  c #6A432B",
"h  c #75432C",
"j  c #7B432B",
"k  c #74482A",
"l  c #7D4B2D",
"z  c #7C542E",
"x  c #694736",
"c  c #754332",
"v  c #744933",
"b  c #774836",
"n  c #7C4C33",
"m  c #6D533D",
"M  c #7D5234",
"N  c #75533A",
"B  c #7B533A",
"V  c #7C5A3C",
"C  c #7E633B",
"Z  c #352E48",
"A  c #3B3147",
"S  c #36314E",
"D  c #363251",
"F  c #3A3755",
"G  c #3B3956",
"H  c #3C3A58",
"J  c #463C4B",
"K  c #493D48",
"L  c #533E41",
"P  c #4A414D",
"I  c #574A44",
"U  c #56464B",
"Y  c #5A4A4D",
"T  c #56514C",
"R  c #5B4E51",
"E  c #5C5052",
"W  c #685546",
"Q  c #6B5048",
"!  c #785A43",
"~  c #74674E",
"^  c #7D6649",
"/  c #852B28",
"(  c #942F27",
")  c #863A27",
"_  c #84342C",
"`  c #8A3C2E",
"'  c #993829",
"]  c #843B32",
"[  c #8A3930",
"{  c #A43C29",
"}  c #83432C",
"|  c #8A4628",
" . c #844C2D",
".. c #95472A",
"X. c #9B4B2C",
"o. c #84512D",
"O. c #8B542B",
"+. c #97572A",
"@. c #945C2D",
"#. c #834D32",
"$. c #8A4832",
"%. c #964631",
"&. c #9B4C31",
"*. c #845334",
"=. c #8B5432",
"-. c #8C5B34",
";. c #825538",
":. c #8D5438",
">. c #845B3B",
",. c #8A5D3B",
"<. c #945B34",
"1. c #9C5C34",
"2. c #9D5B3A",
"3. c #A64A2A",
"4. c #B94628",
"5. c #A4532C",
"6. c #AA552B",
"7. c #B6592B",
"8. c #A64C32",
"9. c #A95736",
"0. c #A35C33",
"q. c #B85D31",
"w. c #94632F",
"e. c #886439",
"r. c #8D643D",
"t. c #996634",
"y. c #94623D",
"u. c #9B663B",
"i. c #946C3D",
"p. c #9C6C3D",
"a. c #96763D",
"s. c #9D743E",
"d. c #AB632D",
"f. c #B9672E",
"g. c #B3702D",
"h. c #A46335",
"j. c #A86735",
"k. c #AD6C35",
"l. c #A3633B",
"z. c #A56D3C",
"x. c #AC6D3C",
"c. c #B56835",
"v. c #A8763C",
"b. c #B7773A",
"n. c #B4743D",
"m. c #CA4F24",
"M. c #C76B2D",
"N. c #C77734",
"B. c #CD7431",
"V. c #855B44",
"C. c #965A41",
"Z. c #846243",
"A. c #8C6543",
"S. c #896946",
"D. c #836B4B",
"F. c #8B6D4B",
"G. c #936C43",
"H. c #966846",
"J. c #9A6C43",
"K. c #8B734A",
"L. c #947344",
"P. c #9B7342",
"I. c #94724C",
"U. c #9A7848",
"Y. c #9B7C4C",
"T. c #866953",
"R. c #9E6C56",
"E. c #8D7353",
"W. c #8A7759",
"Q. c #957452",
"!. c #937A55",
"~. c #9A7B57",
"^. c #947C5A",
"/. c #A46B42",
"(. c #A37443",
"). c #AC7443",
"_. c #A27B44",
"`. c #A47B4B",
"'. c #AA7948",
"]. c #B37C43",
"[. c #B67944",
"{. c #A77555",
"}. c #8A7462",
"|. c #967E61",
" X c #C27E44",
".X c #AA833B",
"XX c #B38838",
"oX c #D1902D",
"OX c #C98437",
"+X c #D58836",
"@X c #D99738",
"#X c #E89331",
"$X c #D7A337",
"%X c #E1A52E",
"&X c #E4A939",
"*X c #E6B43B",
"=X c #9A824E",
"-X c #9A855B",
";X c #A8854A",
":X c #B88747",
">X c #A68556",
",X c #B29154",
"<X c #B79457",
"1X c #BFAD5B",
"2X c #998668",
"3X c #978672",
"4X c #B19767",
"5X c #BAA26D",
"6X c #BDB074",
"7X c #C58843",
"8X c #CD994A",
"9X c #CC9750",
"0X c #E19A4B",
"qX c #D7AA48",
"wX c #CFB34F",
"eX c #D5AA58",
"rX c #CABD56",
"tX c #E9AD49",
"yX c #E6B543",
"uX c #E9B848",
"iX c #F2B94B",
"pX c #E6AE54",
"aX c #E7B755",
"sX c #F2BC54",
"dX c #C59B60",
"fX c #CEAF6C",
"gX c #D5C649",
"hX c #E8C153",
"jX c #F3C453",
"kX c #D2C467",
"lX c #EDC96B",
"zX c #898B8E",
"xX c #969799",
"cX c #9D9EA0",
"vX c #A8A9AB",
"bX c #C7BC87",
"nX c #D8CD93",
"mX c #ECE09C",
/* pixels */
"                                                                                                      ",
"                                                D.4X                                                  ",
"                                              ~ P.r.Q.W                                               ",
"                                            ^ =XG.L.C.~.Q                                             ",
"                                        5 W K.+.dXnXz.:.I.s                                           ",
"                            F.{./.G.A.F.! D.I.O.nXmX.X0.t.v f ! ! >.x m W                             ",
"                          I./.1.3...' ) = + _.+.z.:Xk.:Xw.  2 %.) ....j V m                           ",
"        -X-XW.W.4X|.: q Z.A.' &.9.0.$.r u ~.fX+Xf.k.+X9XfX9X%./ ..9.9.X...e   1 1 -X^.W ~ ~ 2X        ",
"      -X=XK.=XK.`.dXZ.- } _ &./.J.N 3 ! dX0XlX#X#XiX#X0XlXsXaX/.t B A.J.2.] ..1 Q.1XW.W.^.G.,X2X      ",
"      ^.S.4X^.>X`.>.Y.2 j <.b 6 5 5 S.pXeX7XaXhXeXkXfXlXiX8XfXpX:Xi 5 Q Q ! b 2 !.m ,X-XW.,X=.!.      ",
"      W.=XL.mX5XS.Y.F.1 t 5 # @ 5 XXuX<Xf '.uXkXzXvXvXnXiXG.x ,XaXOX3 O o $ 2 1 ^ K.S.fXnXD.W.K.      ",
"      W.K.K.hX,XL.=XW.    o @ L 8XwX~ b g '.uXkXxXcXvXnXsXi.|  .T.qXoX9 o     . ^ K.^ <XeXZ.~.F.      ",
"      ^.L._.a.U.:XG.I.      4 <XwX! w =.o.].uXkXxXxXxXnXsXP.+...y Z.qXOX4       F.Z.).P.L.;X(.Y.      ",
"      ^.>Xv.i.i.;X;X5 o   % ;XeXW l | | =.].uXrXzXxXzXnXsXP.*.X.+.o.! 8Xv.X o   5 ~.(.p.Z.Y.:X;X      ",
"      & U.U.U.Y.Y.4   o @ S.yX^ m *.j z.e.].aXrX  zX  bXiXL.S.b...<.M V.8XB o o   4 J.(.`.'.a.&       ",
"        + V K.^ + @   o I qX=X3 b n ;.P.g ].aXrX      bXjXP.o.].n M O.w `.8X6 O o @ 4 >.G.N +         ",
"          . X   @ A o % :X9X! k #.k t.O.k ].uXwX      bXjXU.l 1.`.=.@.l Z.fXx.4 @ S % . X .           ",
"        : 1 . : & A @ 6 9Xm V ! =.g.0 0 h ].uXwX      fXjXU.c _ :.XXo.e.Q Y.@X3 Z H K ; X 2 +         ",
"        T }.v B J S o %.5X6 0 V.J.>.M e  .].yXgX      6XjX_.,.$.h.t.v.e.7 G.eXp A H E B y.^.5         ",
"        T 3Xn.G.P S   C.T.g } q >Xx t d.0 ].yX        6XjXs.n ].] #.s.i ..*.~.[ % H E u.7X2XL         ",
"        T 3X:XG.P S 2 C.T.h j D.m V #. .k ].yX        6XjXs.,.u.z.G.M P.$.<.~.$.3 F R p.7X2X          ",
"        T 2X].G.K S j :.Z.h ,.Z.x k y.b g n.yX        6XsXs.n u._.y.o.i.J.c Q.&.y D Y y.:X-X          ",
"        T 2X:XG.J A | &.Z.r.q t ;Xn 7 A.u v.yX        fXsXP.b Q.u z.U.3 c ,.U.&.} D R J.8X-X5         ",
"        T 2Xn.r.P S 2 9.L._.0 O.a.r.r  .U.n.yX        fXsX_.;XN >.z.p.j r n.>X} 6 F R y. X-X          ",
"        T 2X).S.P S : 9.N s.].v 7 7 ,.v.z v.yX          iXs.r.9X,.e = | b.z K.p O H R y. X-X          ",
"        T 3Xx.r.P S 1 9.x 3 Q.N a w i.r.g v.yX          iXs.M ].p.k l t.r.3 F.[ $ H R ,.[.-X          ",
"        T 2Xx.r.P S 1 9.V M n Z.y.r.v =.l ].yX          iXv.n ..<.s.I.N B #.I.[ $ H R =.b.~.5         ",
"        T 2Xf.r.P S 1 9.>.j q c :X>.y } n ].yX          iXU.,.3.| .X;Xx c ;.Q.[ $ H R ,.b.!.5         ",
"        T 2Xk.r.P S : 9.V q b U.N F.n | r.].yX          uXs.y...d.i.>.J.q c Q.[ X H R ,.n.!.          ",
"        T 2Xk.r.J S : 9.N n [.B o.k u.0.g ].yX          uXi.i '.a.-.O.+.v.0 E.` + H R =.n.!.          ",
"        T 2Xk.r.P S 1 9.N x.1.* O.k q 7Xv ).yX          uXi.S.,X2 =.@.0 XXe.W.[ $ F Y =.n.!.          ",
"        T |.h.r.P S , 9.r.=.=.h w r =.=.@.n.*X          tXv.i.=.t } } @.e.e.Q._ $ F Y =.).^.          ",
"        I ^.h.,.P D 1 9.Z.r.q r.=.t.z w g b.*X          iXh.g o.G.,.1.o.g z I._ $ F Y =.x.^.          ",
"        I ^.h.,.K D 1 9.! x $.0 (.=.7 = 9 f.*X          tXt.q ) b ].<.q O.q I._ $ F Y =.x.^.5         ",
"        I ~.h.,.K S , 9.Z.3 e =.G.z 0 2 D.! $X          ;XU.v 7  .@.z.*.q q U.[ $ F Y =.x.!.5         ",
"        I ~.t.,.K S X 9.e.q h e.e.f 4 ;XlXfXa.a.      D.kXaXz.- w O.v.M t h U.[ $ F Y =.x.!.5         ",
"        I ~.1.>.K S X 9.z.,.`.Z.i.V B n.7X<XQ.W       U.dXc.q.3 V U.L.i.(.r.;X` $ F U o.x.!.          ",
"        f Q.<.*.K S : 3.1.#.v ;.:.*.q $.* *  .f       z g 8 ..X c =.y.Z.S.L.:X_ $ F U *.x.!.          ",
"        f Q.<.;.K D , 8.v | ..6.3...1 k r.z z .X      z e.<.9 . 3.f.c.6.` e A.` $ F U *.x.Q.          ",
"        f I.<.;.K D , 9.>.X.6.7.q.X.r X 1 1 XX          <.2 X 7 7.q.c.6.{ X.J.` $ F U *.x.W.          ",
"        d G.:.;.K D , 8.>...6.0.M.M.' 8 - 0 $X          +X0 7 3.7.B.M.&.4.X.J._ $ F U *.z.W.          ",
"        d G.:.;.K D : 8.*.) X.f.7.N.3.3.e v.*X          iXz.6.7.q.B.c.z.3.| J.[ $ G U #.l.K.          ",
"        d I.:.*.K D : 8.*...N.6.9.0.N.f.e ).yX          iXz.3.M.M.q.X.j.N.X.J.[ $ H U #.l.F.          ",
"        f I.$.n K S : 8.*.x.f.' b.7.q.oXj ).yX          pXp.6.+X7.f.q...N.d.J._ $ H U n l.S.          ",
"        f G.$.n K S : 3.M i +...3.3.6...t ).yX          pXJ.) 6.c.6.3.&.6.r A._ $ H U n l.S.          ",
"        d Z.| n K S : 8.M u 2 +.5.6.| ..r ).yX          tXi.| 3.9.M.6.&._ _ J._ $ F U #.0.A.          ",
"        d Z.$.n K S X 8.J.n j j h.h 7 r 0 n.yX          tXs.q } r +.+.9 7 r u._ $ F U *.0.Z.          ",
"        6 V.} n K S X ( 7.q.q.q.9.l.l.u.z.b.qX          &X+X X].).).).p./.(.[.8 O F U #.2.r.          ",
"        6 ,.j n K D X ' y.=.$.+.h.k.f.f.g.f.$X          &XOXn.n.n.b.b.f.f.f.c._ O F U #.1.r.          ",
"        d >.t n K F X %.V c i - k q 3 *.-.n.&X          &X(.>.=.2 B >.3 n <.x._ $ H U #.#.>.&         ",
"        d n } j K H X ..>.c } p t.j $.#.*.).&X          &XP.>.0...1.h.} } $.J._ % H U h :.M &         ",
"        ~ T.V.^ L % ; ` ,.3 2 u.n n h.2 v /.&X          &Xs.c | [.:.#.v.7 h u.8 + % W T.T.^ I         ",
"        H.{.{.`.i - ' t ,.#.$.v :Xr.l y.=.l.&X          @Xp.u.u.,.;X`.v <.1.2._ ) X C.R.R.H.c         ",
"        m W.T.E.f . ' y =.n e q .Xz h ,.o.l.&X          @Xp.t.j.#..XP.t l :.2._ e   W E.E.E.5         ",
"      C _.U.>X~.`.6 . p *.2 ; :.q k ..< 0 l.&X          +Xp.r 7 j.} t 1.2 t 2.8   Y !.-X,XI.Q.6       ",
"      r.e.r.*.Z.I.N . _ #.9 8 7  .c t r j 0.&X          OXu.#.` ....:.r r b 2.7 X F.K.F.V F.A.V.      ",
"      =.m %.B.y.V *.. _  .c r 2 O.t 2 y j 0.%X          N.t.*.,.0 O.@.1 j  .2.7 - y.m G.:XV C *.+     ",
"      3 B } f.*.*.3   _ X.%.&.:.1.1.1.l.1.9.%X          B.M.j.z.0.0.1.<.1.6.&.7   c N >.).B Z.4       ",
"      - i j 2 *.q .   8 _ _ / ( ( ' ( ' { { %X          +Xm.4.4.{ { { ' ' ' ' 7   : b v 9 =.u .       ",
"        ; 3 } 2 -     > 7 7 7 7 7 8 / ( { 3.@XgXrXrX  1X$XB.4.( ( / 8 8 8 8 8 >     1 i b 2 >         ",
"                                                                                                      ",
"                                                                                                      ",
"                                                                                                      ",
"                                                                                                      "
};
