/* XPM */
static char *exit_closed[] = {
/* columns rows colors chars-per-pixel */
"64 60 256 2 ",
"   c #18051B",
".  c #09051D",
"X  c #350B1C",
"o  c #150D2A",
"O  c #271425",
"+  c #3A1724",
"@  c #281D39",
"#  c #2F1027",
"$  c #322433",
"%  c #45141C",
"&  c #52291D",
"*  c #471A25",
"=  c #541B25",
"-  c #420F25",
";  c #4A2529",
":  c #572929",
">  c #5C352C",
",  c #472733",
"<  c #593835",
"1  c #4C3030",
"2  c #672B27",
"3  c #732D2A",
"4  c #63342B",
"5  c #693729",
"6  c #783A2B",
"7  c #683B33",
"8  c #7A3932",
"9  c #622E33",
"0  c #60291E",
"q  c #5B4539",
"w  c #7C422B",
"e  c #78472C",
"r  c #694537",
"t  c #744433",
"y  c #794A35",
"u  c #7B5539",
"i  c #6D4C30",
"p  c #2C2946",
"a  c #2A2949",
"s  c #2B2646",
"d  c #342C45",
"f  c #503A41",
"g  c #5E4641",
"h  c #644B44",
"j  c #7D4748",
"k  c #68544A",
"l  c #7A5843",
"z  c #665A57",
"x  c #7B6349",
"c  c #746750",
"v  c #863A2B",
"b  c #853B31",
"n  c #91372B",
"m  c #933524",
"M  c #83442C",
"N  c #89472B",
"B  c #9B4B2D",
"V  c #97452B",
"C  c #89552B",
"Z  c #98532C",
"A  c #8A4433",
"S  c #854B34",
"D  c #8B4C32",
"F  c #864736",
"G  c #934A34",
"H  c #8C5334",
"J  c #8C5C3B",
"K  c #865738",
"L  c #935333",
"P  c #9B5333",
"I  c #985B38",
"U  c #A64B2B",
"Y  c #A5552D",
"T  c #A65934",
"R  c #B55A32",
"E  c #AF502F",
"W  c #88623B",
"Q  c #94643C",
"!  c #9D6A3D",
"~  c #996439",
"^  c #966B37",
"/  c #A86738",
"(  c #B56835",
")  c #AC7439",
"_  c #BA7637",
"`  c #B16A2C",
"'  c #D76D33",
"]  c #CC6F31",
"[  c #E06A2D",
"{  c #894A4A",
"}  c #895A46",
"|  c #97584A",
" . c #995753",
".. c #904E50",
"X. c #A35C53",
"o. c #A45B56",
"O. c #A45A4F",
"+. c #886747",
"@. c #936544",
"#. c #9C6B43",
"$. c #966947",
"%. c #897348",
"&. c #98754A",
"*. c #836954",
"=. c #897656",
"-. c #967955",
";. c #9B6655",
":. c #A66947",
">. c #B76B4C",
",. c #A67648",
"<. c #B9764A",
"1. c #AD6552",
"2. c #A76657",
"3. c #B56C53",
"4. c #BA6D52",
"5. c #B26955",
"6. c #A77B55",
"7. c #BB7353",
"8. c #BA7857",
"9. c #897B64",
"0. c #B37C63",
"q. c #C57A4C",
"w. c #C8794B",
"e. c #C37A52",
"r. c #C77A53",
"t. c #CC774B",
"y. c #C37B62",
"u. c #D18B39",
"i. c #F39635",
"p. c #99835A",
"a. c #8F8154",
"s. c #B8854B",
"d. c #A98656",
"f. c #B78557",
"g. c #AB894F",
"h. c #998764",
"j. c #8E846B",
"k. c #A58B64",
"l. c #A9926A",
"z. c #B2926D",
"x. c #B9A875",
"c. c #CC834C",
"v. c #CC8749",
"b. c #D38A4C",
"n. c #D5874B",
"m. c #DA954C",
"M. c #D9964C",
"N. c #CB8354",
"B. c #CE8A54",
"V. c #C8885A",
"C. c #D38C53",
"Z. c #D38A56",
"A. c #CA9558",
"S. c #D49254",
"D. c #DA9453",
"F. c #DC9B53",
"G. c #DB9C5A",
"H. c #D59759",
"J. c #CE934B",
"K. c #E29D56",
"L. c #EA9C4E",
"P. c #DDA35B",
"I. c #DCA557",
"U. c #DFB05C",
"Y. c #E3A355",
"T. c #E2A45B",
"R. c #E5AB5C",
"E. c #E8AA5B",
"W. c #E9B45C",
"Q. c #F6B353",
"!. c #C99566",
"~. c #D69A64",
"^. c #C7936E",
"/. c #DCA364",
"(. c #DDAA63",
"). c #D9A66A",
"_. c #DFB26D",
"`. c #D8AA74",
"'. c #DDB779",
"]. c #CBA870",
"[. c #E3AB63",
"{. c #E3A967",
"}. c #E4B265",
"|. c #EAB463",
" X c #EBBB65",
".X c #E2B46C",
"XX c #EBBC6B",
"oX c #E9B66B",
"OX c #F1BB67",
"+X c #E3B472",
"@X c #E3BA75",
"#X c #E9BC73",
"$X c #E4BD7B",
"%X c #E9BD7A",
"&X c #E6B677",
"*X c #E1AF72",
"=X c #FDC858",
"-X c #EDC26C",
";X c #F3C46A",
":X c #ECC373",
">X c #E5C17D",
",X c #EBC47C",
"<X c #EDCA7B",
"1X c #E5C476",
"2X c #F1C876",
"3X c #F7D27B",
"4X c #FFE275",
"5X c #BAAC89",
"6X c #DBBA83",
"7X c #C9B489",
"8X c #E4BD82",
"9X c #C6B2A5",
"0X c #D5C692",
"qX c #E5C484",
"wX c #ECCB84",
"eX c #E4C68B",
"rX c #E4CA8C",
"tX c #EACC8B",
"yX c #E9C685",
"uX c #F0CE84",
"iX c #EDD38D",
"pX c #EED288",
"aX c #F1D48D",
"sX c #F3D686",
"dX c #E5CC93",
"fX c #E8CC94",
"gX c #E5D194",
"hX c #ECD494",
"jX c #E6D49B",
"kX c #EAD59A",
"lX c #ECDA9C",
"zX c #EED995",
"xX c #F1DB95",
"cX c #F1DA99",
"vX c #FEC99C",
"bX c #F9E298",
"nX c #FFED92",
"mX c #E6DCA3",
"MX c #EADCA4",
"NX c #E9DEAA",
"BX c #E7D8A4",
"VX c #F0DEA3",
"CX c #E6E2AC",
"ZX c #EBE2AB",
"AX c #EAE2A7",
"SX c #F6E4A5",
"DX c #E9E6B1",
"FX c #E9E8B4",
"GX c #F7EFB7",
"HX c #CCC9B3",
"JX c #FFFFC6",
"KX c #FFFFCA",
"LX c #F6ECCB",
"PX c #FFFFE5",
"IX c white",
"UX c #FFFFF1",
/* pixels */
"AXmXCXCX'.>XgXCXFXFXCXgX1X>XrXmXAXCX'.rXgXmXCXNXmXmXmXAXFXFXmX$X_.(._.gXDXyX@X'.>XrXgXMXMXCXAXFXDX@X[.[.@XjXMXAXCXDXDXDXCXCXCXAX",
".X.X_..X(.gXFXgX$X@X}.Y.R.>XDXCXrX_.@XyXgXgXqXgXFXmXrX+X.X@X}.$XgXmXMXdX.XI.I.$XNXAXFXFXAXAXMXrX(.M..XtXNXAXFXmXyX$X@X@X@X_.@X@X",
".X.X.XyXMXdX'.F.m.}.$X>XrXgXdX'._..XyXyXyXrXrXrX>X@X@X@X$XeXNXFXgXyX(.F.[.@XjXFXCXrX$X$X$X@X[.M.[.@XMXAXDXMXrX_.F.I..X.X.X.X@X>X",
"AXmXAXdXyXI.I.$XrXlXDXCXdX+XT.+XtXgXMXAXFXgXyX[.[.rXAXFXgXmXgX].J.}.'.yXMXFXNX'.$X$X+X+X[.[.[.@XgXlXMXAXdX@XF.M.m.[.gXlXlXlXFXAX",
"AXlX'.F.M.I.}.mXFXAXgXrX$X$XyXgXgXAXMXgXyX@X.XyXNXFXBXeX$XaXf.p.-.7XGXAXjXyX`.+XtXAXAXAXgXiXgXjXmXAXDXdXI.M.F.I..X$XgXAXAXMXrX}.",
"$X[.F.T.@XgXgXrXqX>XqXfXgXlXMXMXAXdX[.Y.}.rXmXCXCXBX6XrXFXx.a.W &.j.7XtX{.&XlXAXMXrX$X,XfXjXBXNXNXMXeXG.F.+XyXgXMXFXNXeX6XG.M.I.",
"T.[.>XlXlXgXgXqXwXiXiXgXgXlXAXgX.XI..X>XrXwX,X%X+XeXNXAXl.%.&.-.%.,.+.6XxXlXfX#XoXY.T.R.yXAXMXlX@XT.M.F.R.gXAXAXMXeXG.n.M.I.>XjX",
"zXjXdX>XR.Y.+XdXgXrX@X.X+X_.$XR.R.,XjX$XR.}.6X7Xl.x.k.c c W C KX7XC &.%.p.z.f.l.'.'.lXVXBXtX#XR.K.K.I.{.%XjXMXyXG.D.I..XqXgXyX@X",
"M.M.v.M.F.m.I.I.(.(.I.F.M.K.v.S.H.A.v.J.A.g.a.*.%./ L 0 h 6.e F.` C g.1 2 L / Q %.h.0X_.v.v.M.J.A./.gXAXMXgX.XM.F.@XgXtXtXgXlXgX",
"I.(._.wX.XyXgXMXMXMXyX}.aXl.p.h.9.h.k.+ x =.L U R T T I & r ! 5 e ,.1 ; Z Y U V B / %.u ; z.&.=.p.h.0XwX}.F.M.I.yXjX,XXX}..XgXF.",
"mXMXMXlXdXBXdX+X{.F.+XMXjXj.d.u =.i x.+.& N P ,.#.} y < + . q / ) 1 . : w S J ~ ) H e * d.! e %.y g.-..XT.I.K.@X@X$XtXfXNXgXI.F.",
"rX$XI.G.F.M.M.F.{.eXlXMX~.9.i z.HXh.q =.5 $.g f p s @ @ @ @ o > 1 o @ @ @ @ s d < k } 7 =.e x.HX,.y &.D.D.F.@XgXgXgXMXdX(.I.F.I.",
"M.n.n.F.F.F.F.@XjXAXdX(.w.9.%.7XKXa.=.x = ; o $ < q r r y S G + * G 6 w r q 1 , o o ; , -.C '.JX! %.$.n.D.F.$XjXgXMXyXF.M.M.M.T.",
"b.H.I.Y.I.I..XeXMX$XS.H.].9.i I _ J u =.  . $ 3 2 6 6 5 _ U ] 6 b ] R I : 6 2 2 3 O . $ -.t Y _ L u &.G.tXjXMXAXMX'.C.C.C.S.{.jX",
"D.G.G.{.+XyXjXAX>XF.(.zX0Xj.-.e r L A.q . ; B 6 G T T L u.R ' 6 M ] ] ) N T T N b v O   *.6.M 3 L g.-.tXMXMXAXdX/.C.C.G.[.wXMXAX",
"I.I.T.#XAXNXBX+XK.[.,X$X#X%.g.s.,.s.q . > Y 4 I c./ I Z J.T ( 2 w R T u.N Y T ( t 6 V O . u <.,.d.%.k.aXgXlX'.S.n.I.}.}.:XwXlXgX",
"F.}.tXMXdX~.b.n.D.F.F.K.R.(.> J #., . ; Y 4 e ~ ` J N 2 &.2 D > e v N K 2 N C ` } 4 6 G O o r @.< x sXtXtX(.C.b.S.G.G.XX,XjXgXA.",
"aXMXNX'.n.S.G.(.(.{..X%XrXfX7   X # $ A 2 u ,.4 : *.6.N @.w P ; 5 U N J C #.5 : r / 0 V 8 p O O   -.SXBX&Xb.w.b.H.G..XzXAXNX`.c.",
"pX+XH.S.G.}.:X:XwXtXgXlXyX+Xl < ; f $ G S +.: 7XPXK 7 $.! 2 @.k.Q w M Q K : l.PX%.4 H S b p < ; 7 j.fX/.Z.S.*XfXjXlXMXNXtX[.F.F.",
"C.c.b.G.~.[.}.tXMXAXjX).Z.r.*.l.T z @ A ) r & 4XnX_ - 6.! ; / 6./ 5 5 s.H ; ;XnXM.+ @.I 6 p +.` p.-.H.B.H.[.#X,X#XqXjX,XT.F.G.{.",
"N.~..X%XyXtXjXMXjX`.V.q.r.C.9.z._ z @ N w } 5 B ] : Q y J L A 0 > G L u S 7 N ' 6 S u N b p } ] h.$.Z.r.V.F.&XwXqXjXtXI.S.N.c.b.",
">XiXgXiXiXgXtX/.b.q.q.B.*XyXj.l./ z ; B H H J : * @.J Z @.8 ) ; e B S Q N Q > - S L L Z N p } _ p.@.C.r.S.[.#X,XlXmX~.N.7.r.G.T.",
"MXlXgX8X$X~.b.c.S.H.H.}.SXMXj.z.<.z , B 7 e y K T 5 J 3 @.N R w M P I u w N y I i e 4 S G p +.] p.} V.H.{.tXtXjXgX!.q.r.~.#X2X:X",
"eX~.H.N.w.c.N.D.Y.Y.}.cXjX~.=.l.( z @ N / H / / ,.@.+.H s.Y ' w S ] ( ,.y ,.#.<.@.#.w ( A a +.( p.$.&X#XpXjXDXdXV.q.w.G.XXXX:X<X",
"8.q.N.S.S.D.D.T.#XtXlXeXG.c.=.l.( k a P ] / ( ( / / / _ u.] ' 6 w ' ' u.) _ / / / / / ] A p W _ -.6.;X#XgXSXdXC.r.V.[.,X,X:XpXgX",
"N.(.(.T.T..X#XtXlXAXtXG.F.n.=.l.` k a T 4 : Y S S K e * #.2 v : t 6 N u ; e S M y w = S D p W ( -.6.OXgXSXeXC.c.n.R.:X:XqXjXdXV.",
"R.R.R.oXfXgXlXMXMXgX(.C.{.$X9.d.( k s P K _ ) * * l s.H Q b R = e T M Q ~ ,.5 * u ,.J P A p J ` &.k.nXAX8Xn.n.[.;XaXcXcXAXdXN.w.",
"W.R.:XxXbXbXVXtX,X/.Z.+XaXAXj.d.( k s D / +.: 5XLX} y ,.~ N | *.S D L ! J > l.GX=.r | / 8 p J ` &.d.&X+XH.~.8XyXfXdX8X8X6XN.7.>.",
".XyXfX6X`.'.`.H.C.r.~.`.`.].*.d.R k s N / 9 4 nXGXc.+ ,.! 2 $.k./ w N / 4 ; 3XJXI.X t T b p J ( -.,.;X%XeX].8.V.B.N.c.c.q.q.7.7.",
"(.^.V.7.4.q.e.N.B.B.q.q.r.w.*.d.T k s A ~ H : u.i.b 7 Q J L P 4 e Y Z Q y < ( i.H : y P b p J ( -.x.SXdX^.V.~.[.R.oX<XiX(.w.B.F.",
"F.F.T..X#XwXwXXXY.H.H.D.Y..X=.d.T h a G H / Z ; , y ) C Q N ( 4 S ( L @.H I : * 4 ~ I L b p J / -.l.).4.4.Z.oX#X#XwXgXqXG.K.R.Y.",
"R.oX,XAXBX6X~.V.r.~.~.{.zXlX=.g.Y h s P t 6 U N N J ! 2 Q T ] M w A.:.K M Z S H y I 4 M G a K / -.} 4.7.I..XqXjXlXgXtX%XyX@XR.R.",
",XgXAX6Xr.4.7.N.H.,X>XxXxXtX=.g.Y h a G <.u #.,.6.-.l ~ v.B ' w < h > b.u #.,.6.,.&.r _ b a u / -...r.~.,XgXlXzXxXcXcX6X7.r.G.[.",
"pXiX`.4.>.N.I.T.wXxXgXtXuXiX=.g.T h s G L t S r r r y y ) U ] w ; ].l @.r y y y r y r H b a u / -.,.E.%XcXzXaXxXiX`.8.2.3.C.}.gX",
"gXV.4.4.r.T.E.:XiXiXwXwXlXgX=.g.T h a P w 6 V S :.m U 6 ~ U ] M $ W i u 2 U A 6.v U 6 D A p u / -.s.&XqXcXaXaXyXV.>.1.3.B.[.pXiX",
"B.4.1.4.D.E.:XwXwXwXiXlXtXV.+.g.Y h a G P L I L H L I L / U ' M ; L y J S I H K H P A P A p u / &.z.cXlXcXiX^.4.1.4.e.H.|.oX#XXX",
"1.4.N.G.oX,XtXwXtXiXzX`.V.>.x g.U h a G ) } #.6.6.g.J Q <.Y ] 6 > C i ,.+.@.&.,.$.Q y / A p u T &.x.GXMX`.8.1.1.7.b.F.Y.E.#XXX|.",
"r.S.oXcXjXlXjXgXAXgX!.4.1.4.+.6.Y h a P e 3 Q r < +.+.4 ! 3 P 4 H : < J 2 C y > r L 2 S A s u T &.5XjX!.4.1.7.B.F.}.qXtXjXNX<XXX",
"(.tXgXMXVXcXcX8X~.V.>.1.V.I.%.6.Y h a G C #.6 : 7 = $.+.L M / * e ( H Q Q J ; 7 ; D D J A s y T &.6.N.4.4.N.H.T.%XgXVXVXSXeXH.N.",
"XX,X<X<X,X~.V.N.4.4.4.N.T.{.=.,.B h a A ~ 7 2 HXUX@.= ~ ~ w S +.S A D ! W = x.IXd.= H I b s r B $.#.7.7.N.K.K.$XiXuXiXiX%XC.q.>.",
"XX:X:X(.V.e.4.4.7.N.(.[.&XlX=.,.V h a A ~ 3 e 3XbXu.= J / : / g./ 6 M #.> 4 =XvXQ.; 7 I b p t B @.| 4.8.D.}.%XtXwXwXgXpXH.4.4.4.",
"}.(.V.7.7.7.N.C.G.R.oX,XzXlX=.#.V h a b I t = R [ 8 : ~ J S B 6 5 P S ,.u - R [ B * K I 8 p t V @.| r.~.qXzXaXuXwXiX$X!.4.4.4.w.",
"}.#X+X(.(.I.R.oX,XwXwXaXxXzX+.! V h s A 6 %.7 = : = ~ C H 2 / > e G S K +.t - : * w / M b s t B W ,.{.xXcXzXwXuX<X.Xr.4.1.1.e.R.",
"iX6X^.V.C.D.R.wXzXgXiXxXxX^.u #.V g s A 2 2 Q S t J H 2 J v U 7 e U P u 2 Q e 4 t I 4 6 b s t G Q | y.f.dXxXsX@Xf.4.2.o.3.H.}.W.",
"!.2.1.1.C.XX:XuXuX<X:X+X^. .k ~ v g s b D J J :.,.#.} J _ R ' 3 w ] ( :.} T :.:.:.I D P 8 s t M J 6.8.^.SXsX!.1.X.X.4.B.Y.W.W.oX",
" .2.8.H.E.}..X[.(.~.V.7.5.2.l J 6 h a 8 T $.,.$.;.&.,.) _ B T 4 w U Y <.$.#.@.$.$.#.I T 3 d t w K x.SXxXrXf.X. .1.7.M.R..XXX<XaX",
"2.V.[.}.F.S.c.S.F.N.4.r.B.<.i 6 A f a 8 K ) T X % ; _ :.J : G ; y b 3 &.W / X % - / / S 3 p 7 w 4 k.aX<X8. .2.7.c.M.I.@X{.{.tXwX",
"I.|.oXqXwXwXwX,X~.c.n.D.T.d.-.l.0.-., 2 I +.2 l.9X{ 3 ,.J w A 4 3 T N #.~ 2 ;.7X} 2 / D 2 ; 6.6.k.-.1X3X@X.XI.n.B.(.XX;X;XoX:X3X",
"}.XXwXsXwX'.].8.5.7.S.~.bXj.i @.+.r # 3 D 1 5 GXIXI.- K I ; :.g.I 6 6 ~ 1 : bXIXOX= 7 A : O } } } 1 !.(./.^.2.4.G.XX:X2X:X<X3X].",
"}.XX<X_.3.X.X.4.c.D.{.zX0Xc &.k.l.d., * D , 5 Q.Q.u.+ l I t V A w G 6 ~ > < Q.L.i.: > 8 + i p.h.h.x q o. . .2.~.XX-X-X:X:X2X~. .",
"}.XX!.X.X.2.V.T.+XtXgXbXl.K &.%.x $.J = M J 9 T u.7 8 / A w / = 6 T v Q W 7 B ] M 2 :.4 + ~ +.+.+.W r <.n.F.|.oX-X-X:X:X:XA.X. .",
"U.f. .2.7.F..X'.zXsXpXnX-.+.g W.I.r ~ = w ) I * * : _ ~ S 2 R 6 6 n n J ~ / * , * / T : + K t =XC W r s.Y.Y.R.|.XX2X<X).2.X. .>.",
"6...2.c.Y.<XxXyXwXsX<X~.j ; } Q ! +.$ + v L :.#.#.#.! ~ G n E 3 2 U V P J / ~ I J ~ H 2 O 7 S L W w ; F.Y.Y.oX-XXXV.2. .2.f.V.n.",
"..1.G.,X<XsXuXsX3X+X8.X.j + 5 r r :   + v b A A D A A A v n U 2 2 V v v A S D A b b A 2   + 3 3 7 % q +X2.`.[.G.D.w.N.(.+X/.8.r.",
"4.q.D.(.(.G.G.!.f.X...;. .@.,.,.! Q h.k.} j | 1.<.V.A.A.A.f.} j j { | | | | { { { j j | +.q y Q l h *.o.4.C.M.n.T.;X-X].2.| 4.[.",
"M.F.C.c.w.q.>.X. .2.7.4.N.|.OXW.;X+X0.2.X.r.M.T.XX;X;X|.8.X.X.2.N.b.b.C.~.~.H.N.r.t.r.oX;XOX;X#X~.2...7.n.n.T.E.Q. X6.{ O.r.{.;X",
"I.R.Y.A.1.X.X.1.>.w.n.T.XXoXW.Y.3.....O.w.n.I.XX-X|.H.1.{ 1.c.n.F.R.XX;X[.G.S.c.t.n.E.2X|.W./.2.....4.C.M.|.XXW.H.2.{ 7.D.K.|.W.",
"Y.W.P.1. .2.w.n.K.T.#XcXaX2XA.3... .1.w.n.[.:X-XoXW.7...>.c.F.T.XX<X:XT.w.r.N./.{.|.2X;XQ.I. .{ X.>.n.[.XX2XQ.H.:.{ >.n.M.Y.E.W.",
"I.A.2...1.c.S.(.iXcXxXaX,X!.{ { 2.q.c.n.F.oXXX-X-XA. . .q.[.;X;X;XXX|.T.C.G.oX;X;X;X;XXX[.6.{ >.t.C.E.;X@X6X!. ...q.n.D.K.E.oXW.",
"f.X. .>.b.F.@XxXiXpX,X_.8... .1.w.n.R.|.2XXX@X.X!. ...>.~.;XoX-XXX|.I.N.4.Z.XX|.|.|.|.(.2...4.b.D.R.oX;X~.o...{ q.b.D.#X:X;X}.B."
};
