/* XPM */
static char *floor[] = {
/* columns rows colors chars-per-pixel */
"64 60 239 2 ",
"   c #8D4B4C",
".  c #974F4C",
"X  c #95524D",
"o  c #9C594E",
"O  c #8B4B52",
"+  c #874D51",
"@  c #8F5252",
"#  c #935351",
"$  c #9A5652",
"%  c #9C5B54",
"&  c #9C5D59",
"*  c #935B54",
"=  c #A85B4E",
"-  c #A35D53",
";  c #A35D58",
":  c #A45952",
">  c #9E6155",
",  c #9C655C",
"<  c #A9664D",
"1  c #B2654D",
"2  c #B46C4E",
"3  c #BB6C4C",
"4  c #BE6C47",
"5  c #BD744F",
"6  c #A46355",
"7  c #AC6453",
"8  c #AB6954",
"9  c #A36459",
"0  c #A96359",
"q  c #AB6B59",
"w  c #A06C5C",
"e  c #B36652",
"r  c #B46B53",
"t  c #BA6C53",
"y  c #B46D59",
"u  c #AA735A",
"i  c #B67254",
"p  c #BB7354",
"a  c #BD7A55",
"s  c #B5735A",
"d  c #BB735A",
"f  c #BD7B5B",
"g  c #B77B58",
"h  c #BA7A61",
"j  c #AD7063",
"k  c #C26D48",
"l  c #C2744D",
"z  c #C9754D",
"x  c #C67B4D",
"c  c #CB7D4C",
"v  c #C77547",
"b  c #C27552",
"n  c #C47B53",
"m  c #C97E52",
"M  c #C27D59",
"N  c #C17758",
"B  c #D57F4A",
"V  c #BB8059",
"C  c #BA8664",
"Z  c #CD834D",
"A  c #CE8B4D",
"S  c #CC8548",
"D  c #D2844D",
"F  c #D38B4D",
"G  c #D98C4D",
"H  c #D68746",
"J  c #D6924C",
"K  c #DB944C",
"L  c #DD9A4E",
"P  c #DD9746",
"I  c #C68354",
"U  c #CB8454",
"Y  c #CE8A54",
"T  c #C4845C",
"R  c #CB855A",
"E  c #CC8C5C",
"W  c #C78F5B",
"Q  c #D18652",
"!  c #D38C53",
"~  c #D98D54",
"^  c #D28D59",
"/  c #CC935C",
"(  c #D59254",
")  c #DA9553",
"_  c #D79B54",
"`  c #DD9C54",
"'  c #D4935B",
"]  c #D9965A",
"[  c #D5995C",
"{  c #DB9C5B",
"}  c #E09B4F",
"|  c #E29E53",
" . c #E19E5B",
".. c #E19653",
"X. c #DEA154",
"o. c #DDA35C",
"O. c #DCA75A",
"+. c #DFB05C",
"@. c #E5A54E",
"#. c #E2A455",
"$. c #E4AA56",
"%. c #E2A45C",
"&. c #E5AB5C",
"*. c #E9AD5E",
"=. c #E9AA55",
"-. c #E5B15D",
";. c #EAB45B",
":. c #EDBB5D",
">. c #F1BA5D",
",. c #C18D63",
"<. c #CC8E63",
"1. c #C58967",
"2. c #C49062",
"3. c #CC9463",
"4. c #CC956B",
"5. c #CB986A",
"6. c #D39562",
"7. c #D69B64",
"8. c #DB9D62",
"9. c #D69E69",
"0. c #DA9C68",
"q. c #C99975",
"w. c #DCA364",
"e. c #DDAA63",
"r. c #D6A46D",
"t. c #DBA46B",
"y. c #DDAB6C",
"u. c #D6A367",
"i. c #DFB26D",
"p. c #C9A175",
"a. c #D4A473",
"s. c #D5AA73",
"d. c #DBAC73",
"f. c #DBAE7B",
"g. c #D7A877",
"h. c #DEB373",
"j. c #DDB47B",
"k. c #DDBA7C",
"l. c #DFBB73",
"z. c #E2A563",
"x. c #E3AC63",
"c. c #E8AD63",
"v. c #E2AD6B",
"b. c #E2A66A",
"n. c #E5B265",
"m. c #EAB464",
"M. c #EBBA64",
"N. c #E4B46C",
"B. c #E9B46A",
"V. c #E6BB6D",
"C. c #ECBC6B",
"Z. c #E7B966",
"A. c #F1BA65",
"S. c #E2AE71",
"D. c #E0AA79",
"F. c #E3B473",
"G. c #E4BA74",
"H. c #EABC74",
"J. c #E2B57A",
"K. c #E4BC7B",
"L. c #E9BE7A",
"P. c #E9B674",
"I. c #EEC36D",
"U. c #F0C266",
"Y. c #F1C56C",
"T. c #F6CA6D",
"R. c #ECC373",
"E. c #EEC976",
"W. c #E5C17D",
"Q. c #EBC47C",
"!. c #EDCA7C",
"~. c #E4C378",
"^. c #F1C573",
"/. c #F1CB74",
"(. c #F1CC7B",
"). c #F0C778",
"_. c #F0D17C",
"`. c #EFD27B",
"'. c #DFBB83",
"]. c #DBB683",
"[. c #D9BE95",
"{. c #E3BD82",
"}. c #E6BD83",
"|. c #DEC285",
" X c #E5C384",
".X c #EAC583",
"XX c #E6C986",
"oX c #ECCB84",
"OX c #E4C58B",
"+X c #EAC58B",
"@X c #E5CA8C",
"#X c #EBCC8B",
"$X c #F0CD83",
"%X c #F0CF8B",
"&X c #EED286",
"*X c #EDD38D",
"=X c #EFD88F",
"-X c #F1D383",
";X c #F1D48C",
":X c #F3D98D",
">X c #F4D986",
",X c #E3C693",
"<X c #E5CC93",
"1X c #EACE93",
"2X c #E5CC9A",
"3X c #E8CE99",
"4X c #E5D195",
"5X c #ECD394",
"6X c #EED994",
"7X c #E6D49C",
"8X c #EBD59B",
"9X c #ECDA9C",
"0X c #F1D693",
"qX c #F2DB94",
"wX c #F0D698",
"eX c #F1DC9C",
"rX c #F2E19D",
"tX c #F4E096",
"yX c #E5D4A1",
"uX c #EBD6A1",
"iX c #E7DCA3",
"pX c #EBDCA3",
"aX c #EBDEAA",
"sX c #E6DEAA",
"dX c #F1DEA2",
"fX c #ECDFB0",
"gX c #ECE1A6",
"hX c #E6E2AC",
"jX c #EBE2AB",
"kX c #E7E4AA",
"lX c #F1E2A4",
"zX c #F1E4AA",
"xX c #E7E5B2",
"cX c #E9E6B1",
"vX c #EBE4B2",
"bX c #EAE8B4",
"nX c #EAEAB9",
"mX c #F0E8B2",
"MX c #F0E8B6",
/* pixels */
"kXiXhXhXk.W.4XhXcXxXhX4X~.W.@XiXkXhXk.@X4XiXhXsXiXiXiXkXbXcXiXK.i.e.i.4XcXXXl.l.W.@X4XpXgXhXhXbXxXG.x.x.G.8XpXkXxXcXcXcXhXhXhXkX",
"N.N.i.N.e.4XbX4XK.G.n.$.&.W.cXhX@Xh.G..X4X4X|.4XbXiX@XF.N.V.n.K.4XiXpX<XN.X.O.K.sXkXbXcXkXkXpX@Xy.K N.#XpXhXbXiX.XK.G.G.G.h.G.G.",
"N.N.N..XpX<Xk.` P n.K.W.@X4X<Xk.i.N.W..X.X@X@X@XW.G.G.G.K.OXsXcX4X.Xe.` e.G.8XbXhX@XJ.K.G.G.x.K x.G.pXkXcXpX@Xi.L O.N.N.N.N.G.W.",
"kXiXkX<X.XO.O.K.@X9XcXhX<XF.%.F.#X4XpXkXcX4X.Xx.x.@XkXnX4XiX<XG.$.x.K.XXpXnXsXk.K.K.F.F.x.x.x.G.4X9XpXkX<XG.` K P x.4XpX9X7XcXkX",
"kXiXk.` K X.n.iXbXkX4X@XK.K.@X4X8XkXpX4XXXG.N..XsXbXyXOXW.+XN.N.G.9XbXcX8X.Xd.F.#XkXkXgX4X*X4X8XiXkXcX<XO.K ` O.N.K.4XkXkXiX@Xn.",
"K.x.` %.G.4X4X@X+XW.+X3X4X9XsXpXkX<Xx.$.n.@XiXxXhX4Xk.@XkXpXpXkXcX4X#X.Xv.J.pXkXpX@XK.Q.3X8XuXsXsXpXOX{ ` F..X4XpXbXsXOX'.{ K O.",
"O.x.W.9X9X4X4XQ.oX*X*X4X4X9XkX4XN.O.N.W.@XoXQ.F.S..XsXkXkXkX4X}.F.F.oX*X*X9X#XF.N.$.&.&.+XkXpX9XG.%.K ` &.4XkXkXpXOX_ H J O.W.8X",
"wX4X<XW.&.$.F.<X4X@XG.N.F.N.K.%.&.W.<XK.O.n.oX8XpXpXkXpXK.i.e.G.#X8X4XQ.Q.4X@XK.Q.oX9XpXyX@XG.%.L K %.v.L.8XpX.X{ ) O.v.+X4XXXG.",
"J J S J L P O.O.e.e.O.` K K K | $.{ K ` &.O.K.8XuXpXpXy.K ` x.e.K.G.N.oXpX4XG.x.L.4X8XG.K K L ` %.N.4XkXpX4Xi.K L G.4X#X#X4X9X4X",
"O.O.N.oXN..X4XpXpXpX.Xn.oX4X3X.X}.x.x.8XpXiX@XG..X#XO.F ` &.oX#X<X8XpX4XF.x.-.n.x.x.$.$.$.&.B.4X4XpXpXoXn.` K X..X8XW.Z.n.N.4X` ",
"iXpXpX9X<XyX<XF.z.` F.9XkXpXOXe.t.#X4X4X8X4X4X9XK.8.( e.x.n.x..X8X9XpXoXn.N.&.G.OXe.%.%.G.#X8X8X9XpXW.B.O.$.| G.G.K.#X3XsX4XO.L ",
"@XK.O.{ ` K K ` z.OX9XpXv.` H ) H.+X8XpXpXOXN.e.) ) e.G.N..XK.pX9XQ.G.x.` %.x.F.8.{ v.+X8X8X8X9X4XK.%.| ) L H.4X4X4XiX<Xe.O.` X.",
"J F F L L ` ` G.8XkX<Xu.H ( h.#X4XpXkX<Xe.K F J ` ` ` x.4XkXkX9XG.O.) ) ) ) ` e.O.K.9XpXpX8XpX8Xd.K F F ) ` K.8X7XiX.X` J K K %.",
"A _ O.%.X.O.N.OXpXK.( ' J.8XkXkXsX#XW.` H ( { v.L.}.3XcXxX'.e.' ! ! G ) ) z.F..XpXpXpXpX8X4XK.) H F ) z..X8XpXkXpXk.! ! ! ( v.8X",
"` { { z.F.}.8XkXW.` y.4X9X4X3X+XL.z.' { z.}.3XuXsXcXsX}.' F F F ! z.S.+X4XuXpX8X8X#XoXL.F.t.~ ! 8.J.}.3XpXpXkX<Xt.! ! { x.oXpXgX",
"O.X.$.H.kXsXyXF.{ x.Q.K.G.G.N.n.' ( ! N.!.#X8XpX8X}.{ F Z J $.N.}.8XcXbXkX8XG.N.N.{ { %.x.{ ' v.Q.oXoX#X4X9Xj.J F O.n.n.R.oX9X4X",
"` n.#XpX<X9.Q D ) ` ` | &.x.&.( U ! { %..X8X8X}.6.Q ( ) K G.3XsXnXkX4XJ.t.( F D ! ] z.x. .{ e.B.Z.R.Q.#X#Xe.! D ( { { Z.Q.8X4X/ ",
";XpXsXj.F ( { e.e.z.N.K.#XOX{ Y Y b.F.L.8XpXh.! Y { z.N.#XpXcXkX<Xt.c v 4 U 0.f.<X9XpX+Xx.O.x.Z.Q.3X9XpXJ.D c D ] { N.4XkXsXd.S ",
"%XF._ ( { n.R.R.oX#X4X9XoXF.] e.K.#X9XkXcX'.F Y N.oX8X9XkXkX4Xy.c x Q t.'.3XkXcXkX<X}.8.{ v.#X3XsXfXOXt.^ ( S.<X8X9XpXsX#Xx.L ` ",
"! Z A { { x.n.#XpXkX8Xa.U m ^ S.9XkXcX<Xt.! ! }.eX9XkXsX3Xd.R b b 8.+XpXcXcXcXpXK.) ! Q ~ H.8XpX9Xd.! ! ' x.H.Q.H.oX8XQ.%.` { v.",
"U 7.N.L..X#X8XpX8Xd.E l n ' H.pXkX4Xy.! ! { +X8X8X3X}.7.Q c U e.N.Q.4X9XpXsX3Xt.! U m 8.L.#X4X4Xt.! R n R ` P.oX+X9X#XO.( U Z D ",
"W.*X4X*X*X4X#Xt.D c l Y S.#X4X9XG.( F ( O.O.{ { ) ! c Z ' d.!.R.Z.B.#XsXcX4X' m U Q b.Q.Q.L.Q.G.t.' U n ( x.G.W.9XiX7.U b m { %.",
"pX9X4XK.K.8.Z Z ( _ _ m.lXzX#Xd.U m U z.x.%.$.) 0.a.f.3X.X}.v.F.K.K.9XuXOX7.Y U ( N.H.Z.L.+X#X+Xy.R n ' z.#X+X8X4X3.l a 6.H.).I.",
"OX9._ U c Z U ) $.$.c.eX4Xt.E m R ] z.m.&.H.L.+XpXmXmX3X' ] J.uXkXcX8Xy.^ U U ( N.V.H.+X8X9XOX9.n R F.H.$X4XmX3XE l x { H.Z.R.!.",
"a x I ' ( ) ) %.H.#X9XOX( A F { e.n.m.B.#XsXcXkXcX8Xr.Y ) Q.9XpXpX.X' n E _ t.H.Z.oX3XpX<Xy.( Y O.x.Z.H.4XkX,X! n E x.Q.R.R.&X4X",
"I e.e.%.%.N.H.#X9XgX#X{ ) K ` x.+XoX#XsX#XQ.4X8Xf.^ Z Y v.N.3X4XK.' U ^ %.x.H.oX#X9XkX<X{ Z ! x.v.%.x.wXzX@X( Z F &.R.R.+X8X<XE ",
"&.&.&.B.3X4X9XpXpX4Xe.! e.+X#X8XkXaXuXK.R.*X@X8.b n U ' N.Q.Q.N.' ! ( &.B.+X8X8XpXsX{.( Y U ! ( v.L.6XzX}.F F x.^.;XeXeXkX<XU 4 ",
"-.&.H.qXrXrXrX#XQ.t.^ F.;XlXgXpXOXt.] e.#X,X^ z l n ] m.B.B.x.{ 8.e.%.x.#X8X8XpX8Xt.Z n t ! | x.v.S.S.F.' e.}.+X3X,X}.}.'.U 3 2 ",
"N.#X3X].f.j.g.' ! m 7.S.d.a.E U F ] v.J.9.m c m 7.N.m.m.x.G.L.v.%.{ ` B.#X4XkX8X3.p t t U L n.F.' { H.L.OXq.d R Y U Z Z x 5 p 5 ",
"e.4.T p 3 l b U Y Y x x n Z U 8.L.oXK.( Z U t.}.#XN.%.v.K.#Xt.! ) | x.Q.+X4XyX1.t d R ) $.$.N.S.#XlXdX3X4.T 7.x.&.Z.!.*Xe.c Y ` ",
"` ` %.N.H.oXoXZ.$._ ' ) $.N.L.#X*X#Xe.8.OX4XQ.z.{ b.K.4X8XN.] ( &.H.#XwXeXpXr.c ) %.*.B.H.Q.#XdXzX<X4.t t ^ B.H.H.oX4X+X{ { -.$.",
"-.Z.Q.kXpX].6.R n 7.7.v.*XdX4X#XoXoXL.dXkXj.U ) L.pXsXpX4XG.m.m.H.wXmXzX4XS.' ! ` $.H.dXdXsXzX8Xa.t t p O.n.+X4X9X4X#XL..XV.-.&.",
"Q.4XgX'.n 3 5 U _ Q.K.eXqX4X%X$XqXdXpX].R m ^ n.R.4XpX4X*XoXR.8XMXmXyXf.R b U ] &.H.wXeXdXlXOXM 1 t m 6.Q.4X9X6XqXeXeX'.p n { n.",
"&X*Xa.t 1 U O.%.oX6X4X#XoX*X9XeX#Xr.T p M p 8.$XwXwX;X;XeXpXkX4Xd.7.R n p R O.F.4XeXdXlX4X4.t 1 p ) %.L.eXwX;XqX*Xa.f 7 p ! m.4X",
"4XE t t n $.*.R.*X*XoXoX9X9Xv._ m l b m m 9.#X9X9X9XeX4XOXd.4.n x n n M { m.m.oX;XqX4X9.y - t ! | -.S.oXeX;X=X'.T 2 8 i Y x.%X*X",
"Y t 8 t ) *.R.oXoXoX*X9X@X6.n p t p O.$.z.4XeX9X#XQ.d.<.t t y y s n { m.m.Z.R.-XoXf.h 8 8 b ` =.-.Q.9XeXeX*X4.e 8 t b { m.B.H.Z.",
"7 t U { B.Q.#XoX#X;X6Xd.n e t n ! X.&.H.4XpX4Xr.V s s M E Y n M <.x.Z.Z.Z.R.pXg.f 8 t n ) =.-..X<XpXzXlXa.d 8 8 p A ` =.*.H.Z.m.",
"n ( B.eX8X9X8X4XkX4X3.t 8 p ) &.H.L.3XpXkX4X7.p p ' e.&.%.%.z.H.(.R.H.wXeX8Xq.t e n ) z.P.#XdXsXpXcX,X<.t 8 p Y ` c.oX#X8XkXQ.Z.",
"e.#X4XpXdXeXeX}.0.R 1 8 U O.&.Q.#XwX4X4Xh.{ Q ! ] c.n.N.+X#X4XeX9XpXzX,X<.f 8 M ! $.*.#X9XeXeXdX8Xr.x p t I _ %.L.4XdXdXzXOX' U ",
"Z.Q.!.!.Q.8.E n 3 3 3 U %.v.#X4X#X$X!.7.p t t n x.m.R.4X*XwXeXwXeXeXa.p 2 t U } $.+XwXqX;X;XwXL.' c 3 p U |  .K.*X$X*X*XL.! l 1 ",
"Z.R.R.e.E b 3 t p U e.x.F.9X9XqXeXQ.,.8 t d n ' n.+X%X%X$XwXwXqXK.3.p p a ! %.N.#X#XwX;X;X;XH.X.U b t n ) c.L.#XoXoX4X&X' t t 3 ",
"n.e.T p p p U ! { *.B.Q.4X9XrX@Xa.f 8 = l c ~ B.Q.;X-X-X-X!.R.v.R p d n U  .Z.R.oXwXeXqXqXF.U n p t p 0.}.wX;X$XoX;XK.3.t t t c ",
"n.H.F.y.e.O.&.B.Q.oXoX;XqX9Xg.p = - 7 q.D.D.+X;XwX;XoXL.F.7.E p e y d ^ $.*.Q.#XwXdXeX6Xa.p e 8 d 6.8.qXeXwXoX$X(.N.n t 8 8 b &.",
"*X[.4.E ! ) &.oX6X4X*XqXqXp.- ; f 4.[.9X6X9X6XoX!.a.1.s q 7 7 t n E  .x.L.%XpXlXeXeX4X5.= - t ' N.1.d C 3XqX-XG.V t 7 ; i ' n.:.",
",.6 8 8 ! Z.R.(.$X(.^.F.1.9 9 I -.Z.R.Z.oXoXQ.I.u.t - 9 p U ! %.%.m.Q.$X;XwX;X;XtXK.f 8 8 l K B.9XJ.s q.lX>X3.8 - - t Y $.-.-.Z.",
"o q f _ *.n.N.x.e.7.T p 7 7 x @.&.H.Q.4XpX*XG.,.y ; 8 ( ` | m.R.R.$XqX:X:X:X;X*Xr.p 8 p Z K c.pX8XeXeXtX@XC - $ 8 5 J &.N.Z.!.;X",
"7 E x.c.` ( Z ( ` I t n U Z ` P.8XpXpX9X9Xh.a = 8 a U K ` m.(.E.R.R.H.H.F.r.3.C t t n H  .H.wXzX8X4X*X_.g o 9 p Z K X.G.v.v.#XoX",
"O.c.B.+XoXoXoXQ.7.Z F )  .S.3XkXgXrXqX:XqX#Xv.N.W Z Z ! *.I.R.!.E./.G.d.<.= 8 p ' G ..F.8XdXdXeXqX-X/./.V.n.O.F Y e.Z.^.^.B.R._.",
"n.Z.oX;XoXk.r.f e p ( 8.4XzXlXrX6X@X@X.X}.K.j.q.j d ( m.R.Q.Q.Q.!.g.h t t t e b G e.4XeXqX:X;X#X.Xh.y.u.u.4.9 t { Z.R./.R.!.`.r.",
"n.Z.!.i.s - - t Z ) v.4XrXeX4XXXe.a 7 8 9 & $ $ f %.N.-X$X!.Q.Z.,.$ 8 b F ] { z.+XqXqXqX*XK._ p $ $ & & & $ 7 6.Z.I.I.R.R./.9.o ",
"n.Z.2.- - 6 E %.F.#XwXqXqX.X7 6 > 9 9 9 9 9 s ` %.B.(.E./.!.v.T - p D ~ z.4XeXeX:X*X:X&XC $ > > 9 9 7 Q F ` m.Z.U.I.I.R.R.W - $ ",
"+.V $ 6 5 ` N.j.4X-X&X:Xg.6 6 9 9 6 q 8 n ) F $.Z.E.E._.G.T 7 - e K B.$XwXwXwX;X&X-XW.q $ $ 6 e b ! ! ` } $.-.m.Z.E.(.d.q : $ 2 ",
"u X 6 Z $.!.qX.XoX-X!.3.8 & > 8 f t.{ K K | B.Q.oX!.F.<.8 $ - <.OX9X9XqXqX;X;X;X-Xy.6 $ $ 2 ^ F.H.$.} $.$.$.B.I.Z.1.9 $ 6 C E G ",
"X < { Q.!.-X$X-X_.F.f : 6 $ t ] m.I.X.&.oXR.N.t.6.M f ^ O.O.*.A.Z.Z.Z.Z.Z.Z.Z.6.s - # $ 1 ~ (.$Xz.$.-.y.q d.x.{ ) c Y y.F.t.d n ",
"3 x ( e.e.{ { 3.V - # > 6 s &.:.&.-.+Xk.C 9 t c U 9.H.U.>.e.V 7 8 1 p p n p t - $ $ $ 3 { ^.Z.$.m.G.C $ t ! K F %.U.I.p.9 . 3 x.",
"J ` ! Z c l t - $ 7 p 3 U -.-.&.Z.s.j o . 5 F ` Z.Y.Z.&.i $ $ 6 n n c U ' 6.E U z l z v.Y.m.Z.N.3.$ + t F G %.*.>.Z.u + = m z.U.",
"O.&.$.( 8 - 8 8 1 c G %.Z.Z.-.$.g # X - c K O.Z.Y.m._ <   < D G | &.Z.Y.c. .] Z B H *./.m.-.e.6 X # t Q K m.Z.-._ 8   p ~  .m.:.",
"$.-.O.< $ 7 c H | %.H.eX:XE.W i @ $ 8 v H x.R.I.Z.m.p X 2 S ` %.Z.(.R.%.c n U e.z.m./.Y.>.O.*   - e F x.Z./.>._ <   2 G K $.=.-.",
"X.( > X < Z ( e.*XeXqX:XQ.,.+ + 6 x H H ` Z.Z.I.I.W $ o n x.Y.Y.Y.Z.m.%.! { B.^.^.^.I.Z.&.u + 2 z ! *.T.G.].3.o X x F ) | *.Z.-.",
"V - $ 2 D ` G.qX*X&XQ.h.a # * 8 c F &.m./.Z.V.i.2.$ # 2 8.^.Z.I.Z.m.O.I t ^ A.m.m.m.m.e.9 # t D ) -.Z.Y.5.> @   x D ) Z.^.R.n.Y "
};
