/* XPM */
static char *item_2[] = {
/* columns rows colors chars-per-pixel */
"64 64 238 2 ",
"   c None",
".  c #39001A",
"X  c #1B0B35",
"o  c #350427",
"O  c #270737",
"+  c #350C3A",
"@  c #311833",
"#  c #54000E",
"$  c #4A0219",
"%  c #58051A",
"&  c #720D0F",
"*  c #690A14",
"=  c #770912",
"-  c #721111",
";  c #552814",
":  c #762A1A",
">  c #7D3C1F",
",  c #470526",
"<  c #4C0D2C",
"1  c #5C2627",
"2  c #522E2F",
"3  c #472336",
"4  c #58393C",
"5  c #612226",
"6  c #6B3424",
"7  c #66431B",
"8  c #744E32",
"9  c #2E164C",
"0  c #3E2C5E",
"q  c #3E2B6C",
"w  c #471A58",
"e  c #543B4C",
"r  c #4E3073",
"t  c #664C48",
"y  c #53407B",
"u  c #82110E",
"i  c #961809",
"p  c #A51A06",
"a  c #92210C",
"s  c #98220B",
"d  c #8C2D10",
"f  c #A52A08",
"g  c #AC3609",
"h  c #B83806",
"j  c #B1310B",
"k  c #8A3924",
"l  c #C43D03",
"z  c #8F4717",
"x  c #B54B0A",
"c  c #B36516",
"v  c #8A4E23",
"b  c #AB582F",
"n  c #93682C",
"m  c #AD7031",
"M  c #C54604",
"N  c #CC5709",
"B  c #CD500F",
"V  c #D75B05",
"C  c #D6690A",
"Z  c #CB6410",
"A  c #D66414",
"S  c #DD7819",
"D  c #EE7207",
"F  c #E87908",
"G  c #E57D15",
"H  c #D6752D",
"J  c #8E6242",
"K  c #A67550",
"L  c #E97843",
"P  c #BE8B24",
"I  c #DB8415",
"U  c #F68A0D",
"Y  c #E8861A",
"T  c #EC9917",
"R  c #FA9618",
"E  c #FCA50D",
"W  c #FBA61B",
"Q  c #FFBC14",
"!  c #DC942F",
"~  c #DC8C3A",
"^  c #EC8825",
"/  c #F18B26",
"(  c #F59B27",
")  c #E99731",
"_  c #E69834",
"`  c #FDAA22",
"'  c #FBA32D",
"]  c #FAB42A",
"[  c #FAA839",
"{  c #FBB83A",
"}  c #FCC43C",
"|  c #FCD43A",
" . c #B2896F",
".. c #D39359",
"X. c #E69A46",
"o. c #F79C44",
"O. c #E59059",
"+. c #D1AB42",
"@. c #DAA759",
"#. c #F6A947",
"$. c #FBB948",
"%. c #E8AA51",
"&. c #F4AC58",
"*. c #E6BB59",
"=. c #F8BA58",
"-. c #D39A76",
";. c #D2AB6C",
":. c #DCA677",
">. c #E5AE6A",
",. c #E8B967",
"<. c #F6B769",
"1. c #E7B87A",
"2. c #F6BB77",
"3. c #EFC44B",
"4. c #FDC347",
"5. c #FFCA45",
"6. c #FFDA48",
"7. c #FBC956",
"8. c #FCD95B",
"9. c #FBE458",
"0. c #DFC77C",
"q. c #F9C767",
"w. c #F9D469",
"e. c #FEDC6A",
"r. c #E7C676",
"t. c #F9CA74",
"y. c #EDD47B",
"u. c #F9D875",
"i. c #FED27A",
"p. c #FEE46B",
"a. c #FFEC69",
"s. c #FFF167",
"d. c #FCE37C",
"f. c #FBE879",
"g. c #FFF475",
"h. c #553F85",
"j. c #5E4487",
"k. c #6E5390",
"l. c #755EA0",
"z. c #85699A",
"x. c #8265A4",
"c. c #BC9C8E",
"v. c #D6A987",
"b. c #DAB788",
"n. c #CBAD92",
"m. c #D3A994",
"M. c #DABA97",
"N. c #E7A986",
"B. c #E4B487",
"V. c #E5BA92",
"C. c #F1B492",
"Z. c #D9B9A7",
"A. c #D0B3B1",
"S. c #E9B5A6",
"D. c #E2BAA9",
"F. c #DAC88A",
"G. c #D8C695",
"H. c #EACA88",
"J. c #F7C887",
"K. c #E9D180",
"L. c #FEDC84",
"P. c #F9D589",
"I. c #FCDC8C",
"U. c #E7C799",
"Y. c #F3C897",
"T. c #EBD49C",
"R. c #FAD896",
"E. c #EBE185",
"W. c #FEEB84",
"Q. c #FFE48C",
"!. c #FDE889",
"~. c #FFF787",
"^. c #FFF38E",
"/. c #FAE597",
"(. c #FEEA94",
"). c #FEE39B",
"_. c #FDEC9A",
"`. c #FEF395",
"'. c #FFF49B",
"]. c #FFFB9A",
"[. c #DDC1A7",
"{. c #DAC4B4",
"}. c #E4CBA8",
"|. c #F6CFA6",
" X c #E9D6A8",
".X c #FBDBA1",
"XX c #F7D8A8",
"oX c #E5C4B4",
"OX c #EDCCB3",
"+X c #EBD6BA",
"@X c #F6D7BA",
"#X c #F7E5A6",
"$X c #FCE3A5",
"%X c #FFECA4",
"&X c #FDEBAD",
"*X c #FEF5A3",
"=X c #FFFAA5",
"-X c #FEF4AB",
";X c #FFFBAC",
":X c #EFE4BB",
">X c #FDE5B4",
",X c #FDEBB4",
"<X c #F5E3BA",
"1X c #F7E6BC",
"2X c #FDE9BB",
"3X c #FEF3B3",
"4X c #FFFCB5",
"5X c #FEF4BB",
"6X c #FFFBBC",
"7X c #D9C8C6",
"8X c #DFD1CE",
"9X c #E9D6CA",
"0X c #F4DDC5",
"qX c #E6D8D4",
"wX c #EBDCDA",
"eX c #F0DED6",
"rX c #FCECC2",
"tX c #F4E4CC",
"yX c #FAE9C8",
"uX c #F5F0C7",
"iX c #FEF4C3",
"pX c #FEF4CD",
"aX c #FFFCCC",
"sX c #F6E9D8",
"dX c #F7F0D4",
"fX c #FEF5D3",
"gX c #FDF5DB",
"hX c #FFFCDB",
"jX c #EDE6E4",
"kX c #F5E9E5",
"lX c #FDF5E4",
"zX c #FFFCE4",
"xX c #F5F0E8",
"cX c #FBF4EC",
"vX c #FFFDEC",
"bX c #FBF6F5",
"nX c #FEFDF3",
"mX c #FFFEFC",
/* pixels */
"                                                                                                                                ",
"                                                                                                                                ",
"                                                                                                                                ",
"                                                                                                                                ",
"                                                                                                                                ",
"                                                                                                                                ",
"                                                                                                                                ",
"                                                                                                                                ",
"                                                                                                                                ",
"                                                                                                                                ",
"                                                                                                                                ",
"                                                              :                                                                 ",
"                                                          v m &.m :                                                             ",
"                                                        8 b.iXnX&XS z ;                                                         ",
"                                                    e b +.q.lXvXi.5.$.c ; 2                                                     ",
"                                                  n  .w.a.J..XO.G >XfXp.2.J 4                                                   ",
"                                              6 P w.R.Y.Y.mX=.g N L.nX3XC.N.m v 4                                               ",
"                                          3 n +.-Xd.X.H.A.9X&X2.Y.iX,XM.+XcXiX_ d 1 e                                           ",
"                                        t  .G.~.~.@.S rXxXwXA.cX5Xr.1.tX-XR.0X5XX.x 5 e                                         ",
"                                    2 n G.qXA.M.9.8.W.`.*XfXlXZ.B.XXbXfX4.G L nXR.&.A n 8 e                                     ",
"                                2 z ..3XpXfXzXoXH.<XgX8.8.f.P.v.qXS.pXq.$.[ |.lXP.d.7.} ! k 4                                   ",
"                              1 K w.aXJ.Y #.vXmXbXA.{.!.*.H.).gXnXkXcX-.2X_.4Xq.[ *XiXzX(.F g 2                                 ",
"                          8 m :.S.Y._.<.X.=.e._.6XcXXXO.t.e.`.5XvXmXzXsX[.1.iX4./ <XmX,Xo./ X.m v 3                             ",
"                        v I Q ~.sX+Xb.dXiXI.U { 8.V.K.#XoX1.f.a.!.>X&.C.wXjXY.J.2XaXnXL.' ..9Xt.D x 5                           ",
"                    8 n 3.w.6.g.g.(.sXOX(.%X7.X.B.XXsXnXbXsXm.-Xe.<.J.sXzXiXsX@XXXaX X:.Y.bXmXi.' ] Z : 4                       ",
"                3 J ~ (.iX3X5X$.S F 2.nXlXV.@.R._.q.@XnXnXnXnX}...oXnXJ.#.{ zXmXtXF. .0XnXhX%X{ R.aXJ.H K 6 9                   ",
"              8 n T <.9XK.-XzX#.) ^ u.sXsXD.9XF.!.fXiX6X;X,X,X<XjXjX XX.G Y.vX<XH.#XjXH.}.fXe.U R.4XY.OX<X) z 1                 ",
"          6 n T.-X{ #.1.D.$X`.q.@X). Xc.XXI.'.M.G.%X~.hXR.~ 7.(.I.9X{.M.*X~.f.,.U.iX3X<X{.m.w.5.XX:.OXvXvXaX=.N > @             ",
"        7 +.%XvX$X/ Z >XmXZ.[.fXyXN.+XE.] ( _.nXkX[.U.H.U.u.E U ' gXmXwXT.>.q.(.zXi.( sXmXwX+X,.v.wXnXfXu.R.P.R T b 1           ",
"      P u.zXmX].*._ J.nXmXmX<X&.#X5X_.e.7.| !.vX6X_.M.c.uX7.` <.rXzXfX%Xb.Z.vXfX^.,XXXzXiX5X|.N.9X+X;Xa.I H [ R p.4.N 5         ",
"    ; T 8._.cXb.}.OXgX).i.pXrX@XyXt.{ w.7.(.fX5Xw.@.M.cX}.>.!.nXfX XO.|.mXfX0Xn.d.`.-X`.d.@.OXnXxXv.,.8.! v.pX,XiX&.M - @       ",
"      d C E I.1X&XiX).I.$.R.hXnXgX0X>.8.W $.Q.r.1.eXI.w.y.tXhXR.:.0X@XgX%Xw.dXjXn.:X'.T.;.#XR.2./ [ q.J.R.rX-X$X~ A a $ @       ",
"      @ * M G =.R (.fX@X<XgXi.t.!.w.L.M.H.W.,XZ.tXpXi.D [ 5XgXv.oX-Xg.9.} 4.%XaXzXqXb.XX3Xp.$.A S J..X@XrXXX=.A f = < 9 0       ",
"      j.w , u M D u. XcXmXXXV M Y { d.vXkX:.yX;X;XfXfX=.>X[.tXnXpX1.y.] #.d.s.w.y.Z.qX0XK.9.`.w.w.3XfX,X4.X.b u % 9 q y         ",
"      l.l.h.+ $ g %.g.4XnX@Xb ~ I.5XvXwXwX9X8Xy.p.zXvXrX|.eX<Xu.'.1XA.O.f.].u.@.2.R.nXgX{.M.W.W.(.3XQ.Y V p % o 9 r             ",
"          x.k.r < g Y | f.lXsX(.aXnXwXc.jXmX7Xr.W.T.H..XsX-X} U w.(.sXsX,XL.XX7Xu.$.gXaXaXdXn.&XaXq.Y j u %                     ",
"            z.x.r < - x R 5.aXzX/.1.M.dX!.>XpX=X/.0.-.@XvX`.p.$Xw.W i.nXD.B.9XaXf.d.7.Q.'.pXgXR.#.B p =                         ",
"                x.j.+ % j C R.%X,.m.cX,X] U 4.!.v.7XnX0Xr.*X(.=Xa.5..XA.M.#XA.U.p.=X`.lXiX3X=.Y l & $                           ",
"                  k.j.r , & A W w.zX).( Y #.2.V.0XgXvXdX+X1.I.'.f.=.|.U.=.$.5XtXB.T.hXlXR.I M i * o                             ",
"                      y q + * f Y w.$.#.XXOXlXXX$.R i.nXmX9X#XW.r.M.pX4.R P.=XfXsXD.XX{ G i = ,                                 ",
"                          0 9 , a F W 6.].aX6X~ x #.w.3X-X=X&X>.D.lXhX=.R.d.Q.mXiX2X( C f %                                     ",
"                              9 , u N F { %X6XJ.X.2X(.4.{ ' 2XxXnX'.~.3X;X_ ~ P.[ / h = $                                       ",
"                                9 O % i h ^ (.6XR.4X`.$X&.<.zX6X3XI.>XaXL.A l U M i * o                                         ",
"                                    O   * x I t.q.4XvX6X*XW.-X7.q.vXmXmX.XT V M * $                                             ",
"                                          $ a Y | 5.(.4XfXQ.u.Y.#XiXaX(.o.N s %                                                 ",
"                                          X o i C E L.3XaX$XY.nX&.S ] ) j u .                                                   ",
"                                              o - g Y ( _.pXvXaX` V l a * o                                                     ",
"                                                  o a B 2.5XiX$.F h = ,                                                         ",
"                                                  X , = B W W V p = o                                                           ",
"                                                        - h j i % o                                                             ",
"                                                          # # $                                                                 ",
"                                                                                                                                ",
"                                                                                                                                ",
"                                                                                                                                ",
"                                                                                                                                ",
"                                                                                                                                ",
"                                                                                                                                ",
"                                                                                                                                ",
"                                                                                                                                ",
"                                                                                                                                ",
"                                                                                                                                ",
"                                                                                                                                ",
"                                                                                                                                ",
"                                                                                                                                "
};
