/* XPM */
static char *item_1[] = {
/* columns rows colors chars-per-pixel */
"64 64 231 2 ",
"   c None",
".  c #38041A",
"X  c #3B031E",
"o  c #370723",
"O  c #2B143D",
"+  c #4D0614",
"@  c #460519",
"#  c #570712",
"$  c #541111",
"%  c #541517",
"&  c #670C0E",
"*  c #6C170D",
"=  c #78190C",
"-  c #620F14",
";  c #701914",
":  c #52281D",
">  c #6E2A13",
",  c #440A22",
"<  c #4A1C26",
"1  c #49272C",
"2  c #562927",
"3  c #583524",
"4  c #4B2D32",
"5  c #4A3537",
"6  c #6E362D",
"7  c #783F21",
"8  c #734419",
"9  c #574338",
"0  c #794C38",
"q  c #321849",
"w  c #382A54",
"e  c #3D2E62",
"r  c #473A5C",
"t  c #4F376B",
"y  c #4C386B",
"u  c #6F554D",
"i  c #59477B",
"p  c #655179",
"a  c #801D0B",
"s  c #86260B",
"d  c #962C08",
"f  c #8B370F",
"g  c #993708",
"h  c #A33E04",
"j  c #9C420F",
"k  c #984B15",
"l  c #965016",
"z  c #A94809",
"x  c #AC4E0D",
"c  c #B65608",
"v  c #AA5110",
"b  c #BB640B",
"n  c #BB651A",
"m  c #B4721E",
"M  c #8C562F",
"N  c #A55425",
"B  c #B86625",
"V  c #B9742B",
"C  c #A46632",
"Z  c #C66C0B",
"A  c #CF7F0D",
"S  c #C56E19",
"D  c #C77418",
"F  c #CC7B1B",
"G  c #D57912",
"H  c #C0612D",
"J  c #C87929",
"K  c #C97C36",
"L  c #907148",
"P  c #B2794F",
"I  c #C87D47",
"U  c #B48230",
"Y  c #D58315",
"T  c #D78719",
"R  c #DC901D",
"E  c #E28D1E",
"W  c #CA842A",
"Q  c #D58727",
"!  c #D99029",
"~  c #C88235",
"^  c #D48A35",
"/  c #DA9838",
"(  c #E29A29",
")  c #E29D3B",
"_  c #E9AF36",
"`  c #E6A83B",
"'  c #B4854E",
"]  c #B88555",
"[  c #BB8F67",
"{  c #B79367",
"}  c #AC8D78",
"|  c #B38B70",
" . c #C58949",
".. c #CC9348",
"X. c #D79847",
"o. c #C58756",
"O. c #CC9657",
"+. c #D39859",
"@. c #E09B46",
"#. c #DAA34B",
"$. c #D8A45B",
"%. c #DAB25C",
"&. c #E5A646",
"*. c #E5AA44",
"=. c #E4AB4A",
"-. c #E7B447",
";. c #E2AA55",
":. c #EABC54",
">. c #E7B65A",
",. c #F3BC55",
"<. c #C69066",
"1. c #CB9A67",
"2. c #D39C63",
"3. c #C49B76",
"4. c #CAA468",
"5. c #DDAB63",
"6. c #D7A768",
"7. c #DAB26A",
"8. c #CCA675",
"9. c #D3A873",
"0. c #D4AB74",
"q. c #D4AB7B",
"w. c #DCB374",
"e. c #D9B578",
"r. c #E3AB67",
"t. c #E3B464",
"y. c #E5BA63",
"u. c #E6B969",
"i. c #E7B874",
"p. c #E5BC74",
"a. c #E3BC7B",
"s. c #EFC453",
"d. c #ECC365",
"f. c #EAC56A",
"g. c #F2CC6A",
"h. c #EBC372",
"j. c #E8C578",
"k. c #ECCB7C",
"l. c #F2CF77",
"z. c #EED07D",
"x. c #F3D47C",
"c. c #F6DA7C",
"v. c #675282",
"b. c #AE968E",
"n. c #B99888",
"m. c #BEA783",
"M. c #B9A697",
"N. c #C89C84",
"B. c #C8A887",
"V. c #D6AC81",
"C. c #CCB28A",
"Z. c #DCBB84",
"A. c #D6B589",
"S. c #C7A899",
"D. c #D4AC9A",
"F. c #CAB397",
"G. c #D4B798",
"H. c #E1B88C",
"J. c #CAB0A9",
"K. c #C9B4A9",
"L. c #CCBEBA",
"P. c #DDC389",
"I. c #D8C197",
"U. c #DCC49A",
"Y. c #E7C587",
"T. c #ECCB83",
"R. c #ECCC8B",
"E. c #F0CD81",
"W. c #ECD287",
"Q. c #F3D686",
"!. c #E2C693",
"~. c #E9C896",
"^. c #EBCC94",
"/. c #E4CA9C",
"(. c #EBD295",
"). c #EAD49A",
"_. c #F2D796",
"`. c #F2DB9B",
"'. c #F3E39A",
"]. c #DBC5A9",
"[. c #DAC7B6",
"{. c #E4CCA3",
"}. c #E4CCA6",
"|. c #EAD7A4",
" X c #ECD4AB",
".X c #EDDBAC",
"XX c #F2D7A3",
"oX c #F2DDA4",
"OX c #F1DDAB",
"+X c #E2CCB2",
"@X c #E5CBBA",
"#X c #EDDCB3",
"$X c #E6D6B9",
"%X c #F1DDB7",
"&X c #EEE3AB",
"*X c #F3E3A7",
"=X c #F4E3AC",
"-X c #EEE5BA",
";X c #F3E3B3",
":X c #F6E8B4",
">X c #F3E4BB",
",X c #F3EABD",
"<X c #D9CBC5",
"1X c #DDD4C9",
"2X c #E3D5CC",
"3X c #E7DCC8",
"4X c #EADDCA",
"5X c #E4DBD4",
"6X c #ECE1C3",
"7X c #EEE7CE",
"8X c #F3EBC4",
"9X c #F4E9C6",
"0X c #F2ECCB",
"qX c #F9F4C4",
"wX c #F5F2CC",
"eX c #ECE7D5",
"rX c #F3ECD3",
"tX c #F3EBD9",
"yX c #EEF1D9",
"uX c #F5F4DD",
"iX c #E9E9E6",
"pX c #F2EEE1",
"aX c #EFF2E9",
"sX c #F4F4E4",
"dX c #F5FAE3",
"fX c #F6F9EB",
"gX c #F8FBE9",
"hX c #EBF5F6",
"jX c #F0F2F1",
"kX c #F2FCF4",
"lX c #F2FEFB",
/* pixels */
"                                                                                                                                ",
"                                                                                                                                ",
"                                                                                                                                ",
"                                                                                                                                ",
"                                                                                                                                ",
"                                                                                                                                ",
"                                                                                                                                ",
"                                                                                                                                ",
"                                                                                                                                ",
"                                                                                                                                ",
"                                                                                                                                ",
"                                                                                                                                ",
"                                                            > C l %                                                             ",
"                                                          L e.8X_.V >                                                           ",
"                                                      2 M t.%XgX8X) Y l %                                                       ",
"                                                    u { -.@.~.}.J u.>X=.' 0 4                                                   ",
"                                                8 W 6.0.y.sXR.x d X.sXoX~.3.M 3 9                                               ",
"                                            1 M %.g.y.H.B.<XoX~ P ~.>XA.N.@X#X~ > 1                                             ",
"                                          0 } s.Q.Y.x 6.eXL.K.4XwX!.O.G.3X=XtXOX~ f < 5                                         ",
"                                      : L ].b./.>.` #._.=XdX1X[.8.6.@XsXh.! H 4X X..k 6 5                                       ",
"                                  < 8 4.OXdX0XK.O.p.8Xd.*.f.^.3.S.G.3X_./ W I eXU.e...^ m 3 4                                   ",
"                                3 V j.;Xr.X.>XkX5X[.m.k.#.1.a.!.wX<X4X2.6.a.(.(./ g.c.OXQ.F > 1                                 ",
"                            3 M [ H._.t.B V h.8X0XaX[.O. .>.x.:XdXlXkX<X[.4.W.:.Z e.fXsX~.S S M 2 1                             ",
"                        2 k A :.4XD.8./.#XT.Q ! -.G.9.$.I...d.s.k.-Xa.V.[.J.+X5.0.).fXoXQ B B.e.S f <                           ",
"                    5 3 m / ( s.Q.`.<XK.a.(.X.~ ' A.+XwXyX[.B.a.d.5.O.q.sXfX2XA.!.-X#X9...}.iX XG Y l % 1                       ",
"                  5 M #.Q.;XR.>.Q F 9.eX+X!...$.A.r.H.lXlXdX5X@Xo.<.4X%XY.) ;XkX[.A.] m.8XuX0Xp.&.`.5.B 6 2                     ",
"              4 2 l K }.(.k.sXe.S c W 0X0XD.} }.u.XX%X,X'.=X6X/.S.5XeXO.c I rXyX{.Z.F.(.}.=XQ.G +.>X/.3.!.V > <                 ",
"            2 L w.*.) Z.| !.'.;.+.a.a.M.F. X.XB.{ ).l.=XoX..+.XX>X7XM.w.7.h.W.7.'  XqX.Xn.F.7.! e.q.1.6XqXoXX.j :               ",
"          8 ..0XtXX.x +.7X].3.oX7XB.C.B.=.W >.8X2XG.8.(.8.8.T R G ^.kXL.+X$.X.#.>X`.! !.lXL.G.7.8.S.5XfXOX(.#XQ b 7 1           ",
"      8 U /.sX,Xt.J K $XlXhX[.9.e.U. Xl.&.T -.wXdX.XA.} F._.T J $.8XfX-Xq.P $X9X=X).2.$XuX,X3Xo.N.2X0XQ./ B X.Z / =.v :         ",
"      b ,.=XkXI.4.[  X0X).yX$Xq.A.^.` =.h.f.*X0Xj.X.[ L.+XO.&.>XsX X1.2.6X6X$XB.d.x.OX`.z.$.3.5XjXS.O.-.S M }.u.^.^.c =         ",
"      > c T T.].!.8XR.T.! 6.}.kX-X[.O.=.R ^ j.a.O.B.G._.!.B.#X|.V.G.D.@XuXT.|.L.F.q.z.T.{ 4.U.$X6.+. .6.$.Y.;X8Xe.V g #         ",
"        % h D p.X.u.OX{.9. XOXR.OXR.9.V. .>.!.3.D.rX(.Z S j.rX3.| .Xc.x.-.( T.sX2X5XC.e.Z.x.*.J z J p.q.G.}.5.^ z = -   O       ",
"      r q + * z c / Z.+XpXtXK z D Q *. X1XV.e.&X;XoX8XX.$.}.U.3X2X9.%._ Y >.:.y.j.C.M.@X}.-.d.X.~ Z. X$XE.$.] s * o O e w       ",
"      i i e   + s ~ k.oXuXeXN f  .u.oXaXiXS.+X(.s.,XlX3XZ.[.[.;X`.P.n.P ..f.f... .q.pXeXC.] f.g.y.Y._.5.Z g ; X   q e           ",
"        p v.t q o f F _ Q.tX[.7.Q.wXsXM.J.lX<X{ :.|.P./.D.8Xy.F &.'.7XK.I.p.e.n.!.X.>XwX>X].8.9.oXR./ x s - o                   ",
"            p p r o * z Y >.;X7XoX!.B.F..X0XaX|.h.w.] 8.sX,X-.$.>.! ;.uX2X<.].pXx.*.t.p.k.^.1X@Xp.K d = @                       ",
"                v.y   + g b u.0Xw.P K.uX>.Y X.k.7.| @X$XP.Q.T.*Xx.` ;.<Xn.{.M.D.>.Q.y./. XoX(.X.c s # X                         ",
"                  p y q , & N / &.#XrX5.S S ^ 1.C.iXfX6XB.w.5.E.>.#.0.D.e.) ^.[.4.e.`.kXeXX.n g = @                             ",
"                      y w   - g n f.u.D O.8.@X+XT.@.i.uXlXL.8.j.7.<.A.T.Y ..R.=X2XN.+Xa./ g = # X                               ",
"                          w O o = b E ) E.#X0X7.k n / oX0X-X(.2.[ [.uXu.^ j.h.sXwX#X5.F x * X                                   ",
"                              q o * z Z ( k._.6.N 6.OX;.*./ p.+X5X,XQ.T.(.t.Q  Xu.$.n s - o                                     ",
"                                O   % s z J T.=Xj.`.E.u.$.J  XwX0X!.u.oXQ.J d S c g * @                                         ",
"                                        + g W y.+.T.0X,XR.y.OXp.X.}.iXaX#XQ x c s + .                                           ",
"                                          + = n ` :.R.`.`.k.t.6.q.:XdX,XZ.n g * .                                               ",
"                                            . = c Y =.`.;X).+.2X^.J &.` v s + .                                                 ",
"                                                - g J X.t.{./.sX;.c z j = @                                                     ",
"                                                  X ; z X.#XrX^.R c = # o                                                       ",
"                                                    . * j @.` F g a @                                                           ",
"                                                        $ h z d & @                                                             ",
"                                                          + & # .                                                               ",
"                                                                                                                                ",
"                                                                                                                                ",
"                                                                                                                                ",
"                                                                                                                                ",
"                                                                                                                                ",
"                                                                                                                                ",
"                                                                                                                                ",
"                                                                                                                                ",
"                                                                                                                                ",
"                                                                                                                                ",
"                                                                                                                                ",
"                                                                                                                                ",
"                                                                                                                                "
};
