/* XPM */
static char *moise_dead[] = {
/* columns rows colors chars-per-pixel */
"64 60 256 2 ",
"   c #1A0736",
".  c #110431",
"X  c #230B3A",
"o  c #391B39",
"O  c #2B1236",
"+  c #3D2039",
"@  c #451B39",
"#  c #4B263B",
"$  c #572A3B",
"%  c #5D343B",
"&  c #672D3A",
"*  c #673539",
"=  c #753B37",
"-  c #79423C",
";  c #6B423C",
":  c #191143",
">  c #361A43",
",  c #2B1943",
"<  c #3D254C",
"1  c #462846",
"2  c #552C45",
"3  c #563649",
"4  c #4F344E",
"5  c #663846",
"6  c #703548",
"7  c #441A43",
"8  c #594353",
"9  c #6C4345",
"0  c #774848",
"q  c #694755",
"w  c #744C56",
"e  c #7B5758",
"r  c #735352",
"t  c #7A645C",
"y  c #7A5864",
"u  c #67576D",
"i  c #7B6565",
"p  c #706573",
"a  c #4B486A",
"s  c #8B4C3D",
"d  c #AA613E",
"f  c #8A4A49",
"g  c #974C4B",
"h  c #895749",
"j  c #98584B",
"k  c #894C51",
"l  c #885854",
"z  c #9C5B54",
"x  c #985854",
"c  c #9F4550",
"v  c #A55848",
"b  c #A35D53",
"n  c #A55B54",
"m  c #AE4F49",
"M  c #97654C",
"N  c #87675C",
"B  c #9A6557",
"V  c #997759",
"C  c #8B604C",
"Z  c #A6674A",
"A  c #BB6C4C",
"S  c #B3684D",
"D  c #BB754E",
"F  c #A46355",
"G  c #AC6453",
"H  c #A36359",
"J  c #A96957",
"K  c #B46C53",
"L  c #B96C52",
"P  c #B46753",
"I  c #A8755A",
"U  c #BB7353",
"Y  c #BC7B5B",
"T  c #B77657",
"R  c #A8704A",
"E  c #855C65",
"W  c #896664",
"Q  c #997768",
"!  c #92736A",
"~  c #A77A67",
"^  c #AC7D69",
"/  c #C57B4C",
"(  c #CA7C4C",
")  c #C4744C",
"_  c #C47B53",
"`  c #C57954",
"'  c #CD7251",
"]  c #C37561",
"[  c #883644",
"{  c #BB865C",
"}  c #BC814B",
"|  c #998871",
" . c #A88467",
".. c #B98767",
"X. c #A98673",
"o. c #B38B77",
"O. c #B89578",
"+. c #B09472",
"@. c #CC834D",
"#. c #CE884B",
"$. c #D38B4D",
"%. c #D5884A",
"&. c #DB954C",
"*. c #DA974C",
"=. c #C58454",
"-. c #CB8454",
";. c #CE8A54",
":. c #CC8C5C",
">. c #C7855B",
",. c #D38D53",
"<. c #D38A55",
"1. c #CA9359",
"2. c #D49255",
"3. c #DA9453",
"4. c #DD9B54",
"5. c #D4935A",
"6. c #D5995C",
"7. c #DB9C5A",
"8. c #D79856",
"9. c #E29D56",
"0. c #E19C4F",
"q. c #DDA35C",
"w. c #DDA357",
"e. c #DFB05C",
"r. c #E2A455",
"t. c #E2A45C",
"y. c #E5AB5C",
"u. c #E8AB59",
"i. c #EAB45C",
"p. c #E7B25D",
"a. c #EEB057",
"s. c #C58966",
"d. c #C99466",
"f. c #D69A64",
"g. c #C79A78",
"h. c #D3916D",
"j. c #E8946F",
"k. c #DCA364",
"l. c #DDAA63",
"z. c #DBA46A",
"x. c #DDAB6B",
"c. c #D6A56B",
"v. c #DFB26D",
"b. c #C9A778",
"n. c #D8A974",
"m. c #DDB678",
"M. c #C9A56A",
"N. c #E2A562",
"B. c #E3AB63",
"V. c #E2AC6B",
"C. c #EAAC63",
"Z. c #E5B265",
"A. c #EAB463",
"S. c #EBBA64",
"D. c #E3B46C",
"F. c #EAB46A",
"G. c #EBBC6B",
"H. c #E6BC6C",
"J. c #F2BB67",
"K. c #E5AB75",
"L. c #E3B473",
"P. c #E4BA74",
"I. c #E9BC74",
"U. c #E4BC7B",
"Y. c #E9BD7A",
"T. c #E7B677",
"R. c #F3B778",
"E. c #EDC26D",
"W. c #F1C46B",
"Q. c #ECC374",
"!. c #E5C17D",
"~. c #EAC37C",
"^. c #EDCA7C",
"/. c #E6C678",
"(. c #F1CB7C",
"). c #F2C874",
"_. c #F0D17C",
"`. c #59678F",
"'. c #958D85",
"]. c #B09686",
"[. c #BCAC94",
"{. c #BAAFA1",
"}. c #C79A83",
"|. c #C9A989",
" X c #D9B886",
".X c #C8B597",
"XX c #D8B997",
"oX c #CCB18C",
"OX c #E3BD82",
"+X c #E6BC84",
"@X c #EDB78D",
"#X c #C9B5A0",
"$X c #DCC389",
"%X c #D9C697",
"&X c #CCC69D",
"*X c #E5C484",
"=X c #EAC482",
"-X c #ECCB84",
";X c #E4C58C",
":X c #E4CA8C",
">X c #EBCC8B",
",X c #E7C888",
"<X c #F1CD83",
"1X c #F4CE8C",
"2X c #EDD38D",
"3X c #EED387",
"4X c #F1D58C",
"5X c #F3D687",
"6X c #E5CC93",
"7X c #EBCE92",
"8X c #E4C798",
"9X c #E5D195",
"0X c #ECD394",
"qX c #EED995",
"wX c #E6D39B",
"eX c #EAD59A",
"rX c #ECDA9C",
"tX c #E6D99D",
"yX c #F2DB95",
"uX c #F1DC9C",
"iX c #F3D695",
"pX c #F7CA9E",
"aX c #F3E19C",
"sX c #D8C5A7",
"dX c #D7CCB4",
"fX c #E6DCA3",
"gX c #EBDCA3",
"hX c #EBDEAA",
"jX c #E5D7A6",
"kX c #F5DBA8",
"lX c #E3D6B8",
"zX c #F9DEB4",
"xX c #E8C9A6",
"cX c #E6E3AC",
"vX c #EBE2AB",
"bX c #EBE2A7",
"nX c #F2E3A4",
"mX c #F6E5AB",
"MX c #EAE6B1",
"NX c #E9E8B4",
"BX c #FAE7B8",
"VX c #F6F2B6",
"CX c #D7D4C6",
"ZX c #E5DCC4",
"AX c #FFF2CB",
"SX c #E9EDDC",
"DX c #E6E9D6",
"FX c #EAF0DE",
"GX c #EEE6CA",
"HX c #EAF3E4",
"JX c #EAF6E9",
"KX c #EBF8EB",
"LX c #F1FBEA",
"PX c #EDF8F0",
"IX c #DEE8DD",
"UX c #92A3C6",
/* pixels */
"bXfXcXcXm.!.9XcXNXNXcX9X!./.:XfXbXbXm.:X9XfXbXfXfXgXbXcXMXMXfX!.D.x.D.wXNX-Xm.m.!.yXqXgXbXcXcXNXNXP.B.B.P.wXgXcXNXMXMXMXcXcXbXbX",
"D.D.v.D.x.wXNX9XU.P.Z.r.t.!.MXcX:Xm.P.*X9X%X! ~ ~ ! b.P.v.H.Z.!.9XrXtX$XM.2.w.U.fX| &XmXbXbXgX:Xx.*.D.-XgXcXNXfX*XU.P.P.P.m.P.P.",
"D.D.D.*XgX:Xm.4.*.Z.U.!.:XwX6Xm.v.D.*XOX>X+.8 K.j.B V ~.U.*XmX{.8 t B -.v r wXNXfX, N -XP.P.B.*.x.P.gXbXMXgX:Xv.*.w.D.D.D.D.P.!.",
"bXfXbX6X*Xw.w.U.:XrXMXcX6XL.w.L.>X9XgXbXNX%X0 l l 2 .XVXfXbXuX .@ k 5 2 q {.bXm.m.1 Q ).B.B.B.P.wXrXgXbX6XP.4.*.&.B.9XgXrXtXMXbX",
"bXfXm.4.*.w.Z.fXNXbX9X:XU.U.:X9XwXbXgX9X,X~.M.f 5 2 !  .M N C 0 2 5 6 t oX>Xx.U.;X4 '.VX9X2X2XwXfXbXMX6Xw.*.4.w.D.U.9XbXbXgX:XZ.",
"U.B.4.t.P.9X9X:X=X!.=X7X9XrXgXgXbX6XB.r.G. XX.5 2 2 h T I B B 0 2 1 4 Q x.Y.gXMXfX1 V <X7XwXgXhXhXgX;Xw.4.L.*X9XfXNXhX;X X7.*.w.",
"t.B.!.rXrX9X9X=X-X2X2X9X9XrXbX9XD.w.D.^.b.0 g ....B |.DXZXlX%XO.Q e 5 > 3 oX>XL.V.1 M i.,XbXbXrXP.t.*.4.t.9XbXbXgX;X7.%.&.w.!.wX",
"qXwX6X!.t.r.L.6X9X:XP.D.L.D.U.t.t.!.6X=XR h XXSXDXb..XJXHXSXxXXXg.X.X.E 7 i 9XU.!.# | mXwX:XP.t.*.*.t.V.Y.rXgX*X7.3.w.V.=X9X:XP.",
"&.&.#.&.*.*.w.w.x.l.w.4.*.*.*.9.r.7.*.t.} [.LXHXFXXXO.DXHXSXlXsXg.Q O.o.y W Q.B.P.# | (.*.*.0.4.t.D.9XbXgXwXD.*.*.P.9X>X>XwXrX9X",
"w.x.v.-XD.*X9XgXgXgX*XZ.>X9X7X*X*XB.t.rXoX|.HXFXHXdXO.ZXJXFXZXZXoX~ O.X.E I i.Z.w.2 M a.w.t.F.9X9XgXgX-XZ.4.*.w.*XwX~.I.Z.D.9X4.",
"fXgXgXrX6XjX6XL.N.4.L.rXbXgX+Xl.z.>X9XwX$Xg.SXHXFXSXg.CXHXHXZXlXXX .o.o.y { A.P.OX# M a.L.>XwXwXrXgX!.D.w.w.9.P.P.U.>X7XhX9Xw.*.",
":XU.w.7.4.*.*.4.N.;XrXgXD.4.%.3.I.=XwXhX%Xg.SXHXSXFX|.dXJXHXDXlXXX .o.o.w 2.F.L.6.$ V 1XwXwXwXgX9XU.t.9.3.*.P.9X9XwXfX6Xl.w.4.w.",
"&.%.%.*.*.4.4.P.wXbX6Xc.%.2.m.>X9XgXbX6Xl.{ ZXHXHXHXXXXXHXFXHXZXXXX.O.o.w =.9.l.l.# | mXwXwXgXwXx.*.%.%.3.4.U.wXtXgX*X4.&.*.*.w.",
"#.8.w.t.w.w.D.;XgXU.2.5.OXwXbXbXhX>X*X4.%.} XXHXHXJXsX|.HXFXHXGXXXX.O.X.q d.I.=XwX$ | mXwX9XU.3.$.%.3.N.=XwXgXbXgXm.,.,.,.2.V.wX",
"3.7.7.B.L.*XwXbX!.4.x.9XrX9X7X=XY.N.5.7.B.b.|.SXHXJXZX|.SXHXHXDXXXX.O.Q w %XgXrX6X$  .(.L.z.3.,.f.T.+X7XgXgXbX6Xz.,.,.7.B.-XgXbX",
"w.w.r.I.bXhXjXL.9.B.~.U.P.P.D.Z.5.2.,.D.^.:Xb.ZXJXHXSXoXZXJXSXlXXXo.X.! ! 6XP.L.x.$ M C.B.7.5.V.~.-X-X>X9XrXm.&.%.w.Z.Z.Q.-XrXwX",
"4.B.>XgX6Xc.$.%.3.4.4.9.t.B.w.2.-.,.7.t.*XwXb.XXSXJXJXoXdXJX'.N XXO.o.! W 2.%.$.;.$ V J.7.7.l.F.G.Q.~.>X>Xl.,.$.2.7.7.G.~.wXwX6.",
"4XgXhXm.%.2.7.l.l.N.D.Y.>X;X7.;.;.V.L.Y.gXfXb. .|.SXJXsXlXCX- 2 X.].o.W h D f. X;X$ | 4XB.w.B.G.Y.7XwXgXT.$.( $.5.7.L.9XbXhXx.#.",
"1XL.6.2.7.Z.Q.Q.-X>X9XrX=XL.5.x.U.>XrXbXbXO.g [ k dXJXDXlXdX- h W }.o.w  .wXbXNXgX% ! C.5.V.>X7XhXhX;Xz.5.2.V.7XwXrXgXhX:XB.4.4.",
",.@.#.7.f.B.Z.>XgXbXwXn.-.( 5.V.rXbXMX6Xs.] @Xm [ [.JXHXlXXX5 0 Q }.o.q [.mXcXgXL.* C 3.,.I.wXgXrXx.5.,.5.B.I.~.I.-XwX~.t.4.7.V.",
"-.f.D.~.*X>XwXgXwXx.:.) _ 5.I.gXbXwXx.@.s.kXBXs.L ].JXHXlXn.; 5 Q O.^ 5 [.mX6Xz.,.* h N.U.>X9X9Xz.,.-.` -.4.F.-X=X9X>Xw.2.-.@.$.",
"!.2X9X2X2X9X>Xz.$.( ) ;.V.>XqXrXP.2.%.2.d.pXBX@Xv .XHXJXZXd.; o W O.W i fXjX5.( -.* V (.~.Y.~.P.l.5.-._ 2.B.I.!.rXfXf.-.U ( 7.t.",
"gXrX9XU.U.f.@.@.2.6.8.A.nXmX>Xx.-.( -.B.6.xXzXJ 2 oXsXDXFXo.d > y o.w ! 7Xf.;.;.2.* V ).Y.=X>X=Xx.-._ 5.N.>X>XrXwXd.) _ f.I.).E.",
";Xf.6.-.( @.-.3.r.r.C.uX9Xz.:.( -.5.N.F.w.8XpXh.p N ~ Q Q e # X 4 W 4 e 9.$.-.5.D.; V 1XwXrX,Xf._ -.L.I.-X9XNXwX:.) ( 7.G.G.Q.^.",
"D / =.5.2.3.3.t.I.>XwX;X2.#.%.7.w.Z.A.F.;XxXpX}.u o % * = # 1 5 o 1 X l I I V.I.E.; | mX6Xx.2.;.l.B.G.I.9XbX;X,._ :.B.~.~.Q.3X9X",
"=.x.x.t.t.D.I.>XrXbX>X7.3.3.4.B.=X=X>XhX:X Xj.l : o & * - = # % $ # > w 1 4 b.-X>X0 '.uX5.@.2.B.V.t.B.qXmX:X2.@.%.t.Q.Q.=XwX6X:.",
"t.t.t.F.7X9XrXgXgX9Xl.,.l.=X>XwXbXhXwX!.W k m $ o , @ & & = - * $ 1 O 1 2   u uXwX0 ! w.;.-.,.2.V.Y.qXmXOX%.%.B.).4XuXuXbX6X-.) ",
"p.t.Q.yXaXaXaX>X~.z.5.L.4XnXnXgX;Xz.5.E O $ z j 0 < q W i i y y y 1   3 5 6 5 |.7X5 h -.L ,.9.B.V.V.V.L.5.l.OX,X7X;XOXOX X-.A L ",
"D.,X7X Xn.m.n.5.,.( f.L.x.c.:.;.%.7.d.f d / =.d.X.w X.wXlXZXGXxXQ 3 1 q 5 ] j.c z 2 w ' -.*.Z.L.5.7.I.Y.;Xg.T -.;.-.@.@./ ) U D ",
"l.d.>.U A ) ) -.;.;.( / _ @.@.f.Y.>Xm.g.n.|.lXDXXXw ].DXJXJXHX].3 E E w 0 h 1XR.m # w =.u.r.D.V.>XnXgXwXd.>.f.B.t.S.^.2Xx.( ;.4.",
"4.4.t.D.I.-X-XG.r.8.5.3.r.L.Y.>X2X>X7.sXPXHXJXHX%Xw ].HXJXFX].0 W oXE e ^ 6 ~ @Xc ) ' F m.~.>XgXmX6Xd.L L 5.F.I.I.-X9X=X7.7.p.u.",
"p.S.~.bXgX Xf.-._ f.f.V.2XgX9X2X-X-X~.sXFXHXHXHXxXl [.HXLX{.0 B dXlXW y ^ Q  .] ' @XK.n %XmXmXwXc.L L U w.D.=XwXwX9X>XY.*XH.p.t.",
"~.9XbX X_ A D -.f.~.U.yXyX9X1X<XyXgXgXn.dXJXHXJX%XO.sXLXdXl B .XSXlXW y Q T -.s.@XK.j.G wXnX;X` S L ( f.~.9XrX9XyXuXuX XU _ 7.Z.",
"3X2Xc.L S -.w.t.-XyX9X>X-X9XrXuX>Xc.>.U T CXJXJXXXsXLXCXN z T oXJXZX! y ~ -.w.m. Xl X.%X9Xd.L S U 3.t.Y.uXqX4XyX2Xc.Y G T ,.Z.9X",
"9X:.L L _ r.u.Q.2X2X-X-XrXrXV.6.( ) ) -.( |.PXHXXXDXHX! M s.n...CXGXQ q { A.A.<X4X% | V.K b L ,.9.i.V.-XuX4X4X X>.L G T ;.B.1X2X",
";.L G L 3.u.Q.-X-X-X2XrX:Xf._ U L U w.r.B.$XIXJXDXJXX.j ..8XpX-.|.ZX! N J.S.E.3X^.9 w L n U 4.a.A.~.uXuXuX2Xd.P G L ) 7.A.F.I.S.",
"L L =.7.F.~.>X-X>X4XqXx._ P L _ ,.w.u.I.9XgX%XSXPX.XZ F @XzXzX:.I .Xy  .W.Q.gXn.Y % 0 $.4.a.i.*X6XgXmXnXc.T G G U #.4.r.C.I.G.A.",
"_ 2.F.rXwXrXwX9XbXwXd.L G U 3.t.I.Y.7XgXbXqXf.O.O.^ G  XBXpXK.) 6 u X.qXgXwXg.L P % C ;.e b.gXhXgXMX;Xs.L G U ;.4.C.-X>XwXbX^.G.",
"l.>X9XgXgXuXuXOXf.-.S G -.w.t.~.>X9X9X9Xm.6.$.=.I I w oXpXj.S 2 < '.mX;Xs.Y Z ` ,.% N O.1 q uXgXwXc./ U L =.5.t.Y.9XgXgXmX;X5.-.",
"G.~.^.^.~.f.:.-.A A A -.t.V.>X9X>X-X^.f.U L P ( M.! > > ] v & . : p g._ A L @.9.8.9 i +.4 N yXU.5.( A U -.9.9.U.2X<X2X2XY.,.) S ",
"G.Q.Q.l.:.) A L U -.l.B.L.rXrXyXuX~.s.G L K ( { 8 X   . 0 g.XXoX4 . 8 8 I ,.t.I.$XB - % N 2XQ.w.-.) L _ 3.C.Y.>X-X-X9X3X5.L L A ",
"Z.l.s.U U U -.,.7.u.F.~.9XrXaX:Xc.Y G n ) ( B 4 X X . i hXBX@XkXBXw . : l 7.G.Q.<X$XO.+.:XY.-._ U L U f.+XqX4X<X-X4XU.d.L L L ( ",
"Z.I.L.x.l.w.t.F.~.-X-X4XyXrXn.U n b G g.n.T.q X X   l BXBXzXkX@XzXzX5   3 e <X>XwXnXnXaXc.L P G T f.f.yXuXqX-X<X(.D._ L G G ) t.",
"2XXXd.:.,.3.t.-XqX9X9XyXyXb.b b Y d.XXwXyXoX1 O z L g.zXdXzXAX@XxXzX` . X i nXgXrXuX9Xd.n b L 5.D.d.T ..wXyX3XP.{ L G b T 5.Z.i.",
"s.F G G ,.G.Q.(.<X(.).L.s.H H =.i.G.Q.G.3XV o 5 ' f 9 AXUXa BXBXIXa j   ,  XyX4XaXU.Y G G ) *.F.rXT.K g.nX5Xd.G b b L ;.r.i.i.S.",
"z J Y 6.u.Z.D.B.x.f.>.U G G / 0.u.I.~.9XrXM s $ 6 1 # }.`., zXzX{.: & . u 2X4X2Xc.U G U @.*.C.gXwXuXuXaX:X..b j G D &.t.D.G.^.4X",
"G :.t.u.4.2.@.2.4.=.L _ -.@.4.F.wXgXgXrXrX+.f = $ # o j 9 5 }.AXx 5 &   < d.f...L L _ %.9.I.qXmXwX9X2X_.T j H U @.*.w.P.V.V.>X-X",
"w.A.F.=X-X-X-X~.f.@.%.3.9.V.7XbXbXaXyX4XyX$XF = = z @ 1 l e .XBX^ $ #   > 9 l U 5.%.0.L.wXgXnXuXyX3X).).H.D.w.%.;.x.G.Q.).F.Q._.",
"Z.G.-X3X-Xm.c.Y P U 2.f.9XmXnXaXqX:X:X*X*Xn.I j s M f O Q BXAXg.& # > o o 1 B ) %.l.9XuXyX4X4X>X*Xm.x.c.l.d.H L 7.G.Q.).Q.^._.c.",
"Z.G.^.v.K b b L @.3.V.9XaXuX9X,Xx.D G G H z  .d.R h R = o  .g.o # + $ @ 1 { 9.N.=XyXyXyX2XU.6.U z z z z z z G f.S.E.E.Q.Q.).f.j ",
"Z.G.d.b b F :.t.L.>XqXyXyX*XG F B H H H H H ^ g.D R Z / * o # = s - %   N yXwXuXyX2X4X3X..j B B H H G $.%.4.A.S.W.E.E.Q.Q.1.b z ",
"e.{ x F U 4.D.m.qX3X3X4Xn.F F H H F J G _ 3.%.d.Y Z Z v $ o M D R 0 @ , i $XyX4X3X3X!.J z z H L ) ,.,.4.*.r.t.A.G.).(.n.J b j L ",
"I j F @.r.^.yX*X-X3X^.d.F z B G Y z.7.*.*.9.F.!.X.Y v # $ 0 h Z 0 # 1 '.:X2X4X4X3Xx.F j z L 5.L.I.r.9.r.r.t.F.E.G.s.H j F ..:.%.",
"j R 7.~.^.3X<X3X_.L.Y b B z L 5.A.E.w.t.-XQ.D.z.s.I B h j v s * $ q M.G.G.G.G.f.K b x z S ,.(.<XN.r.i.x.J x.B.7.3.( ;.x.L.z.T _ ",
"A / 3.l.l.7.7.d.Y b x B F K t.S.u.i.=Xm.o.H L ( $.f.H.M.{ Z M j l B ) U _ U L b j j z A 7.).S.u.A.P...z L ,.*.%.t.W.E.b.H g L C.",
"&.4.,.@.( ) L b j G U A -.p.i.t.S.c.~ j g D %.4.G.W.i.p.T z z G =.( ( -.5.f.:.-.' ) ' V.E.i.S.D.d.z k U %.%.t.u.a.S.I k n ( N.W.",
"w.t.t.2.G b G G S ( %.t.G.S.i.u.T x j b ( *.w.G.E.A.8.Z k Z @.%.9.t.G.W.C.9.2.@.( %.u.).i.i.x.F g j L $.*.A.G.i.4.G k U 3.9.A.i.",
"r.p.q.Z z G ( %.9.t.I.uX4X).1.T l z G ) %.B.Q.E.S.A.U j L #.4.t.G.(.Q.t.( _ -.l.N.A.).W.a.w.x k b S %.B.G.).i.8.R k L %.*.r.a.i.",
"w.2.B g Z @.2.l.2XuXyX4X~.d.k k b / #.%.*.S.G.E.E.:.j z _ B.W.W.W.G.A.t.,.7.F.).).).E.G.t.I k L ' ,.u.W.P. Xd.z j / %.*.9.t.S.i.",
"} b j L $.4.P.yX2X3X~.m.D x x G ( %.t.A.).G.H.D.d.z x L f.).G.E.G.S.w.=.L 5.G.A.A.A.A.x.H x L $.3.p.S.W.d.B l k / $.3.G.Q.Q.Z.;."
};
