/* XPM */
static char *moise_idle_2[] = {
/* columns rows colors chars-per-pixel */
"64 60 256 2 ",
"   c #160437",
".  c #24093B",
"X  c #381536",
"o  c #431A38",
"O  c #52263D",
"+  c #69353E",
"@  c #76353A",
"#  c #612B38",
"$  c #160945",
"%  c #291545",
"&  c #381B48",
"*  c #291047",
"=  c #3B2457",
"-  c #471C46",
";  c #492647",
":  c #592B46",
">  c #5A3347",
",  c #583755",
"<  c #4B2B52",
"1  c #682D44",
"2  c #683745",
"3  c #743946",
"4  c #70354F",
"5  c #653B60",
"6  c #784847",
"7  c #7B514C",
"8  c #684659",
"9  c #764755",
"0  c #785353",
"q  c #7B615F",
"w  c #544B6E",
"e  c #775766",
"r  c #70556B",
"t  c #5E435A",
"y  c #843D37",
"u  c #8F473C",
"i  c #893A4B",
"p  c #884A48",
"a  c #97574C",
"s  c #8B4C53",
"d  c #8A5556",
"f  c #9C5B54",
"g  c #985854",
"h  c #91504B",
"j  c #A7594D",
"k  c #A35C53",
"l  c #A45A56",
"z  c #B55351",
"x  c #8B6456",
"c  c #996457",
"v  c #94694F",
"b  c #A7674D",
"n  c #B3654D",
"m  c #BB6C4C",
"M  c #B46A4B",
"N  c #BA734D",
"B  c #A46354",
"V  c #AD6453",
"C  c #AC6953",
"Z  c #A36359",
"A  c #AA695A",
"S  c #B46C53",
"D  c #B96C53",
"F  c #B46757",
"G  c #A97659",
"H  c #BB7354",
"J  c #BA7857",
"K  c #A67046",
"L  c #855965",
"P  c #8B5E72",
"I  c #886668",
"U  c #986B6A",
"Y  c #967666",
"T  c #896673",
"R  c #987773",
"E  c #917072",
"W  c #A97A73",
"Q  c #AC7565",
"!  c #C65550",
"~  c #C57B4C",
"^  c #CB7C4C",
"/  c #C3754C",
"(  c #C47B54",
")  c #C47954",
"_  c #CB6F53",
"`  c #DC7866",
"'  c #B98157",
"]  c #BD9256",
"[  c #9D866D",
"{  c #9B8B79",
"}  c #BA8566",
"|  c #B68979",
" . c #B18D72",
".. c #BFA279",
"X. c #CC834D",
"o. c #CD884B",
"O. c #D2854D",
"+. c #D48B4D",
"@. c #D78A48",
"#. c #DB954D",
"$. c #DA964C",
"%. c #CB8454",
"&. c #CD8B54",
"*. c #CC8C5C",
"=. c #C78559",
"-. c #D28553",
";. c #D38D53",
":. c #D58C5A",
">. c #CB955B",
",. c #D49254",
"<. c #DA9453",
"1. c #DD9B54",
"2. c #D4935A",
"3. c #D5995C",
"4. c #DB9C5B",
"5. c #D89757",
"6. c #E19E56",
"7. c #E79550",
"8. c #DDA35C",
"9. c #DEA457",
"0. c #DFA852",
"q. c #E2A355",
"w. c #E2A45C",
"e. c #E4AB5C",
"r. c #E8AB59",
"t. c #EAB45C",
"y. c #E7B25D",
"u. c #ECAF57",
"i. c #C58A67",
"p. c #D98769",
"a. c #C99567",
"s. c #D69B65",
"d. c #C89977",
"f. c #D69B77",
"g. c #C48D75",
"h. c #E49569",
"j. c #DCA363",
"k. c #DDAA64",
"l. c #DBA46A",
"z. c #DAA86B",
"x. c #DEB26B",
"c. c #C9A275",
"v. c #DBAD73",
"b. c #D7A775",
"n. c #DDB678",
"m. c #E3AC63",
"M. c #E2AC6B",
"N. c #E4A863",
"B. c #E5B365",
"V. c #EAB463",
"C. c #ECBA64",
"Z. c #E3B46C",
"A. c #E9B46B",
"S. c #ECBC6B",
"D. c #E6BA6A",
"F. c #E3AC73",
"G. c #E3B473",
"H. c #E4BA74",
"J. c #EABC73",
"K. c #E4BC7B",
"L. c #E9BE7A",
"P. c #E5B579",
"I. c #F6B06D",
"U. c #EDC26C",
"Y. c #F2C56B",
"T. c #ECC373",
"R. c #E5C17D",
"E. c #EAC47C",
"W. c #EECA7C",
"Q. c #E6C678",
"!. c #F2CA77",
"~. c #F3D17A",
"^. c #6D6A8A",
"/. c #907B84",
"(. c #B39383",
"). c #A99B90",
"_. c #C79A86",
"`. c #C19998",
"'. c #CCA688",
"]. c #D5A889",
"[. c #DCB686",
"{. c #CAB598",
"}. c #D4B395",
"|. c #E3BD82",
" X c #E7B786",
".X c #FBB988",
"XX c #EAB490",
"oX c #D5BAA8",
"OX c #E09C84",
"+X c #D7C595",
"@X c #E5C384",
"#X c #EAC582",
"$X c #ECCB84",
"%X c #E4C58B",
"&X c #E5CA8C",
"*X c #EBCC8B",
"=X c #E8C887",
"-X c #F0CD82",
";X c #F6CA8C",
":X c #EDD38D",
">X c #EED288",
",X c #F1D58D",
"<X c #F3D686",
"1X c #E5CC93",
"2X c #EACE93",
"3X c #E6C799",
"4X c #E6D194",
"5X c #ECD394",
"6X c #EED995",
"7X c #E5D49B",
"8X c #EAD59A",
"9X c #ECDA9C",
"0X c #F2DB95",
"qX c #F1DC9C",
"wX c #F4D695",
"eX c #FBC19B",
"rX c #F5E29B",
"tX c #EDE09D",
"yX c #D4C9B3",
"uX c #E9C8A7",
"iX c #E7DCA3",
"pX c #EBDCA4",
"aX c #EADEAA",
"sX c #E7D7A4",
"dX c #F1DEA2",
"fX c #F9D4A9",
"gX c #E9D6B4",
"hX c #F6D8B5",
"jX c #F4CCA4",
"kX c #E6E2AC",
"lX c #EBE2AB",
"zX c #EBE2A6",
"xX c #F1E2A4",
"cX c #F5E6A9",
"vX c #EAE6B2",
"bX c #E8E8B4",
"nX c #FBE6B8",
"mX c #FFF0B5",
"MX c #EAD9C7",
"NX c #FBE9CA",
"BX c #FFFBC7",
"VX c #FFFDCA",
"CX c #FFF3C8",
"ZX c #FBEBD6",
"AX c #FEFED3",
"SX c #FFFDDB",
"DX c #FEF2DA",
"FX c #EDE5D3",
"GX c #FFFEE3",
"HX c #FEF6E8",
"JX c #FFFEF4",
"KX c #FFFFFE",
"LX c #F4FAFE",
"PX c #EEEEE7",
"IX c #DFD6D0",
"UX c #A5AECF",
/* pixels */
"zXiXkXkXn.R.4XkXbXbXkX4XQ.Q.&XiXzXkXn.&X4XiXkXaXiXiXiXzXbXbXiXK.x.k.x.4XvX=Xn.n.R.&X4XpXxXkXkXbXvXH.m.m.H.8XpXzXvXvXvXvXkXkXzXzX",
"Z.Z.x.Z.k.4XbX4XK.H.B.q.e.R.vXkX&Xn.H.@X4X4X@X4XbXiX&XG.Z.H.B.K.4XiXpX&XZ.9.9.K.aXzXbXbXzXzXpX&Xz.$.Z.*XaXzXbXiX@XK.H.H.H.n.H.H.",
"Z.Z.Z.@XpX1Xn.1.$.B.K.R.&X4X1X[.x.Z.R.@X@X&X&X&XR.H.H.H.K.%XaXvX4X@Xk.1.m.H.8XbXkX&Xn.K.H.H.m.$.m.H.pXzXvXpX&Xx.$.9.Z.Z.Z.Z.H.R.",
"zXiXzX1X@X9.9.K.&X9XvXkX1XG.9.G.*X4XpXzXbX4X@Xm.m.&XzXbX4XiX1XH.q.m.K.=XpXbXaXn.K.K.G.G.m.m.m.H.4X9XiXzX1XH.1.$.$.m.4XpX9X7XbXzX",
"zXiXn.1.$.9.B.iXbXzX4X&XK.K.&X8X8XzXpX4X=XH.Z.@XaXbXsX%XR.#XJ.G.K.4XkXkX9X@Xn.G.*XzXzXxX4X:X4X8XiXzXvX1X9.$.1.9.Z.K.4XzXzXiX&XB.",
"K.m.1.w.H.4X4X&X#XR.#X2X4X9XaXpXzX1Xm.q.B.&XiXvXkX4Xn.&XkXxX{.Q } J J d.c.K.9XzXpX&XK.E.2X8XsXaXaXpX%X9.1.G.@X4XiXbXaX%X[.4.$.9.",
"w.m.R.9X9X4X4X#X=X:X:X4X4X9XzX4XZ.9.Z.R.&X=XE.G.n.@XzXzXzX+Xr # @ u m n f } c.n.Z.q.e.e.=XzXaX9XH.w.$.1.e.4XzXzXpX%X3.@.$.9.R.8X",
"6X4X1XR.e.q.G.1X4X&XH.Z.G.Z.K.w.e.R.1XK.9.B.=X8XiXpXaX7X).< : h N B p : O n p. .R.=X9XpXsX&XH.w.$.$.w.M.P.9XpX@X4.<.9.M.#X4X&XH.",
"$.$.o.$.$.$.9.9.k.k.9.1.$.$.$.6.q.4.$.1.e.9.K.8X4XpX+XT & o p J -.A o + n N H p.].4X8XH.$.$.1.1.w.Z.4XzXpX4Xx.$.1.H.4X*X*X4X9X4X",
"9.k.x.=XZ.@X4XpXpXpX@XB.*X4X2X@X|.m.m.8XpXiX&XH.=X&Xy.d . 2 p a p : X 6 7.N J -. Xv.q.q.q.e.A.4X4XpXpX=XB.1.$.9.@X8XR.J.B.Z.4X1.",
"iXpXpX9X1XsX1XG.N.1.G.9XzXpX|.k.l.*X4X4X8X4X4X9XK.w.' < ; : ; O o ].d.o u ) b J F.b.9.q.H.*X8X8X9XpXR.Z.9.q.1.H.H.K.*X2XaX4X9.$.",
"&XK.9.4.1.$.$.1.N.%X9XpXM.1.@.<.J.#X8XpXpX@XZ.k.<.G < & - & : 3 [.GXAX .X g G a b } n.#X8X8X8X9X4XK.w.6.<.$.H.4X4X4XpX1Xk.9.1.9.",
"$.+.+.$.$.1.1.H.8XzX1Xj.@.,.n.*X4XpXzX1Xk.$.+.;.6.G 0 ; . ; 1 g.AXyXI U : o V u y J 4XpX9X8XpX8Xv.$.+.+.<.1.K.8X7XpX@X1.$.$.$.w.",
"o.5.9.w.9.9.Z.%XpXK.,.2.|.8XzXzXaX*X@X1.@.,.4.M.P.#X}.< . 3 3 A SX{.6 7 j ; O + u f '.pX8X4XK.<.@.+.<.N.#X8XpXzXpXn.;.;.;.,.M.8X",
"<.4.4.N.G.@X8XzXR.1.z.4X9X4X4X#XP.N.2.4.m.|.4XpXpXvXaXr   3 $ yXVXVX% ^.].: ; i 2 h V R.G.l.:.;.s.P. X2X9XpXzX1Xl.;.;.4.m.=XpXxX",
"9.q.w.J.zXaXsXG.6.m.E.K.H.H.Z.B.2.,.;.Z.W.:X9XpX8XK.a.& . l w PXVXAXw UXGX7 j ` 4 - V w.m.4.2.M.E.=X=X*X4X9Xn.$.+.9.B.B.T.=X9X4X",
"1.B.*XpX1Xs.-.+.<.1.1.6.e.m.e.,.%.;.4.9.@X4X4X|.s.;.0 *   p.AXhXfXSXAXFXVXF.` F * < a.V.4.4.k.A.D.T.E.*X*Xk.;.@.,.4.4.D.E.8X4X>.",
",XpXaXn.+.,.4.k.k.N.Z.K.*X&X4.&.&.M.G.E.xXzXn.;.%.4.q t   9 VXCXjXNXVXAXBXY . * . e xX@XM.9.m.D.E.*X8XpXP.-.^ @.2.4.Z.4XzXaXv.X.",
">XG.3.,.4.B.T.T.=X*X4X9X=XG.3.k.P.*XdX+X(...X.;.Z.#X1XR $   e VXnXfXSXBXE   . . , [ @Xs.4.M.*X2XaXaX%Xl.*.,.F.1X8X9XpXaX*Xm.1.1.",
";.X.o.4.4.m.B.*XpXzX8Xl.%.~ *.F.9XzXaXI # @ b n.qX8XcX+X8 8   , oXgX].d   $ * t c.6.;.&.:.T.8XpX9Xv.;.;.2.m.J.E.J.=X8XE.w.1.4.M.",
"%.s.Z.P.@X*X8XpX8Xv.*./ ) 2.J.pXzX8Xx ; [ q 7 %X8X2X|.s.;.J r $   @ ! p.- & /.d.<.%.~ s.P.*X4X4Xl.;.&.( &.1.G.=X#X9X*X9.,.%.X.@.",
"R.:X4X:X:X4X*Xl.@.^ / &.F.*X4X9XH.,.2 <  .I + 5.3.;.^ X.2.M.{ = > _ I.mX3Xd g.Q ) ;.M.E.E.P.E.H.l.2.%.) <.m.J.R.9XiXs.%.H ~ 4.w.",
"pX9X4X|.K.s.X.X.,.3.5.V.xXcX*Xv.%.%.N q >.x 3 1.s.b.n.2X%X).r i p.;XnXAX2X( a.].].9.T.A.P.#X*X#Xz.&.) 2.N.*X=X8X4Xa./ J s.J.!.T.",
"%Xs.3.%.^ X.%.<.q.q.V.qX4Xl.*.) &.3.N.m.C.Y 6 =XpXvXvX8XY T uXi.h.BXVXjXJ ) uXKXKX[.H.#X8X9X&Xs.) &.G.J.-X4XvX3X*./ ~ 4.D.D.T.W.",
"J ~ %.,.,.<.<.w.J.*X9X%X,.+.;.4.N.B.V.Z.6X{ 0 cXvX4Xs.,.I W DXXXh.nXnXf.B (.KXHXKXPX%XcX1Xz.,.&.k.m.D.J.4XzX%X;.) *.m.E.E.T.>X4X",
"%.k.k.w.w.Z.J.*X9XxX*X4.<.$.1.m.#X#X*XaX0XE 2 :Xv.*.@.' e | HXFXf..Xf.V [ LXHXhXKXKXgX%X4.X.,.m.M.w.m.6XcX&X,.X.+.e.T.T.#X8X1X*.",
"e.e.e.A.2X4X9XpXpX4Xk.;.k.#X*X8XzXaXsXK.n. .c s.) ) -.| T W DXKXuX&.V U PXKXgXfXKXKXPX*.o.%.;.2.M.P.6XcX|.+.+.m.T.,XqXqXzX1X%./ ",
"y.e.T.0XrXrXtX*XE.l.*.G.,XxXxXpX%Xl.3.s.D I..XfXi.) i.(.T W NXJXuXQ c IXKXMX].hXKXKXKXIXn ;.6.m.M.F.F.G.2.k.|.=X2X%X|.|.[.%.m M ",
"Z.=X2X[.v.n.b.2.;.~ s.G.v.b.*.&.+.<.M.c._ .XwX` p. .| (.T U NXNXG d oXKXKXoXE nXKXKXKXKXd.$.Z.G.2.4.J.P.%Xd.J &.&.%.X.X.~ N H N ",
"k.a.=.H m / ) %.&.&.~ ~ ~ X.%.s.P.=XP.>.F 7.:.z wX} s g.T U 3XR d {.JXKXKX{.L hXKXKXKXKXgX$.A.F.*XxXdX3Xa.=.s.m.y.D.W.:Xk.^ &.1.",
"1.1.w.Z.J.=X=XD.q.5.2.<.q.Z.P.:X:X*Xk.k.[.L ; ! ;XcXf d L U E 4 {.KXKXKXJX{.d hXJXNXXX X XH.*XdXcX1Xa.D D *.A.J.J.=X4X#X4.4.e.q.",
"y.D.E.zXsX[.s.&.) s.s.M.:XdX4X:X=X=XP.pXcXE : F z I.p.4 0 < 5 | NXGXDXNXnX(.L _.v.4.<./ a +XcX8Xb.D D H 9.Z.#X8X9X8X*XP.@XH.y.e.",
"E.4XxX[.~ m N %.4.E.K.0X0X4X,X-X0XdXpX[.*.d 3 B.c.9 i 9 8   , T T T E E E 8 < s C F 1 * /.xX%X( n D ~ s.E.4X9X4X0XqXqX[.H ) 4.B.",
">X:Xb.D n %.9.w.=X0X4X*X=X:XqXqX*Xz.=.H &.p 6 #X0Xr * > < * ; + 3 p y @ @ : & & 1 z l R 4Xa.D n H <.w.E.qX6X,X0X:Xb.J V H ;.V.4X",
"4X*.D D ) q.y.T.:X:X=X=X9X9XM.3.~ / ) ) *.x 7 4XqX{.w < e & ; : 2 : y p 3 3 ; % f .X3Xa.D k D ;.6.y.F.=XqX,X,X[.=.M C N &.m.>X:X",
"&.D C D <.y.T.=X=X=X:X9X&Xs.) H D H 9.q.C.[ 6 6X*XW. .A d * ; & 2 ; # p 3 2 X ^.XXnXuXj C ) 1.u.y.E.9X9XqX:Xa.n C D ) 4.V.A.J.D.",
"V D %.4.A.E.*X=X*X,X6Xv.~ n D ) ;.q.q.H.rX{ 6 l.} A J *.0 , U 5 * : I (.| | A ^.OXnXuXN 1.u.y.@X1XpXcXxXb.J C C H o.1.q.y.J.D.V.",
") ,.A.qX8X9X8X4XzX4Xa.D C H ,.e.J.E.2XpXcX{ + H H 2.k.t.x T _.P & n f.JXHXnX3X, J VXnXs.J.*XdXaXpXvX%Xi.D C H &.1.m.=X2X8XzXW.D.",
"k.*X4XpXdXqXqX|.s.&.n C %.9.e.E.*X6X4X4XP.v + ;.3.m.B.x.I R '.W - 6 F.HXKXKXyXz fXAXnX[.8XqXqXdX8Xz.~ H D %.4.w.P.8XdXdXcX%X2.X.",
"D.E.W.W.E.s.*.) m m D %.w.M.*X4X*X-XW.s.) 7 + ) m.V.W.'.e | ].W 6 6 .XZXKXKX`._ h.AXCXb.=X6X6XP.2.^ m H %.6.6.K.:X-X:X:XP.;./ n ",
"D.T.T.k.*.) m D H %.k.m.G.9X9X0XqXE.i.C D 7 2 ;.B.#XwX..e _.}.| g 6 jXDXKXKXoXi ! eXf.b.,X,XJ.9.%.) D ) <.V.P.*X=X=X4X>X2.D D m ",
"B.k.i.H H H ~ ;.4.y.A.E.4X9XrX&Xz.J C j ^ p + V.=X:X-X .L ].}.R a h IXZXHXKXFXg h z d.9X0XP.%.) H D H s. X6X,X-X=X:XK.a.D D D ^ ",
"B.J.G.z.k.9.e.A.E.=X=X,X0X9Xb.H j k F d.P.Y 2 *X0X,Xn.Y W '.}._.2 p IXNXhXKXKX3Xd.[.tXqXf.J n C J s.s.0XqX6X=X-XW.Z.) D C C ) e.",
":X}.a.*.;.<.y.=X6X4X:X0X0Xc.k l J g.}.8XrX{ 1 E.W.v.} U W _.'.jXU ).KXNXjXKXKXJXfX[.4Xs.j k D 2.Z.i.J } 3X0X-XH.' D F l N 2.B.C.",
"i.B C C ;.D.T.W.-XW.T.G.g.Z Z %.y.D.T.A.<X[ : D.k.D F E W _._.fXZXKXKXDXuXKXKXKXHXb.J n C / $.A.9XP.S d.xX<Xa.C k k D &.q.y.y.D.",
"f A J 3.y.B.Z.m.k.s.=.H F F ~ q.y.J.E.*XcX[ # *.S l B L (.'._.hXJXKXKXKX3XDXKXKXKXXXb H X.$.V.pX8XqXqXrX&X} k g C N $.e.Z.D.W.,X",
"V *.e.y.1.,.X.,.1.%.D ) %.X.1.G.8XpXpX9XcXY O k C ) J e _.].d.hXHXKXKXKXXXMXKXKXKXfXJ @.w.J.6XcX8X4X:X~.J a A H X.$.q.H.M.M.*X=X",
"9.V.A.#X=X=X=XE.s.X.+.<.6.F.2XzXxXrX0X,XrX[ : z.>.X.N e _.]._.fXSXKXKXKXgXuXKXKXKXHXs.v.9XdXdXqX0X-XY.Y.H.B.9.+.&.k.D.T.T.A.T.~.",
"B.D.=X,X=Xn.z.J n H ,.s.4XzXxXrX6X1X&X@X-XY : a.Q ) ) L _.'.| fXCXHXKXKXFXXXKXKXKXJX[.4X0X,X:X*X@Xn.z.j.j.a.Z D 4.D.T.Y.T.W.~.z.",
"B.D.W.x.S k k D X.<.M.4XrXqX4X=Xk.J V B F 8 : f J w.a.T _.'.| fXDXHXKXKXZXXXJXKXKXKX[.@X,XK.3.H f f f f f f F s.D.U.U.T.T.Y.s.a ",
"B.D.a.k k B *.w.G.*X0X0X0X@XV B Z Z Z Z A 0 : 5.w.S. .E _.'.| uXDXDXKXKXHX].FXKXKXKXXXn.i.g c c Z Z F -.+.1.V.D.Y.U.U.T.T.>.k f ",
"e.' g B N 1.Z.n.6X-X-X,Xb.B B Z Z B A B -.v : q.D.~.Y P _.].| [.hXNXKXKXHX[.uXKXKXKXoXa k f Z n ) ;.;.1.$.q.y.D.D.!.W.b.A l g M ",
"G h B X.q.W.0X=X=X-XW.a.B c c C J l.4.@.7.v > P.=X~.q < U (.(.[.fXnXKXKXKXuX|.JXKXuXA p B M *.G.J.q.1.q.q.q.V.U.D.i.Z g B } *.@.",
"h C 4.E.W.-X-X-X~.G.J j c f D 3.V.D.9.e.<XY : l.s.( G , & 4 L | ].hXZXHXHXoXQ f.f.C 6 h M :.-X-XN.q.y.z.A v.m.4.<.^ %.z.G.l.J ) ",
"m ~ <.k.k.4.4.a.J k d c B J e.t.e.y.#Xn. .0 : ~ -.s.T.V.G > < 1 d A J i.a.A 4 2 4 p h m s.T.D.q.V.H.} f D ;.$.@.w.Y.U.c.A a m V.",
"$.1.;.X.^ / D k g V H m %.y.y.e.D.z.Q a j p > 1.D.U.C.] 7 s 3 1 6 d a b G v 1 4 g M ^ m.U.V.D.Z.a.f s H +.@.w.y.C.V.G s k ~ N.Y.",
"0.e.q.,.C k C C n ^ @.w.D.D.y.q.J g d k @.v < D.U.D.' 4 1 4 l : K t.D.U.V.' 1 c c p 9.Y.y.y.9.B h d D -.$.V.D.y.1.V s H :.6.V.t.",
"q.y.8.b f V ^ @.6.w.J.qX,X!.*.N d f C / #.v & H.U.y.6 j :.f 6 > a.~.T.w.-.p W .X.X8 ] Y.t.9.g p k n +.m.S.Y.t.5.b p M @.$.q.u.y.",
"9.,.c h b X.,.k.:XqX0X,XE.i.s s k ~ o.@.q.>.G D.U.*.p p M m.U.U.Y.D.V.w.<.' v J N v x.U.e.G s D ^ ;.y.Y.H.[.a.f h ~ +.<.6.y.D.y.",
"' k g M @.1.H.0X:X>XE.n.J d g C ^ +.e.V.Y.D.Y.Z.a.f g D s.T.D.D.D.D.9.%.D 2.C.B.B.D.D.k.Z d D -.<.y.D.U.a.c d p ~ @.<.D.T.T.B.&."
};
