/* XPM */
static char *player_move_1[] = {
/* columns rows colors chars-per-pixel */
"63 64 222 2 ",
"   c None",
".  c #1C0648",
"X  c #260B46",
"o  c #2C154B",
"O  c #371549",
"+  c #291453",
"@  c #391F57",
"#  c #3D244D",
"$  c #3C2253",
"%  c #3A295B",
"&  c #3F2F6D",
"*  c #411742",
"=  c #441C4C",
"-  c #4D2344",
";  c #4A234B",
":  c #492A4A",
">  c #552D44",
",  c #532549",
"<  c #552A4B",
"1  c #592B4C",
"2  c #5D3245",
"3  c #54324D",
"4  c #5D324B",
"5  c #492856",
"6  c #532B53",
"7  c #5A2E53",
"8  c #5A2A54",
"9  c #542C59",
"0  c #4F3057",
"q  c #4A345C",
"w  c #543054",
"e  c #56375D",
"r  c #652C40",
"t  c #602F4C",
"y  c #693648",
"u  c #6B344C",
"i  c #74354B",
"p  c #783A48",
"a  c #7D3C4B",
"s  c #662B54",
"d  c #683755",
"f  c #743D55",
"g  c #783955",
"h  c #4B3465",
"j  c #543C63",
"k  c #5D3C60",
"l  c #723D62",
"z  c #7F464C",
"x  c #724353",
"c  c #7D4153",
"v  c #774559",
"b  c #69555F",
"n  c #5A4365",
"m  c #574572",
"M  c #6E4F67",
"N  c #784B69",
"B  c #7A596D",
"V  c #796775",
"C  c #7A767D",
"Z  c #82413F",
"A  c #813C48",
"S  c #813955",
"D  c #89454A",
"F  c #944C49",
"G  c #9D564C",
"H  c #8A4857",
"J  c #964D56",
"K  c #8C5255",
"L  c #86525C",
"P  c #8B5459",
"I  c #995857",
"U  c #9A535C",
"Y  c #A55548",
"T  c #B34956",
"R  c #AA5D58",
"E  c #B3565C",
"W  c #9D665A",
"Q  c #B9664D",
"!  c #A76356",
"~  c #AB655D",
"^  c #B46A56",
"/  c #B96858",
"(  c #B7725B",
")  c #8D4961",
"_  c #80556D",
"`  c #8B5869",
"'  c #995865",
"]  c #815C73",
"[  c #8A5C72",
"{  c #AD5662",
"}  c #B35B65",
"|  c #886A61",
" . c #9B686A",
".. c #866579",
"X. c #936373",
"o. c #986A79",
"O. c #A76564",
"+. c #A9766A",
"@. c #B47766",
"#. c #A4737C",
"$. c #A77A7D",
"%. c #CC5C58",
"&. c #C96F55",
"*. c #CA7A58",
"=. c #C77768",
"-. c #D5706B",
";. c #C77D72",
":. c #D07D71",
">. c #E07E68",
",. c #AA847E",
"<. c #B7847A",
"1. c #C9825A",
"2. c #D8855A",
"3. c #CF8468",
"4. c #D28665",
"5. c #DC8D66",
"6. c #D38C6B",
"7. c #DD9166",
"8. c #C78B72",
"9. c #CD967B",
"0. c #D59375",
"q. c #DC9D7A",
"w. c #EA9868",
"e. c #E58C73",
"r. c #E89477",
"t. c #F4997A",
"y. c #E0A07B",
"u. c #FEB97B",
"i. c #6E5C83",
"p. c #60639E",
"a. c #747D9B",
"s. c #9D7087",
"d. c #AA7981",
"f. c #98878F",
"g. c #A98385",
"h. c #B78785",
"j. c #BC8A83",
"k. c #BA958A",
"l. c #A18A92",
"z. c #BA9694",
"x. c #A39FB3",
"c. c #BFB0B0",
"v. c #C68988",
"b. c #C49787",
"n. c #C4928A",
"m. c #CC998C",
"M. c #D19D8C",
"N. c #C49D93",
"B. c #CB9992",
"V. c #D59F90",
"C. c #E99B85",
"Z. c #D2A788",
"A. c #D6A58F",
"S. c #C9A594",
"D. c #D3A592",
"F. c #D2AB97",
"G. c #DDAD93",
"H. c #CDB09A",
"J. c #E2AC88",
"K. c #F0A887",
"L. c #E6B489",
"P. c #F4B888",
"I. c #E1AD95",
"U. c #E3B193",
"Y. c #EDBD91",
"T. c #E5B398",
"R. c #E8B999",
"E. c #ECBC9D",
"W. c #F3BE9B",
"Q. c #DBBAA6",
"!. c #CABDB1",
"~. c #D7BAB4",
"^. c #EBBEA4",
"/. c #E8C194",
"(. c #F3C19C",
"). c #F8CA9C",
"_. c #FFD39B",
"`. c #DCC1AC",
"'. c #DECBBA",
"]. c #E6C3A6",
"[. c #ECC1A3",
"{. c #F6CCA7",
"}. c #FED9A6",
"|. c #F4D3AE",
" X c #FBD4AD",
".X c #E2C8B5",
"XX c #F1CDB4",
"oX c #EAD3BC",
"OX c #FADBB3",
"+X c #F8D9BA",
"@X c #FFE1A8",
"#X c #FFE2B6",
"$X c #FDE6BB",
"%X c #DCCCC9",
"&X c #D6D6D7",
"*X c #E2D5CE",
"=X c #FADCC6",
"-X c #EDE0C2",
";X c #FDE3C2",
":X c #F5EAC3",
">X c #FDE9C4",
",X c #FCE4CB",
"<X c #FDEBCD",
"1X c #FFF4CB",
"2X c #EAE2DC",
"3X c #F6E6D6",
"4X c #FFECD4",
"5X c #FFEEDB",
"6X c #FFF2D3",
"7X c #FBF9D3",
"8X c #FFF3DD",
"9X c #FEFCDC",
"0X c #ECE9E4",
"qX c #F4EBE9",
"wX c #FDF4E4",
"eX c #FFFDE5",
"rX c #F4F2EA",
"tX c #FDF5EB",
"yX c #FFFDEC",
"uX c #F7F2F3",
"iX c #FEFCF3",
"pX c #FFFFFE",
/* pixels */
"                                                                                                                              ",
"                                                                                                                              ",
"                                                                                                                              ",
"                                                                                                                              ",
"                                                                                                                              ",
"                                                                                                                              ",
"                                                                                                                              ",
"                                                                                                                              ",
"                                                                                                                              ",
"                                                             .^ / *.5.8.                                                      ",
"                                                          V f F Y / ^ F ^ 0.                                                  ",
"                                                        j t I 2.4.J y A &.7.q.                                                ",
"                                                      n = a ^ *.~ 1 y 2.2.2.w.Y.                                              ",
"                                                      # , a D a x  .y Q 2.1.7.P.R.                                            ",
"                                                    j ; 6 ; , x Q.6X,.r ! *.( 7.q.                                            ",
"                                                  B 0 = O s J R.yX%XB.x 1 ( G Y 6.                                            ",
"                                                      O O g H oX0XX.L I 1 i D F (                                             ",
"                                                      h * i B -XyXl.m j.L ; S A R /                                           ",
"                                                      % ; v a.eXyXx.p.rX,.J -.H d !                                           ",
"                                                    e o - G.&X<XeXrX&XyX].3.=.7 w                                             ",
"                                                    j $ O N.yX;X4XyXyXeXH.7 o O e                                             ",
"                                                      q o 5 c.8X+X4XyX!.q X o 7 n                                             ",
"                                        y Z !           h % @ l.%X.Xm.w . o q                                                 ",
"                                      3 b b z               & + w / r. .$ ..f.                                                ",
"                                      ; V C 3               i.9 U t.#X:Xh.8.9.                                                ",
"                                      0     <             f.s.} P.#X9X>Xq.y.^.oX                                              ",
"                                            >           ..z.XXr.}.9X1XJ.3.[.pXpX0X                                            ",
"                                            >           ] F.wX(.).1X(.8.b.qXyXiXpX                                            ",
"                                            >           o.F.yX3XP.P.6.<.*XpX<XiXpXrX                                          ",
"                                          <.+.Z.      z.d.S.yXiX).4.@.%XpX5X#XiXpXpX2X                                        ",
"                                        =.t._.}.K.    N.#.m.tXwXD.<.~.pXtXQ.|.iXpXpXpX                                        ",
"                                        :.t.@Xr.t.b.<.M.#.n.<XQ.+.S.iXpXtXg.].iXpXpXpXrX                                      ",
"                                          >.6.%.)./.~ ;.#.j.D. .N.wXpXpXtXg.Q.yXpX5X,X+X                                      ",
"                                          ` 7 T r.@X0.U ` X.[ $.3XpXpXiX<X$.D.+X{.u.w.5.                                      ",
"                                            w J } :.>.) N @ M N..X'.`.`.F.B [ =.5./ a N                                       ",
"                                            4     M s d d o 9 v N P K H c 5 7 g E E n                                         ",
"                                            2       h 9 k @ 1 i z D F D A 1 o t e.W.                                          ",
"                                            >         j n 5 < , f < D K D u 5 z.{.7X                                          ",
"                                            >             e _ e = 4  .$.<.<.] N. X9X                                          ",
"                                            2             X.m.[ 7 ^ [.wX4X>Xh.O.OXeX                                          ",
"                                            2           B d.I.#.7 ^  XpXpXiXm.C.9XeX{.                                        ",
"                                            2           [ b.T.j.c W }.yXpXuXv.e.+XeX).                                        ",
"                                            4           ` V.W.b.! W ;XyXpXiXv.T C.R.0.                                        ",
"                                            >           X.I.[.k.! O.2X8XpXpX~.} =.=.                                          ",
"                                            <         | $.T.[.F.L O.0X<X8XpXtX[.Y.                                            ",
"                                            : a       ,.h.I.E.OXk.c.pX6X<XpXpXyXOX                                            ",
"                                            - a       g.h.G.T.;XwXpXpXwX>XpXpXpX<X                                            ",
"                                            > a       X.j.E.U.>XpXpXpXiX#XiXpXpXwXL.                                          ",
"                                            : p       _ n.(.G.>XiXpXpXiX XwXpXpXpX|.                                          ",
"                                            : p       _ m.(.G.$XyXpXpXpX;X4XpXpXpX,X                                          ",
"                                            : i       [ m.W.G.$XeXpXpXpX,X;XpXpXpX4X                                          ",
"                                            : u       o.B.E.D.OXeXiXpXpX5X XiXpXpX5XL.                                        ",
"                                            : u       #.B.E.A.{.8XyXpXpXwX{.8XpXpXtXJ.                                        ",
"                                            : y       N h.R.D.(.>X9XpXpXiX{.,XpXpX=X@.                                        ",
"                                            : y       9 l #.j.U. X7XiXpXpXXXR.XX^.=.F                                         ",
"                                            : t         5 8 l ' <.U.E.{.{.9.' R ~ K                                           ",
"                                            # 7           c d s f `  .( ( K d S U                                             ",
"                                            $ 7         7 g { H ,           u I I                                             ",
"                                            o 5       c =.O.u ;             <.Y.D.d                                           ",
"                                              o                             P ( !                                             ",
"                                                                                                                              ",
"                                                                                                                              ",
"                                                                                                                              ",
"                                                                                                                              "
};
