/* XPM */
static char *player_win[] = {
/* columns rows colors chars-per-pixel */
"64 64 217 2 ",
"   c None",
".  c #32114D",
"X  c #270A54",
"o  c #361758",
"O  c #2E1C68",
"+  c #352064",
"@  c #4B1B4C",
"#  c #461C57",
"$  c #431E5A",
"%  c #5A344F",
"&  c #4A2657",
"*  c #5C2857",
"=  c #50205B",
"-  c #542C5D",
";  c #54325A",
":  c #59345A",
">  c #5E3A5A",
",  c #612D4E",
"<  c #6A364C",
"1  c #7C3E45",
"2  c #682E57",
"3  c #6C3852",
"4  c #67355A",
"5  c #6A3359",
"6  c #723554",
"7  c #763953",
"8  c #7C3A56",
"9  c #75355C",
"0  c #7D3C5A",
"q  c #4B2661",
"w  c #472966",
"e  c #562D67",
"r  c #583768",
"t  c #4D3C78",
"y  c #5E3471",
"u  c #653264",
"i  c #693A64",
"p  c #66346B",
"a  c #743969",
"s  c #7B4358",
"d  c #594270",
"f  c #784863",
"g  c #6F536B",
"h  c #634371",
"j  c #664874",
"k  c #7A4C74",
"l  c #7B4A7B",
"z  c #665175",
"x  c #775373",
"c  c #813D53",
"v  c #863C66",
"b  c #913D62",
"n  c #82414B",
"m  c #964848",
"M  c #9E524B",
"N  c #8C4354",
"B  c #854459",
"V  c #994C56",
"C  c #945054",
"Z  c #9D5351",
"A  c #9A555C",
"S  c #A8524C",
"D  c #A4585A",
"F  c #BB5F55",
"G  c #95665E",
"H  c #AF635C",
"J  c #BD735E",
"K  c #854864",
"L  c #974C64",
"P  c #845463",
"I  c #8C5B66",
"U  c #9A5966",
"Y  c #824573",
"T  c #865977",
"R  c #955D75",
"E  c #BD5A6E",
"W  c #AC5971",
"Q  c #93626E",
"!  c #93607C",
"~  c #A8696B",
"^  c #B56B68",
"/  c #AE7B6E",
"(  c #BB7767",
")  c #A46879",
"_  c #B26D78",
"`  c #AF7374",
"'  c #BB767A",
"]  c #C46D5F",
"[  c #D27A5E",
"{  c #E37C5B",
"}  c #C65E6A",
"|  c #D05F6E",
" . c #CE656B",
".. c #C77967",
"X. c #D77862",
"o. c #C46F75",
"O. c #D76E74",
"+. c #C77776",
"@. c #E26E6A",
"#. c #D98869",
"$. c #DA9268",
"%. c #CB8874",
"&. c #D58B77",
"*. c #D4857B",
"=. c #CE987F",
"-. c #D5967C",
";. c #E78C67",
":. c #E89568",
">. c #F09B64",
",. c #E98D77",
"<. c #EFA36E",
"1. c #EAA378",
"2. c #F4A37D",
"3. c #544681",
"4. c #6A5383",
"5. c #7F5C8C",
"6. c #7B6D81",
"7. c #7372AC",
"8. c #9A6A84",
"9. c #846F90",
"0. c #A56D84",
"q. c #A67688",
"w. c #B57E8D",
"e. c #D07A80",
"r. c #92898E",
"t. c #958399",
"y. c #AA8189",
"u. c #B78984",
"i. c #BA838E",
"p. c #BF9584",
"a. c #AD8C96",
"s. c #BB8E93",
"d. c #A696A6",
"f. c #B599A4",
"g. c #B6A1A7",
"h. c #A4A1B2",
"j. c #C88B89",
"k. c #D29D8F",
"l. c #C38795",
"z. c #C48E9B",
"x. c #C79899",
"c. c #D69A96",
"v. c #ED8D88",
"b. c #E69483",
"n. c #E59B88",
"m. c #DFA38F",
"M. c #D4A19E",
"N. c #DAA69B",
"B. c #D6B191",
"V. c #E6AA88",
"C. c #FCA282",
"Z. c #EBB489",
"A. c #F4B488",
"S. c #E1A69A",
"D. c #F7A792",
"F. c #E7B995",
"G. c #F8B69A",
"H. c #CFA9A3",
"J. c #C7B4AE",
"K. c #DAB5A6",
"L. c #D8BDB6",
"P. c #EBAEA1",
"I. c #E7B4A6",
"U. c #F2BCA8",
"Y. c #F9C48C",
"T. c #EEC096",
"R. c #EEC39D",
"E. c #FACA9B",
"W. c #FDD59A",
"Q. c #DAC5AD",
"!. c #D7C4BC",
"~. c #E9C8A5",
"^. c #F2CAAD",
"/. c #FAC8AB",
"(. c #EED2A6",
"). c #FCD3A2",
"_. c #F3D4AE",
"`. c #FBD8AA",
"'. c #EBC9B9",
"]. c #F8CDB5",
"[. c #F7D5B3",
"{. c #FCD5B3",
"}. c #FBDCB4",
"|. c #F6D8B8",
" X c #F4DABC",
".X c #EEE4B8",
"XX c #FBE4B8",
"oX c #FFE5BC",
"OX c #DACCCF",
"+X c #E1C3C4",
"@X c #EFDDC5",
"#X c #E7D6CB",
"$X c #F5DBC6",
"%X c #F9D9C3",
"&X c #F7E3C4",
"*X c #FFEBC3",
"=X c #FDE4CB",
"-X c #FDECCA",
";X c #FFF3C8",
":X c #F3E2D4",
">X c #FBEAD3",
",X c #F7E7D8",
"<X c #FFEDDB",
"1X c #FEF2D3",
"2X c #FFF9D7",
"3X c #FEF2DC",
"4X c #FFFBDB",
"5X c #DADDE7",
"6X c #EBE7EB",
"7X c #F7EAE5",
"8X c #FFFAE2",
"9X c #F7F0EC",
"0X c #FDF4EA",
"qX c #FFFCEC",
"wX c #F8F7F4",
"eX c #FEFDF4",
"rX c #FFFFFE",
/* pixels */
"                                                                                                                                ",
"                                                                                                                                ",
"                                                                                                                                ",
"                                                                                                                                ",
"                                                                                                                                ",
"                                                                                                                                ",
"                                                                                                                                ",
"                                                                                                                                ",
"                                                                                                                                ",
"                                                                                                                                ",
"                                                                  %.;.:.1.                                                      ",
"                                                              9.R V F { ;.&.%.                                                  ",
"                                                            4.u A #.:.^ A N X.Z.                                                ",
"                                                          z # 8 ] ;.#.s 7 [ ;.1.T.                                              ",
"                                                          e * 8 N N P I B >.>.<.Y..X                                            ",
"                                                        h = = * 6 Q #X:XI S :.$.A.).                                            ",
"                                                        j $ . 9 ~ :XwX+Xj., ( ..[ 1.                                            ",
"                                                          e @ B ) 9XOXQ ~ K s H S #.                                            ",
"                                                          w * - h.rX6X3.a.' & 8 V ..                                            ",
"                                                        r X f g.5XrX6X7.5XJ.L O.A D X.                                          ",
"                                                        h o f 7X8X<XrXwXrX@X-.*.4 i                                             ",
"                                            s M           w o d.eX>X8XrXeXg.- $ # x                                             ",
"                                          > g P H         d t + d.,X7X:Xt.o X o u                                               ",
"                                          - r.6.<             t O x *.-.- X w z                                                 ",
"                                              r <             9.e U 2.oXf.T x.                                                  ",
"                                              ;             f.z.+.E.1XrX>XV.Z.F.                                                ",
"                                              ;           8.L.=XA.3XrX<XA.A.$X7X                                                ",
"                                              :           q.%XqX).1X1XR.-.'.rXrXwX                                              ",
"                                            n.B.~.      H.i.$XrX=XW.Z.=.L.rXqXeXrX                                              ",
"                                            D.;XoXG.    I.i.$XrX3XZ.%.L.rXeX2XrXrXwX                                            ",
"                                            C.W.,.G.k.S.P.w.=XqXK.p.!.rXeX@X1XrXrXrX                                            ",
"                                            +.U @.oXF.o.c.w. XH.u.!.rXrX0Xx.>XrXrXrXwX                                          ",
"                                              i | D.`.' _ 0.w.q.#XrXrXrX7Xs.>XrXrXeXeX                                          ",
"                                              B   ' o.W R w l K.7XeXqXqX$Xi. X1XXXW.E.                                          ",
"                                              n     y u f o p R 0.y.s.x.y.l +.2.:.J ^                                           ",
"                                              1     4.r j q 2 N C Z V V 9 & 9 }  .a 5.                                          ",
"                                            % 1         d q 4 5 0 6 D C c & r b./.                                              ",
"                                            % m         h ! 0.e 2 K ` ~ U h f.%XeX                                              ",
"                                            <           T N.P.y A V.3X>X&Xs.s.=XeX                                              ",
"                                            3           q.U.U.K A ).rXrXeXM.j.0XqX                                              ",
"                                            3         R l.{.~.~ G XXeXrX9Xn./.rXqX(.                                            ",
"                                            3         R N. XQ./ ~ >XrXrX7Xe.,.<X=XF.                                            ",
"                                            6         y.U.oXQ.~ +.7XqXrXeXc.| v.b.                                              ",
"                                            6         x./. X&Xq.f.wX4XeXrX>XR.F.                                                ",
"                                            6         x./.{.4X,XwXrX4XeXrXrX2X                                                  ",
"                                            7       8.M.{.[.qXrXrXrX4XqXrXrXqX                                                  ",
"                                            8       8.I.}.[.eXrXrXrX1X8XrXrXeX(.                                                ",
"                                          & 8       0.^._.|.eXrXrXrX3X3XrXrXrXXX                                                ",
"                                          ; 8       i.^._. XeXrXrXrX8X3XrXrXrX=X                                                ",
"                                          : 8       z.].^. XeXrXrXrX8X1XrXrXrX-X                                                ",
"                                          :       k l.].^.{.8XrXrXrXqX*XrXrXrX-X                                                ",
"                                          :       r Y z.U.{.2XrXrXrXeX*XeXrXrX$X                                                ",
"                                          -         e a ) c.|.8XeXrXeX}.>X0X%X-.                                                ",
"                                          e           B a v _ m.R.}.`.j.*.b.%.D                                                 ",
"                                          &         4 L E b 5 P ~ ( ( K v L                                                     ",
"                                          o       B %.~ K *           5 U ^                                                     ",
"                                                                      y.~.N.s                                                   ",
"                                                                        ..^                                                     ",
"                                                                                                                                ",
"                                                                                                                                ",
"                                                                                                                                ",
"                                                                                                                                ",
"                                                                                                                                ",
"                                                                                                                                "
};
