/* XPM */
static char *player_move_2[] = {
/* columns rows colors chars-per-pixel */
"63 64 216 2 ",
"   c None",
".  c #2F103F",
"X  c #3A163F",
"o  c #582B3D",
"O  c #642C3E",
"+  c #69343B",
"@  c #763A3E",
"#  c #1C0343",
"$  c #280C44",
"%  c #2C1147",
"&  c #2D144B",
"*  c #381745",
"=  c #3B1A4B",
"-  c #201052",
";  c #3A1B50",
":  c #392456",
">  c #3B2B69",
",  c #461D46",
"<  c #431C4E",
"1  c #452545",
"2  c #482543",
"3  c #482A42",
"4  c #44254B",
"5  c #4B234D",
"6  c #492A4C",
"7  c #562847",
"8  c #5A2C4B",
"9  c #5C3448",
"0  c #4A2654",
"q  c #432955",
"w  c #45245A",
"e  c #572B56",
"r  c #4C335B",
"t  c #53355B",
"y  c #57395C",
"u  c #662E4A",
"i  c #722D49",
"p  c #643245",
"a  c #6A3647",
"s  c #66304B",
"d  c #6D314A",
"f  c #733546",
"g  c #793A46",
"h  c #71354A",
"j  c #763D4A",
"k  c #692E53",
"l  c #653756",
"z  c #7C3652",
"x  c #4B3A62",
"c  c #563D67",
"v  c #6B3761",
"b  c #77454D",
"n  c #674655",
"m  c #774357",
"M  c #74445B",
"N  c #5A4367",
"B  c #5E5369",
"V  c #6D4965",
"C  c #794C62",
"Z  c #794866",
"A  c #6B5B6C",
"S  c #76506A",
"D  c #7D526A",
"F  c #604E79",
"G  c #675277",
"H  c #746572",
"J  c #7C7275",
"K  c #91473E",
"L  c #863E47",
"P  c #833F54",
"I  c #844144",
"U  c #884646",
"Y  c #83434B",
"T  c #914B48",
"R  c #9A504A",
"E  c #834855",
"W  c #844D5A",
"Q  c #914B54",
"!  c #9B4D54",
"~  c #8A535A",
"^  c #985656",
"/  c #A75A4B",
"(  c #A35C53",
")  c #A85A57",
"_  c #B95459",
"`  c #8A605F",
"'  c #9B645A",
"]  c #B8654E",
"[  c #A5675C",
"{  c #B96A58",
"}  c #B97659",
"|  c #874F60",
" . c #85586A",
".. c #9B5C66",
"X. c #895B72",
"o. c #905E72",
"O. c #AA5461",
"+. c #996868",
"@. c #886277",
"#. c #976776",
"$. c #9E6C7B",
"%. c #98737B",
"&. c #A56965",
"*. c #B46668",
"=. c #BE7766",
"-. c #A47371",
";. c #A57778",
":. c #B37E77",
">. c #C4575E",
",. c #C57453",
"<. c #C87D59",
"1. c #C65B62",
"2. c #C26B64",
"3. c #C87966",
"4. c #D8796A",
"5. c #E17363",
"6. c #B18672",
"7. c #B88377",
"8. c #D78459",
"9. c #E08858",
"0. c #C88568",
"q. c #DA8967",
"w. c #DE9166",
"e. c #CE8C74",
"r. c #C48B7E",
"t. c #C5927B",
"y. c #D69674",
"u. c #D99C7B",
"i. c #E5956A",
"p. c #EB906B",
"a. c #E88B71",
"s. c #E69673",
"d. c #DDA57D",
"f. c #E8A97D",
"g. c #FAAD77",
"h. c #4A4E90",
"j. c #697091",
"k. c #977A85",
"l. c #957F95",
"z. c #AE7E81",
"x. c #B97F86",
"c. c #A68480",
"v. c #B28282",
"b. c #B68983",
"n. c #BB9283",
"m. c #B8948A",
"M. c #AB9495",
"N. c #ADA3AE",
"B. c #C38E86",
"V. c #C8978B",
"C. c #D79C8B",
"Z. c #CD9B96",
"A. c #EB9781",
"S. c #DBA385",
"D. c #D4A38C",
"F. c #DAAC8D",
"G. c #CAA597",
"H. c #D7A490",
"J. c #D5AA94",
"K. c #DDAB92",
"L. c #EAAB86",
"P. c #EBB48A",
"I. c #F9B986",
"U. c #E0AD91",
"Y. c #E3B399",
"T. c #EBBA9B",
"R. c #F3BC9A",
"E. c #CFA1A1",
"W. c #CDB0A4",
"Q. c #D4B5A2",
"!. c #E4BDA3",
"~. c #E9C89B",
"^. c #F8C698",
"/. c #DBC1A6",
"(. c #DAC6B9",
"). c #E8C4A9",
"_. c #F3CBA5",
"`. c #F4CAA9",
"'. c #FAD7AA",
"]. c #FAD4AC",
"[. c #E5C7B2",
"{. c #F4CFB9",
"}. c #E8D7B9",
"|. c #F7D7B6",
" X c #FCDCB9",
".X c #FFE5AC",
"XX c #FDE3B6",
"oX c #F6E3BE",
"OX c #FCE5BB",
"+X c #DECBC8",
"@X c #CECDD0",
"#X c #E3CCC4",
"$X c #F8DEC2",
"%X c #FDE3C2",
"&X c #FEECC5",
"*X c #F2E0CB",
"=X c #FCE3CD",
"-X c #FDECCC",
";X c #FFF1CF",
":X c #EBE2D7",
">X c #F7E5D3",
",X c #FEECD4",
"<X c #FCEBDC",
"1X c #FFF0D6",
"2X c #FFFCD3",
"3X c #FFF4DC",
"4X c #FFFDDD",
"5X c #ECE9E6",
"6X c #F8EEE9",
"7X c #FEF4E3",
"8X c #F2F1EB",
"9X c #FDF5EB",
"0X c #FFFDEA",
"qX c #F9F6F5",
"wX c #FFFCF4",
"eX c #FFFFFE",
/* pixels */
"                                                                                                                              ",
"                                                                                                                              ",
"                                                                                                                              ",
"                                                                                                                              ",
"                                                                                                                              ",
"                                                                                                                              ",
"                                                                                                                              ",
"                                                                                                                              ",
"                                                                                                                              ",
"                                                              %.[ { ,.<.y.                                                    ",
"                                                            H M Y R ] { ( ( 0.                                                ",
"                                                          N 8 Y <.8.( j p / w.y.                                              ",
"                                                        N = u ( ,.{ b 2 ] 8.<.w.P.                                            ",
"                                                        q , h g U a ' p / 9.<.8.f.~.                                          ",
"                                                      c < 5 < 2 p G.;Xn.O ( <.} i.f.                                          ",
"                                                      y < % 7 P S.4X:XQ.W 7 { ( / 0.                                          ",
"                                                        ; . d Y Q.7Xk.E ^ u j T K {                                           ",
"                                                        c X i V }.0XM.N 7.^ * d L / {                                         ",
"                                                        : * W j.7X0XN.h.5Xc.z 1.Q g /                                         ",
"                                                      t % X H.@X-X7X8X@X7X/.3.4.l 5 `                                         ",
"                                                      N : % b.0X%X=X0X0X7X/.M 0 & y                                           ",
"                                                        r & : W.3X X,X0X(.y # $ 5 y                                           ",
"                                        n 9 @ (           x : : M.#X}.G.r # $ q A                                             ",
"                                        4 J H a               > - 9 { q.C & G                                                 ",
"                                        0 A B 7               G t ) p..X}.#.7.t.                                              ",
"                                              7             k.$.{ I.XX4XoXy.u.U.).                                            ",
"                                              o           @.G.).i.XX4X&XS.q.).wXwX                                            ",
"                                              o           @.).<XI.'.&XT.0.V.6XwXeX8X                                          ",
"                                              p         k.$.[.wX|.I.P.0.m.5XwX-XeXeX                                          ",
"                                            u.d.~.      m.$.).eX7XL.<.6.:XeX,X%XeXeX8X                                        ",
"                                          4.^.'.^.s.  m.V.#.!.wX*Xt.:.+XeX<X).&XeXeXeX5X                                      ",
"                                          4.I.P.5.P.:.r.V.#.!.>X7.-.(.eXeX#Xv.-XeXeXeXeX                                      ",
"                                          =.2.! 5..Xd.) 7.o.H.b.+.(.wXeXeX(.;.%XeXeXwX9X                                      ",
"                                            r k >.L.^.*...S o. .G.wXeXeX0X/.-.].,X XI.g.f.                                    ",
"                                              j   *.2.O.| r w $.Q.(.}.[.[.m. .:.s.i.,.^ ..                                    ",
"                                            6 f     t e z = < l M W ~ W W l 0 m ) _ d c                                       ",
"                                              +     F w y r < d f I T U L u = & ! a.r.                                        ",
"                                            3 +       c   q < 8 u s d R Y g 5 G C.OX                                          ",
"                                            3 @           y S V = 8 M &.&.+.C l.R.2X}.                                        ",
"                                            3 @           S B.:.w ^ e.>X>X XJ.X.U.4X}.                                        ",
"                                            3 I           @.D.V.l U f.0XeXwX[.*.|.0X X                                        ",
"                                            3 I         D v.U.V.~ b I.3XeXeXE.a.].0XXX                                        ",
"                                            1 L         C B.T.J.[ ~ _.7XeXeXZ._ A.%XP.                                        ",
"                                            1 g          .C.T.J.' ( (.7XwXeX#XO.1.4.                                          ",
"                                            1 g         -.K.T.!.| ^ +X3X1XeX9XY.S.u.                                          ",
"                                            1 f       6.:.K.Y.].V.N.qX3X&XeXeX7X'.                                            ",
"                                            1 f       c.z.K.K. X7XeXeX9X%XeXeXeX-X                                            ",
"                                            1 f        .v.T.K.OXwXeXeXwX X0XeXeX7XP.                                          ",
"                                            1 f       D B.T.F.OXwXeXeXwX].7XeXeXwX^.                                          ",
"                                            1 h       D V.R.F.OX0XeXeXeX$X,XeXeXeX$X                                          ",
"                                            4 d       X.V.T.D.XX7XwXeXeX=X%XeXeXeX>X                                          ",
"                                            6 d       $.Z.T.D.XX7XwXeXeX>X|.eXeXeX>Xd.                                        ",
"                                            6 d       $.Z.T.D.].3X0XeXeX,X_.9XeXeX<Xd.                                        ",
"                                            6 p       Z x.Y.D.^.&X7XeXeX9X_.,XeXeX>X6.                                        ",
"                                            6         e v #.b.Y. X2XeXeXwX`._.>X{.e.T                                         ",
"                                            4           0 8 Z ..r.Y._. X].r.*.3.=.^                                           ",
"                                            4             P k k m ~ &.=.} W k z E                                             ",
"                                            :         8 8 P O.z           7 h ! ^                                             ",
"                                            &         ^ 3.Q 8 %           n t.F.;.                                            ",
"                                                                          9 =.q.&.                                            ",
"                                                                                                                              ",
"                                                                                                                              ",
"                                                                                                                              ",
"                                                                                                                              "
};
