/* XPM */
static char *player_idle_1[] = {
/* columns rows colors chars-per-pixel */
"64 64 212 2 ",
"   c None",
".  c #1D0A37",
"X  c #25123B",
"o  c #2A1239",
"O  c #2F193F",
"+  c #351B3C",
"@  c #3A1B3C",
"#  c #3D233C",
"$  c #431E3D",
"%  c #432436",
"&  c #44233B",
"*  c #4B253C",
"=  c #492838",
"-  c #4C293C",
";  c #55293B",
":  c #5C2E3B",
">  c #4E333E",
",  c #5A353E",
"<  c #652C3F",
"1  c #63343A",
"2  c #6C3439",
"3  c #6B3A3B",
"4  c #753E3C",
"5  c #7B433B",
"6  c #78453E",
"7  c #2A1A45",
"8  c #391B43",
"9  c #3C2343",
"0  c #372248",
"q  c #3D294A",
"w  c #2E2654",
"e  c #422443",
"r  c #472549",
"t  c #442C4C",
"y  c #4C2C49",
"u  c #542D42",
"i  c #5D2B42",
"p  c #542E4A",
"a  c #473245",
"s  c #4D364E",
"d  c #5B3342",
"f  c #583949",
"g  c #493955",
"h  c #563656",
"j  c #663547",
"k  c #633944",
"l  c #6B3C44",
"z  c #63324C",
"x  c #773A47",
"c  c #584556",
"v  c #68444E",
"b  c #7A4443",
"n  c #7A454B",
"m  c #774949",
"M  c #7F5045",
"N  c #6A4556",
"B  c #664658",
"V  c #6A4A5A",
"C  c #734A57",
"Z  c #745258",
"A  c #7B545B",
"S  c #7D5B5F",
"D  c #796058",
"F  c #574E67",
"G  c #684F60",
"H  c #744D60",
"J  c #635266",
"K  c #785961",
"L  c #756B6B",
"P  c #86483C",
"I  c #89503F",
"U  c #863A46",
"Y  c #854746",
"T  c #914A4E",
"R  c #8D5443",
"E  c #845349",
"W  c #8A524B",
"Q  c #8C594A",
"!  c #995B48",
"~  c #855353",
"^  c #885B56",
"/  c #905550",
"(  c #995E57",
")  c #A6554A",
"_  c #A25C50",
"`  c #B25954",
"'  c #98634A",
"]  c #9B644B",
"[  c #8C6356",
"{  c #976758",
"}  c #9E6C5B",
"|  c #9F745C",
" . c #A56548",
".. c #AB6E4D",
"X. c #B57047",
"o. c #A46757",
"O. c #A36F5F",
"+. c #B56658",
"@. c #A7755A",
"#. c #AA765D",
"$. c #B47A5D",
"%. c #BD7B5A",
"&. c #835D63",
"*. c #8A6564",
"=. c #876668",
"-. c #936964",
";. c #926B69",
":. c #9C7162",
">. c #94746C",
",. c #9B756B",
"<. c #9C796D",
"1. c #856F70",
"2. c #937973",
"3. c #A67462",
"4. c #AC7569",
"5. c #A27B6D",
"6. c #A37B72",
"7. c #AC7A72",
"8. c #C06E5D",
"9. c #C8705D",
"0. c #C77962",
"q. c #D47D63",
"w. c #AC805F",
"e. c #9E8477",
"r. c #AC836A",
"t. c #B88868",
"y. c #A58476",
"u. c #AB8572",
"i. c #AE8974",
"p. c #B28B76",
"a. c #B79177",
"s. c #B5917B",
"d. c #BB957C",
"f. c #D1825C",
"g. c #C68A67",
"h. c #D48866",
"j. c #C6936E",
"k. c #CD9A76",
"l. c #C49D7E",
"z. c #DA9776",
"x. c #CAA17E",
"c. c #D8A57E",
"v. c #E7A77E",
"b. c #8F7D81",
"n. c #94848D",
"m. c #A58982",
"M. c #AF998B",
"N. c #BB9A85",
"B. c #B9A18D",
"V. c #BCA492",
"C. c #8891AC",
"Z. c #BBB2A9",
"A. c #C89D80",
"S. c #DC9F81",
"D. c #C5A284",
"F. c #C8A58A",
"G. c #CEAD8C",
"H. c #D8AB87",
"J. c #D1B18F",
"K. c #C9AE91",
"L. c #CDB398",
"P. c #D3B594",
"I. c #D6B999",
"U. c #D4BA9C",
"Y. c #ECB18D",
"T. c #F3B785",
"R. c #E5BA96",
"E. c #F2BE91",
"W. c #CDB9A4",
"Q. c #D2BEA7",
"!. c #EBC49C",
"~. c #F4C89D",
"^. c #CDC0AF",
"/. c #D6C0A5",
"(. c #DBC2A4",
"). c #D4C3AA",
"_. c #DAC6A9",
"`. c #DBCAAD",
"'. c #CBC6B7",
"]. c #D9CBB7",
"[. c #DED2B5",
"{. c #DCD2BB",
"}. c #E2C8A6",
"|. c #ECC9A4",
" X c #F3CDA3",
".X c #F6D3AB",
"XX c #FCDBAC",
"oX c #E3D4B9",
"OX c #E4D8BD",
"+X c #F6DBB5",
"@X c #FADCB2",
"#X c #FCE2B8",
"$X c #D1CFCA",
"%X c #DFD9C3",
"&X c #D2D4C8",
"*X c #E4DBC4",
"=X c #E3DDC8",
"-X c #DDE1D5",
";X c #DBE2D8",
":X c #E4E1CC",
">X c #E8E3CD",
",X c #E3E4D3",
"<X c #E7E9D5",
"1X c #E8E9D5",
"2X c #E6EBDB",
"3X c #E9ECDC",
"4X c #E9F0DF",
"5X c #E7EFE1",
"6X c #E7F1E4",
"7X c #E9F2E3",
"8X c #EAF5E9",
"9X c #EDF8EC",
/* pixels */
"                                                                                                                                ",
"                                                                                                                                ",
"                                                                                                                                ",
"                                                                                                                                ",
"                                                                                                                                ",
"                                                                                                                                ",
"                                                                                                                                ",
"                                                                                                                                ",
"                                                              [ ' ] ] @.                                                        ",
"                                                            V k 4 P ) ! E '                                                     ",
"                                                          s u b ! R m : 2  .#.                                                  ",
"                                                      J t $ 4 ] ..E & 1 !  ...t.                                                ",
"                                                        o ; 4 P 3 d & 5 X. ...%.l.                                              ",
"                                                      q @ * & = f l.5.; P ] ' @.t.                                              ",
"                                                    s 8 + 8 ; b H.@XR.^ % W Q I ! r.                                            ",
"                                                    s 8 X $ i 3.@XV.Z m = : Y 2 P @.                                            ",
"                                                      g X ; j 3.@XF.v Z W + * 1 5 W                                             ",
"                                                      F X < w Z.XX(.w C.N.= x U 1 Y                                             ",
"                                                      8 . / b.&XXX+Xn.$X}./ ` _ @ k                                             ",
"                                                      8 . / .X|.R.#X+X+X XO.n e + c                                             ",
"                                                      g X 8 N.@X!.!.#X@Xs.8 . o 9                                               ",
"                                        , 1 6           0 7 0 y.|.|.!.e.8 . X q                                                 ",
"                                      a a f 3               7 7 V { o.n . 8 g                                                   ",
"                                      + c L a               J w + T h.H.S V <.                                                  ",
"                                      9 s   e               J z _ h.E.XXx.o.$.r.                                                ",
"                                            #             L m.o.h.~.XXR.@.$.W.,X'.                                              ",
"                                            #             =.Q.A.h. X!.t.] N.3X7X5X                                              ",
"                                            #           G ;.].`.j.c.j.} e.;X*X*X9X-X                                            ",
"                                            v Q         =.;.{.2XF.$.] >.&X2XI.oX8X6X                                            ",
"                                          8.z.v.k.    2.=.*.`.1XK.} { '.2XW.D.OX8X8X-X                                          ",
"                                        ( 0.T.z.9.  ;.<.*.*./.).:.[ Z.7X2Xm.i.*X7X7X7X&X                                        ",
"                                          +.f.) h.k.W -.*.&.N.>.^ B.3X8X,X2.<.OX7X7X5X-X                                        ",
"                                          ~ d x q.T.$.n A A &.C M.1X7X7X%X2.,.`.*XI.x.k.                                        ",
"                                            9 x T %.0.x N t h ;.U.{.].).K.=.&.r.g.%. .W ~                                       ",
"                                            -     N j z f X r V K K S S A s p Y / Y * h                                         ",
"                                            =       q e y 7 $ : 3 5 4 2 2 & 7 @ Y +.A                                           ",
"                                            %       g q g 9 # * ; * 2 6 2 : O c 0.Y.                                            ",
"                                            %             9 y e * & d m l k t b.S..X                                            ",
"                                            =             B -.B 8 l <.V.N.d.*.=.z..X                                            ",
"                                            =             K u.&.e R l.<X<X[.u.~ R.@XH.                                          ",
"                                            =           V ;.i.-.u b k.:X8X,X7.0.~.@XH.                                          ",
"                                            =           N 5.s.,.m M H.*X7X-X4.) z. Xk.                                          ",
"                                            &           V u.d.>.E n Q.*X7X2Xm.U ` +.                                            ",
"                                            &           S p.d.<.m W ].].:X7X^.:.O.}                                             ",
"                                            &         D *.i.s.N.A 1.;X_.`.8X2XQ.x.                                              ",
"                                            &         =.;.u.p.P.L.&X6X]._.7X7X2XP.                                              ",
"                                            #         A ;.p.i.I.>X7X7X%XP.1X7X6X].                                              ",
"                                            #         B ,.s.i.I.:X7X7X,XG.=X7X7X*Xa.                                            ",
"                                            #         B 6.d.i.I.*X5X7X2XG.].7X7X3XK.                                            ",
"                                            #         V 6.a.u.P.oX1X7X5XI.(.4X7X7X/.                                            ",
"                                            #         A 6.a.u.P.oX:X7X7X).I.3X7X7X].w.                                          ",
"                                            9         &.6.s.u.G.oX*X7X7X].D.:X7X7X{.r.                                          ",
"                                            #         H 6.s.5.A.(.oX3X7X{.l.].7X7X{.|                                           ",
"                                            #         y C ,.5.d.P.}.1X7X,XD.P.:X].i.b                                           ",
"                                            #         9 r p C -.p.J.`.{.].u.} 4.@.m                                             ",
"                                            #             u y p m ^ } #.@.n i i l                                               ",
"                                            0           & x x i &         = i x Y                                               ",
"                                            7         l n l l &             ~ @.^ *                                             ",
"                                            X         3  .                > 3.h.3.#                                             ",
"                                                                                                                                ",
"                                                                                                                                ",
"                                                                                                                                ",
"                                                                                                                                ",
"                                                                                                                                "
};
