/* XPM */
static char *wall[] = {
/* columns rows colors chars-per-pixel */
"64 55 244 2 ",
"   c #180A18",
".  c #1B111E",
"X  c #0D0213",
"o  c #26161D",
"O  c #391E1E",
"+  c #1D1523",
"@  c #1F1C30",
"#  c #261A26",
"$  c #311E23",
"%  c #2A242E",
"&  c #38262A",
"*  c #292A37",
"=  c #372C33",
"-  c #3B343A",
";  c #1B202F",
":  c #442C2B",
">  c #57352E",
",  c #443334",
"<  c #4B3C3B",
"1  c #493737",
"2  c #533D3A",
"3  c #573C36",
"4  c #4D312D",
"5  c #633C34",
"6  c #643B2D",
"7  c #5B433C",
"8  c #59433B",
"9  c #4F433F",
"0  c #66463A",
"q  c #724B3B",
"w  c #75513E",
"e  c #2B3947",
"r  c #373A44",
"t  c #473D43",
"y  c #513F43",
"u  c #3A434A",
"i  c #384854",
"p  c #394F5B",
"a  c #4A4647",
"s  c #5A4542",
"d  c #5C4A44",
"f  c #5C4C4B",
"g  c #544646",
"h  c #5C514D",
"j  c #464D53",
"k  c #584D51",
"l  c #485657",
"z  c #5D5452",
"x  c #565856",
"c  c #4B514D",
"v  c #634C44",
"b  c #6B4E42",
"n  c #624C48",
"m  c #6C5346",
"M  c #64534C",
"N  c #6C554B",
"B  c #6A574A",
"V  c #725344",
"C  c #735549",
"Z  c #745B4C",
"A  c #7B5D4C",
"S  c #7B5844",
"D  c #6C5C54",
"F  c #665755",
"G  c #735E55",
"H  c #5B635D",
"J  c #7C614E",
"K  c #6A635B",
"L  c #7D6453",
"P  c #74635A",
"I  c #7C6A5D",
"U  c #776457",
"Y  c #495C62",
"T  c #586665",
"R  c #566D6B",
"E  c #646A64",
"W  c #796B63",
"Q  c #67736B",
"!  c #7A776A",
"~  c #6C7973",
"^  c #767C71",
"/  c #766E72",
"(  c #635F64",
")  c #845C47",
"_  c #835F50",
"`  c #83624D",
"'  c #8D654B",
"]  c #846554",
"[  c #836956",
"{  c #8B6B55",
"}  c #836C5B",
"|  c #8B6E5A",
" . c #856655",
".. c #956E54",
"X. c #8D735D",
"o. c #84705B",
"O. c #93745B",
"+. c #9B795D",
"@. c #98755A",
"#. c #91654C",
"$. c #A47B5C",
"%. c #887768",
"&. c #947B64",
"*. c #9B7D63",
"=. c #947D6A",
"-. c #957762",
";. c #897C74",
":. c #8D796E",
">. c #A27E63",
",. c #798578",
"<. c #6F8075",
"1. c #95816C",
"2. c #9C826B",
"3. c #9C8165",
"4. c #898676",
"5. c #948373",
"6. c #9C8B7B",
"7. c #988877",
"8. c #99947A",
"9. c #87856E",
"0. c #A48265",
"q. c #A3856B",
"w. c #AC8C6C",
"e. c #A88768",
"r. c #B28C69",
"t. c #B5926E",
"y. c #BA926C",
"u. c #A48C72",
"i. c #AA8E73",
"p. c #A38B75",
"a. c #AD9274",
"s. c #AC957B",
"d. c #A6967B",
"f. c #B39474",
"g. c #B99673",
"h. c #B59876",
"j. c #BB9975",
"k. c #B39B7D",
"l. c #BB9C7C",
"z. c #B29579",
"x. c #AE916E",
"c. c #BDA17D",
"v. c #B2A07F",
"b. c #A9815E",
"n. c #C19E79",
"m. c #C1986F",
"M. c #C3A37D",
"N. c #CAA67E",
"B. c #827E81",
"V. c #778A82",
"C. c #8E8887",
"Z. c #968C84",
"A. c #899285",
"S. c #999585",
"D. c #9B9694",
"F. c #A39583",
"G. c #AD9C83",
"H. c #A69A89",
"J. c #B39C83",
"K. c #B79E81",
"L. c #A69C93",
"P. c #A08F83",
"I. c #A9A389",
"U. c #BDA384",
"Y. c #BDA68B",
"T. c #BDAB8D",
"R. c #B5A388",
"E. c #ABA498",
"W. c #B8AA97",
"Q. c #BCB39A",
"!. c #ACA7A3",
"~. c #B3ACA5",
"^. c #B5ADA8",
"/. c #BBB4AB",
"(. c #BCB3A7",
"). c #BBB6B4",
"_. c #9DA084",
"`. c #C2A583",
"'. c #CBAB84",
"]. c #C4AB8C",
"[. c #CBAD8A",
"{. c #C5A885",
"}. c #CEB18D",
"|. c #D3B38C",
" X c #DAB88F",
".X c #C3AE95",
"XX c #C5B294",
"oX c #CBB493",
"OX c #C4B49A",
"+X c #C9B69B",
"@X c #CCBB9C",
"#X c #CAB999",
"$X c #D2B693",
"%X c #D4BA95",
"&X c #DABC94",
"*X c #D4BD9C",
"=X c #D7BC9A",
"-X c #D1AE87",
";X c #C6B9A5",
":X c #D2BEA2",
">X c #C5BDB4",
",X c #BCC4BA",
"<X c #DBC29D",
"1X c #D7C19C",
"2X c #E3C49B",
"3X c #CCC3A9",
"4X c #D4C2A3",
"5X c #DBC5A3",
"6X c #D4C5AB",
"7X c #DCCBAD",
"8X c #DAC8A8",
"9X c #CBC5BB",
"0X c #C9C2B5",
"qX c #DBCCB3",
"wX c #D5C9B5",
"eX c #DCD2B8",
"rX c #E2CDAB",
"tX c #E4CBA5",
"yX c #E7D2AD",
"uX c #E4D3B4",
"iX c #E4D5BA",
"pX c #ECDBBC",
"aX c #E9D7B7",
"sX c #F2DDBA",
"dX c #E6D0B0",
"fX c #F4E0BC",
"gX c #CCC8C3",
"hX c #D3CDC3",
"jX c #DBD5CB",
"kX c #E4DBC3",
"lX c #E8DCC6",
"zX c #E6DFCF",
"xX c #ECE3CB",
"cX c #ECE1C6",
"vX c #F3E3C3",
"bX c #F5E8CB",
"nX c #F6EDD6",
"mX c #FCF3DA",
"MX c #ECE4D3",
"NX c #FFFBE5",
"BX c #FEFBEB",
"VX c #F8F4E2",
"CX c #FFFFFF",
"ZX c #FFFFF4",
/* pixels */
"eX$XL ] n.j.aX[.X.n F.mXcX7XM.0.u.8 U.1X&X X}.1XtX`.>.0 W =Xa.1X'.$X[.2 C.=Xf.f.$X1X>.: L $X$X2Xf.> R.=XO.2X2X&X=X&Xr.t 0XN.=Xj.",
"@XM.] q.N.g.w.f.| 4 ;XyX&X Xg.>.) , x.'.&X0.] `.n.g.$.5 m 2X*.{ `.w.A r C.vXw.g.-Xn.`.2 V '.j. XN.V 5.yXs.*.2X&X-Xl.) 1 W.[.j.m.",
"l.m.A G 5Xf.{ ` $.0 =.&Xe.O.A $.) z pX'.y.l.0.$.w.$.$.3 1 M.-Xw.w.{ ..7 B.vXm.'.g.S w.2 3 r.0.*.@.7 m &Xl.] ] r.#.Z b : | `.r.0.",
"C 0 > & [ [ 4 q 0 $ o S > 6 0 q > + I @.0 { S ] V 5 0 : o > O.A 6 5 5 & = | ) n L > 2 # = 0 A 0 3 . % A 0 ' q 0 ) & 1 . 4 S > > ",
"hX9X:.1 D.>XwXwXn X F 3.R.hXhX;X>XhX(.& X z G.W.J.{ , + !.jX>X0XeXjXhX>X;X1 . a W.G M F # % ^.wX;XhX0XL f.} o + =.:.gXjX9X>X9X9X",
"pXvX;XzXrXu.4X2X@.F xX+XkXaXuX5XrXdX2X-.= zXXX=XuXtXK.F bXtX}.$XyX1XpXJ.0 I 8 5XdXbXtXM.n (.vXm.rXpXvXi.fX`.& D lXnXdXsX&XrXsXsX",
"5X8XpX=X-Xc.Z ) w } yX1X`.5X5XU.f.f.$.V =.1X X[.=X XM.;.;X$.{.rXXXXX=XA m s [ vX[.XXj.] 4 m 0.=X5XXXG.0.g.] C [.$X[. X&XdX7X'.m.",
"`.N.m.j.n.N.f.m : : [.tX=X'.'.5X[.`.e.& =.N.c.[.'.y.$.W zXJ.u. X`.[.u.L M.2 A 5XY.*.f.G 1 Z T.5XM.p.| [.w.7 , u.&X$Xj.$X Xg.m.y.",
"N.N.N.t.b.r.w.r.0 7 l.`.g.f.>.g.l.f.m s } {.0.l.0.y.] z =XoXf.n.f.=.d a.`.4 V @...-.0.J M '.[.h.O.2.w.-.M.t.g a.j.l.w.r.'.0...r.",
"' ..@.@...V 0 w 4   V S ) { 0. .> > C 1 $ *.{ { *.=.2 & w ..$.S 4 ` A *.=.o o 0 6 q > & $ S { { ] | ) > > 5 % Z S w ) ..{ _ 0 0 ",
";.0 8 , # # Z.W S.Z.F.G.G & % = =.F.I t Z.%.b O.- . g D.Z.t W Z.5.7.# = = - C.f L.L.E.D.C.~.;.C W . 2 E.!.E.D.L.S.6.7.2 . $ 7.D.",
"aXpXh.2 . H.bXk.qXmXbXmX:XL   2 mXnXbXzXvXE.5.a.& o D xXZXjX;XmXNX@XX.G # >XCX>XNXmX6XVXNX5XXX} F., H.NXnXpXsXvXpXmXsXV = 7.mXnX",
"n.5Xz.b ;.:XMXqX+X+XXXrXl.J m z.=X1X$X&X1XaX} m m =.mXW.XXyXc.7.dXM.0.> ;.mXaXa.:XpX4X$X[.w.1Xl.G.1 J.yX X X&X$Xl.+Xz.7 / aX7X X",
"`...0.b H.+X=.u.yXU.=X$Xk.b 2.rX@Xa.'.5Xk.u..X[.m P yXH.: .XcX2.' x.L.7 ;.4Xe.`.`.l.sX$Xq.XXXXj.U % d.dXrXuX$XM.j.=.) 0 = s.1X X",
"| } ] % F.fXXXZ XXY.2.U.f.Z ;.yX4X+Xw.l.$..XXXt.m : L 7.L.Z.6.K s L u.O.2 -.tXuX+X2.} [.5XXX+.X.g 4 qX5Xk.2.f.g.{ *...4 F k.'.8X",
"%.u.L < m '.[.=.} u.i.X.m D Z <XJ.qX`.l.Z 2.2.-.V t 3XdXyX[.w.U.+X%.O.| F a.2.U.XX1Xm %.yX$Xs.I M v U.O.| F.L ] U.t.n = L yXl.g.",
"q.m x % 1 +.{ l.| *.=.M < 4 1 0.q.*.| A X.=.[ O.& < l.@.*.U.r.0.r..Xn 0 & m  .| X.w.X.F Y.u.| d g = b { O.i.%.} r.n g , & ..) ' ",
"n n F g n F 7 & & : s 2 D f s m F , , 9 G F P P f y [ G M m 7 v 7 W F F g f C 3 2 4 s 1 - 2 : D W h 1 F m 4 % , m F 7 f f f f > ",
"VXVXVXlXaXiX3XG : f @XY.bXcXnXmXW.8 8 n T.mXlXaXbXnXbXaXlX+XK # a.aXkXqXnX6XXXpX+X& # & O.+X(.bX6XuX[..XuX2.. ! uXXX=.T.mXaXqXW.",
"uX1XrX&X$X5X$X} 2 ;X5XuX$X:X5XJ.s.f.J Y.aX7X7X:X=XdXyXyX1XdXS.& t.h.].5XuX:X7XXXa.O.& s.uXuXbXrXXXU.`.l.w.| h 7XsX:X1.G.4Xn.M.=X",
"=.` [ q.q.i.q.[ & =.'.M.'.{.J ` =X`.s %.3.U.1Xa.q.*.=.u.U.4X6.& @XuXXXc.0.{.c.w.0.i.n #XrXXXU.qXqX;X:X[.{ Z M =.W.Q.eXU.O. X'.r.",
"6X4XY.%.5.&.-.%.1 O.M.`.`.3.[  Xn.=.g 3X=Xa.U.Y.4X2.2.+Xk.{ J 8 XX$X}.`.l.h.t.j.q.2.1 5.rX{.U.U.i.0.t.r.j.*.M 0.*.=Xl.q.] +.M.t.",
"l.j.O.i.<X}.f.1.a X.&XU.z.O.O.0.*.! h +XK.X.u.z.k.h.w.q.1.[ x M j.u.i.3.q.q.>.*.d.%.- d.w.l.l.w.0.q.a.f.2.M < ..t.w.a.7.%.J q ) ",
", V C ] ..` S 0 $ & b n 0 m D d d h # 1 =.Z m 0 0 S V M 8 1 = # C 0 1 K 2 0 b Z Z 1 # 2 7 0 C 0 C ] 0 0 d : $ n ` m Z a d 7 0 S ",
"6.D f # = 7.7.D.9X^.5.7.W F % - E.9XhX9XF.>XhX;.X d H.gX0X9X9X(.W.%.W = F %.T.0 F.zX9XjX9X0X7.& # C.lXJ.6.L.9XW.t   F 9XhX9XG.=.",
"4X=XXX1 =.vX6X@XuXaXpX4X:X=XP F.fXbX7XaX7X5XsXXXg 3XsXrXrXbXaXh.$X.XJ %.nXyXuX%.6.pX1XyX7X4X0.m & a.vXbXqXqXrXrXf h dXrXuXcX@XlX",
"O.w.X.F rXU.U.$X$X[.w.x.XX.Xd 2.c.XXk.4X[.=.@.+.7.fX5XXX`.`.n.r.] { -.2.i.c.:XuX[.l.=Xk.[.i.*.5.h j.[.U.J.k.a.P % Z.5Xl.=X+X=X'.",
"*...1.z Y.Y.l.M.[.[.f.k.l.*.2 J `.0.{ 2.J.i.i.L , @Xs.[ | [ | *.X.4.W s 7.Y.l.l.2.l.*.i.l.+.f.%.F '.0.U.i.1.d %.*.7.[.`.-.a.1Xl.",
"0.3.2.f %.%.=X`.l.0.2.=.3.7.k O.w.0.u.K.i.z.k.m , n %.s.a.a.a.=.W x W D s.s.c.}.T.=.J X.[ C =.j f M.f.K.%.o.XXJ.] J l.l.`.*.i.0.",
"n C } < Z S { S V n n I Z Z = m { 0 ` { S 0 7 a , n 1.D X.3.F a m 0 m & A ` b A =.A S m Z J Z < $ m J 1 M O.S 0 4 s ] ) ] W A V ",
"P 2 4 % F %.G M f g & # W (.(.(.>X>X(.W.=.R.M + = F o.1 a % r !.(.9X;.;.(.~.F o F W.H.L.E.L.I / G = + P >X~.).0X7.%.H.h o g 7.Z.",
"U.[.n C.kX6XkXcXbXbXm F MXlXNXbXbXnXcX7X:X-.P z 0XkX4XcX+XO C.CXNXNXY.6XNXvXd.a .XcX%XcXZXmXd.L.R.g g lXNXmXlXuXK.U.l.h t MXmXvX",
"a.X.%.6.c.{.j.XX.X[...D.dX[.s.u.5X5X4XJ.k.A K %.NXqX#XaXXX=.3 Y.cX=X=X$X=.A x j 3XuX[.lX:XO.=.=X7.j +XuXkX:Xw.f.6X:X2.P M s.| V ",
"G.n 1 4 s.[.`.l.+Xf.V I uXqXXXu.+X7XU.q.w.w.W 7 :X6X[.U.U.G 7.uX[.`.$X[.u.s.d & 3.7XXXXXa.*.p.XXs.d Z 2.@X=XXX$Xs.} a.G W aXqX;X",
"=.6.t I a.k.5X=Xa.q.m } rXXXXX`.4Xs.i.[.*.) x M l.XXf.3.| s S.dXXXXX`.{ =.F.[ 2 ;X@X`.l.O.} @Xp.1.Z G.G.P l.'.&X1.=.i.3 G.yX X1X",
"L =.a a.c.I [.f.w.X.s I l.+.r.+.q.U.[.Y.s.{ a f e.] *.2.5.a P {.k.U.2.] 7.F F - 7.f.`.u.n T.G.| A 7 XX[.I n y.0.I k.>.s | t.*.+.",
"n b & 1 Z d M J ^ z , & %.m m m 2 m %.z d g r # q 0 b f r * t C 1 f z x x a r # 7 Z b v d z c t - = 3 2 2 t 1 2 G W z % # 2 , d ",
">XW.L.jX(.I.%.+ t ;.6.gX(.~.E.F.;.< # B.W.(.D.Z ^.(.(.} 2 g 4 ;.>XH.7.} # - F.9XhX/.~.E.0X0X(.9XW + , 7.^.>X(.W.W.(.g . ! [ E.(.",
"pXdXcX7X5X:X%.% E.VXXX+X1X$X$XqXY.l x NXvXbXnXlXmX7X$XXX1.&..XvXbXbXvX`.b ).NXNXkX7XsXpXNX6X;XbXS.a >XbXvXpXnXmXXX+XF.W =XrXbXbX",
"$X=X$X5XT.*.K < @X@XwX>X2.=XU.cXJ.r P sXuXuXU.w.q.$XXX=.Z m :X=XiX=X[.g.n ).sX=Xk.$XrXkXG.2.uXT.H a 4X=X6X[.f.[.f.*.E C.mXuX5X`.",
"[.'.1XK.Z L ^ z qXkX1X$XU.=XXX`.k.g n sX5X.Xl.U.rXXXP =.u.1 d.aXU.+.O.q.g 5.}.[.=X5X6XY.s.+X@X4.^ = =.1X5Xk.w.f.2.d.x , s.rXrX5X",
"*.`.c.2.[.I j h cX$Xw.i.=X[.*.q.%.a Z =XJ.a.}.[.*.J 7.[.;.t | s.w.a.a.%.r !.U.4XuXY.k.1X+XG.I ;.V.r Z XXk.XXh.a.q.9.P n P 1.}.u.",
"U.l.q.k.%.M r c R.k.q.f.k.U.[.q.5.i 4 O.w.` 2.U.P [.J.Z u a u.&.#X@X+Xd.a E.T.5.7.=.XXd.V.S.Y.V.p t I p.7.4.,.H K K K P.bX%.[ X.",
"z l E T H l - # 4 > J o.5.S.W Z a = % , G n 7 ! K Z x d g # m o.Z E k h % = =.E x K ! j R R V.p l % # F x p ; x x Q u & L [ Z b ",
"D.x * * 7.H.E.(.G g K ;.= # @ 4.H.W.G.4.;X(.;.# # M ~.>X0X>X6.E.7.= D T.;XT.} ! t - e j =.! j = d m 6.).E.H.W.d.W + k (.W.(.~.~.",
"d.! % %.bXpXbXbXaXkXkXwXQ.& 6.tXaXvX7XvX$XbXT.m M I.aXuXtXuX=X$XW.a G.yX3X@XrX6XeX;.% S.mXlXeX5.%.bXbX1X}.yX8XuX+X< F.1XbXvXU.1X",
"@X%.a +X$X8XXXc.{.O.3.h.6.z 7X7X.Xp.f.@X4X[.Q.P G.4X6XY.h.[.Y.d.K - | Y.XX+X;XT.k.7.! uX@X#X].! 5.#XU.XXU.v.U.Y.7.a Z k.J.w.{.=.",
"2.K l s.&XU.2.X.u.a.Y.U.6.- 5.5.G W.T.U.=.` K a Z 6X1XU.G.Q.T.5.^ h R.Y.6X4XG.H.d.L %.7XY.v.S.i =.M.[.@XR.s.s.6.a - 5.=.u.U.k.o.",
"W T j H.G.5.H.=.s.Q.8.~ ~ K I %.U.I.5.XXJ.9.H r H.G.U.H.I.s.9.! ,.x 7.7.H.4.5.! E W d XXXXI.,.Y F @X+XW.^ 8.8.W 4.l 1.Y.H.4.S.I.",
"x a & % c H x x 4.Q H Y e % } E Q H x ,.^ l i & h g K K x z T T u + < K a x H j p e % E T z ^ u * ~ ~ l c H r j l ; 2 h - l i T ",
"!.~.^.!.!.!.!.D.r * F K H.E.jXD.z - * E W !.^.(.^.^.W 4.W.>X( . z ).).>X(.~.F.H.S.E.F a ;.F.d.Q.7.* * D.~.E.L.~.^.^.^.~.~.L.L.g ",
"7X8X4X4XQ.3XyXS.j W cXcXvXNX,XA.E.K f 6XqXmXiXiXwXW.@XkXQ.3XH.x kXcXkX6X3X3X7XcXeXS.F.S.W.qX4X3XQ.x E.cXkXkXcXaX4XwXkX3XQ.eX6X,.",
"8.I.8.9.8.8.8.T e /.iX4XQ.D.x ^ ,.i D.3X3XI.d.8.7.s.qX0XA.x R T W.I.I.I.I._.Q.d.I.I.! W.4.5.W.T 4.K Q.I.Q.3XI.8.4.I.9.8.@X3X,.j ",
"A.E ,.I.I.9.E Y * ^ I.8.S.8.Y ^ ~ e S.@X5.S.4.! Q.I.A.,.R R e j S.I.I.I.D.A.S.6.9.E x H.E.4.R ,.j * S.E.^ I.A.4.I.S.I.I.S.8.E r ",
"R ~ ^ ,.R ^ T Y i E 8.,.4.H ~ ,.R * ~ A.T V.<.~ V.T T i R Y e u R ,.4.,.S.4.~ T T Y l ^ ,.i i T i i ~ Q ~ T T ~ ~ V.,.,.,.<.j j "
};
